;FLAVOR:Marlin
;TIME:1121
;Filament used: 0.875283m
;Layer height: 0.2
;MINX:10.2
;MINY:10.2
;MINZ:0.2
;MAXX:209.8
;MAXY:209.8
;MAXZ:0.2
;Generated with Cura_SteamEngine 4.9.0
M82 ;absolute extrusion mode
; Ender 3 Custom Start G-code
M117 Warming Print Bed
M301 P24.63 I2.05 D74.05
M304 P134.53 I26.22 D460.11
M140 S80 ; Set Heat Bed temperature
M190 S80 ; Wait for Heat Bed temperature
M104 S160; start warming extruder to 160
M117 Homing all axes
G28 ; Home all axes
M117 Beginning Bed Leveling
G29 ; Auto bed-level (BL-Touch)
G92 E0 ; Reset Extruder
M117 Warming Extruder
M104 S225 ; Set Extruder temperature
G1 X0.1 Y20 Z0.3 F5000.0 ; Move to start position
M109 S225 ; Wait for Extruder temperature
; G1 Z2.0 F3000 ; Move Z Axis up little to prevent scratching of Heat Bed
G1 X0.1 Y200.0 Z0.3 F1500.0 E15 ; Draw the first line
G1 X0.4 Y200.0 Z0.3 F5000.0 ; Move to side a little
G1 X0.4 Y20 Z0.3 F1500.0 E30 ; Draw the second line
G92 E0 ; Reset Extruder
G1 Z2.0 F3000 ; Move Z Axis up little to prevent scratching of Heat Bed
; End of custom start GCode
G92 E0
G92 E0
G1 F2400 E-6.5
;LAYER_COUNT:1
;LAYER:0
M107
G0 F6000 X12.623 Y12.349 Z0.2
;TYPE:SKIRT
G1 F2400 E0
G1 X13.222 Y11.834 E0.02335
G1 X13.87 Y11.383 E0.0467
G1 X14.561 Y10.999 E0.07007
G1 X15.286 Y10.687 E0.0934
G1 X16.039 Y10.45 E0.11674
G1 X16.813 Y10.291 E0.1401
G1 X17.598 Y10.21 E0.16344
G1 X18 Y10.2 E0.17532
G1 X38 Y10.2 E0.76662
G1 X38.789 Y10.24 E0.78998
G1 X39.569 Y10.359 E0.81331
G1 X40.334 Y10.557 E0.83667
G1 X41.074 Y10.831 E0.86
G1 X41.783 Y11.179 E0.88335
G1 X42.454 Y11.597 E0.90672
G1 X43.078 Y12.08 E0.93005
G1 X43.651 Y12.623 E0.95339
G1 X44.166 Y13.222 E0.97675
G1 X44.617 Y13.87 E1.00009
G1 X45.001 Y14.561 E1.02346
G1 X45.313 Y15.286 E1.04679
G1 X45.55 Y16.039 E1.07013
G1 X45.709 Y16.813 E1.09349
G1 X45.79 Y17.598 E1.11683
G1 X45.8 Y18 E1.12871
G1 X45.8 Y19.4 E1.17011
G1 X92.2 Y19.4 E2.54192
G1 X92.2 Y18 E2.58331
G1 X92.24 Y17.211 E2.60667
G1 X92.359 Y16.431 E2.62999
G1 X92.557 Y15.666 E2.65336
G1 X92.831 Y14.926 E2.67669
G1 X93.179 Y14.217 E2.70004
G1 X93.597 Y13.546 E2.72341
G1 X94.08 Y12.922 E2.74674
G1 X94.623 Y12.349 E2.77008
G1 X95.222 Y11.834 E2.79343
G1 X95.87 Y11.383 E2.81677
G1 X96.561 Y10.999 E2.84015
G1 X97.286 Y10.687 E2.86348
G1 X98.039 Y10.45 E2.88682
G1 X98.813 Y10.291 E2.91018
G1 X99.598 Y10.21 E2.93351
G1 X100 Y10.2 E2.9454
G1 X120 Y10.2 E3.5367
G1 X120.789 Y10.24 E3.56006
G1 X121.569 Y10.359 E3.58338
G1 X122.334 Y10.557 E3.60675
G1 X123.074 Y10.831 E3.63008
G1 X123.783 Y11.179 E3.65343
G1 X124.454 Y11.597 E3.6768
G1 X125.078 Y12.08 E3.70013
G1 X125.651 Y12.623 E3.72347
G1 X126.166 Y13.222 E3.74682
G1 X126.617 Y13.87 E3.77016
G1 X127.001 Y14.561 E3.79354
G1 X127.313 Y15.286 E3.81687
G1 X127.55 Y16.039 E3.84021
G1 X127.709 Y16.813 E3.86357
G1 X127.79 Y17.598 E3.8869
G1 X127.8 Y18 E3.89879
G1 X127.8 Y19.4 E3.94018
G1 X174.2 Y19.4 E5.31199
G1 X174.2 Y18 E5.35339
G1 X174.24 Y17.211 E5.37674
G1 X174.359 Y16.431 E5.40007
G1 X174.557 Y15.666 E5.42343
G1 X174.831 Y14.926 E5.44676
G1 X175.179 Y14.217 E5.47011
G1 X175.597 Y13.546 E5.49348
G1 X176.08 Y12.922 E5.51681
G1 X176.623 Y12.349 E5.54015
G1 X177.222 Y11.834 E5.56351
G1 X177.87 Y11.383 E5.58685
G1 X178.561 Y10.999 E5.61022
G1 X179.286 Y10.687 E5.63356
G1 X180.039 Y10.45 E5.6569
G1 X180.813 Y10.291 E5.68026
G1 X181.598 Y10.21 E5.70359
G1 X182 Y10.2 E5.71548
G1 X202 Y10.2 E6.30678
G1 X202.789 Y10.24 E6.33013
G1 X203.569 Y10.359 E6.35346
G1 X204.334 Y10.557 E6.37682
G1 X205.074 Y10.831 E6.40015
G1 X205.783 Y11.179 E6.4235
G1 X206.454 Y11.597 E6.44688
G1 X207.078 Y12.08 E6.4702
G1 X207.651 Y12.623 E6.49354
G1 X208.166 Y13.222 E6.5169
G1 X208.617 Y13.87 E6.54024
G1 X209.001 Y14.561 E6.56361
G1 X209.313 Y15.286 E6.58695
G1 X209.55 Y16.039 E6.61029
G1 X209.709 Y16.813 E6.63365
G1 X209.79 Y17.598 E6.65698
G1 X209.8 Y18 E6.66887
G1 X209.8 Y38 E7.26017
G1 X209.76 Y38.789 E7.28352
G1 X209.641 Y39.569 E7.30685
G1 X209.443 Y40.334 E7.33021
G1 X209.169 Y41.074 E7.35354
G1 X208.821 Y41.783 E7.37689
G1 X208.403 Y42.454 E7.40027
G1 X207.92 Y43.078 E7.4236
G1 X207.377 Y43.651 E7.44693
G1 X206.778 Y44.166 E7.47029
G1 X206.13 Y44.617 E7.49363
G1 X205.439 Y45.001 E7.517
G1 X204.714 Y45.313 E7.54034
G1 X203.961 Y45.55 E7.56368
G1 X203.187 Y45.709 E7.58704
G1 X202.402 Y45.79 E7.61037
G1 X202 Y45.8 E7.62226
G1 X200.6 Y45.8 E7.66365
G1 X200.6 Y92.2 E9.03546
G1 X202 Y92.2 E9.07685
G1 X202.789 Y92.24 E9.10021
G1 X203.569 Y92.359 E9.12354
G1 X204.334 Y92.557 E9.1469
G1 X205.074 Y92.831 E9.17023
G1 X205.783 Y93.179 E9.19358
G1 X206.454 Y93.597 E9.21695
G1 X207.078 Y94.08 E9.24028
G1 X207.651 Y94.623 E9.26362
G1 X208.166 Y95.222 E9.28698
G1 X208.617 Y95.87 E9.31032
G1 X209.001 Y96.561 E9.33369
G1 X209.313 Y97.286 E9.35702
G1 X209.55 Y98.039 E9.38036
G1 X209.709 Y98.813 E9.40372
G1 X209.79 Y99.598 E9.42706
G1 X209.8 Y100 E9.43894
G1 X209.8 Y120 E10.03024
G1 X209.76 Y120.789 E10.0536
G1 X209.641 Y121.569 E10.07693
G1 X209.443 Y122.334 E10.10029
G1 X209.169 Y123.074 E10.12362
G1 X208.821 Y123.783 E10.14697
G1 X208.403 Y124.454 E10.17034
G1 X207.92 Y125.078 E10.19367
G1 X207.377 Y125.651 E10.21701
G1 X206.778 Y126.166 E10.24037
G1 X206.13 Y126.617 E10.26371
G1 X205.439 Y127.001 E10.28708
G1 X204.714 Y127.313 E10.31041
G1 X203.961 Y127.55 E10.33375
G1 X203.187 Y127.709 E10.35711
G1 X202.402 Y127.79 E10.38045
G1 X202 Y127.8 E10.39233
G1 X200.6 Y127.8 E10.43373
G1 X200.6 Y174.2 E11.80554
G1 X202 Y174.2 E11.84693
G1 X202.789 Y174.24 E11.87029
G1 X203.569 Y174.359 E11.89361
G1 X204.334 Y174.557 E11.91698
G1 X205.074 Y174.831 E11.94031
G1 X205.783 Y175.179 E11.96366
G1 X206.454 Y175.597 E11.98703
G1 X207.078 Y176.08 E12.01036
G1 X207.651 Y176.623 E12.0337
G1 X208.166 Y177.222 E12.05705
G1 X208.617 Y177.87 E12.08039
G1 X209.001 Y178.561 E12.10377
G1 X209.313 Y179.286 E12.1271
G1 X209.55 Y180.039 E12.15044
G1 X209.709 Y180.813 E12.1738
G1 X209.79 Y181.598 E12.19713
G1 X209.8 Y182 E12.20902
G1 X209.8 Y202 E12.80032
G1 X209.76 Y202.789 E12.82368
G1 X209.641 Y203.569 E12.847
G1 X209.443 Y204.334 E12.87037
G1 X209.169 Y205.074 E12.8937
G1 X208.821 Y205.783 E12.91705
G1 X208.403 Y206.454 E12.94042
G1 X207.92 Y207.078 E12.96375
G1 X207.377 Y207.651 E12.98709
G1 X206.778 Y208.166 E13.01044
G1 X206.13 Y208.617 E13.03378
G1 X205.439 Y209.001 E13.05716
G1 X204.714 Y209.313 E13.08049
G1 X203.961 Y209.55 E13.10383
G1 X203.187 Y209.709 E13.12719
G1 X202.402 Y209.79 E13.15052
G1 X202 Y209.8 E13.16241
G1 X182 Y209.8 E13.75371
G1 X181.211 Y209.76 E13.77707
G1 X180.431 Y209.641 E13.80039
G1 X179.666 Y209.443 E13.82376
G1 X178.926 Y209.169 E13.84709
G1 X178.217 Y208.821 E13.87044
G1 X177.546 Y208.403 E13.89381
G1 X176.922 Y207.92 E13.91714
G1 X176.349 Y207.377 E13.94048
G1 X175.834 Y206.778 E13.96383
G1 X175.383 Y206.13 E13.98717
G1 X174.999 Y205.439 E14.01055
G1 X174.687 Y204.714 E14.03388
G1 X174.45 Y203.961 E14.05722
G1 X174.291 Y203.187 E14.08058
G1 X174.21 Y202.402 E14.10391
G1 X174.2 Y202 E14.1158
G1 X174.2 Y200.6 E14.15719
G1 X127.8 Y200.6 E15.52901
G1 X127.8 Y202 E15.5704
G1 X127.76 Y202.789 E15.59375
G1 X127.641 Y203.569 E15.61708
G1 X127.443 Y204.334 E15.64044
G1 X127.169 Y205.074 E15.66377
G1 X126.821 Y205.783 E15.68712
G1 X126.403 Y206.454 E15.7105
G1 X125.92 Y207.078 E15.73383
G1 X125.377 Y207.651 E15.75716
G1 X124.778 Y208.166 E15.78052
G1 X124.13 Y208.617 E15.80386
G1 X123.439 Y209.001 E15.82723
G1 X122.714 Y209.313 E15.85057
G1 X121.961 Y209.55 E15.87391
G1 X121.187 Y209.709 E15.89727
G1 X120.402 Y209.79 E15.9206
G1 X120 Y209.8 E15.93249
G1 X100 Y209.8 E16.52379
G1 X99.211 Y209.76 E16.54714
G1 X98.431 Y209.641 E16.57047
G1 X97.666 Y209.443 E16.59383
G1 X96.926 Y209.169 E16.61716
G1 X96.217 Y208.821 E16.64051
G1 X95.546 Y208.403 E16.66389
G1 X94.922 Y207.92 E16.68722
G1 X94.349 Y207.377 E16.71055
G1 X93.834 Y206.778 E16.73391
G1 X93.383 Y206.13 E16.75725
G1 X92.999 Y205.439 E16.78062
G1 X92.687 Y204.714 E16.80396
G1 X92.45 Y203.961 E16.8273
G1 X92.291 Y203.187 E16.85066
G1 X92.21 Y202.402 E16.87399
G1 X92.2 Y202 E16.88588
G1 X92.2 Y200.6 E16.92727
G1 X45.8 Y200.6 E18.29908
G1 X45.8 Y202 E18.34047
G1 X45.76 Y202.789 E18.36383
G1 X45.641 Y203.569 E18.38716
G1 X45.443 Y204.334 E18.41052
G1 X45.169 Y205.074 E18.43385
G1 X44.821 Y205.783 E18.4572
G1 X44.403 Y206.454 E18.48057
G1 X43.92 Y207.078 E18.5039
G1 X43.377 Y207.651 E18.52724
G1 X42.778 Y208.166 E18.5506
G1 X42.13 Y208.617 E18.57394
G1 X41.439 Y209.001 E18.59731
G1 X40.714 Y209.313 E18.62064
G1 X39.961 Y209.55 E18.64398
G1 X39.187 Y209.709 E18.66734
G1 X38.402 Y209.79 E18.69068
G1 X38 Y209.8 E18.70257
G1 X18 Y209.8 E19.29386
G1 X17.211 Y209.76 E19.31722
G1 X16.431 Y209.641 E19.34055
G1 X15.666 Y209.443 E19.36391
G1 X14.926 Y209.169 E19.38724
G1 X14.217 Y208.821 E19.41059
G1 X13.546 Y208.403 E19.43396
G1 X12.922 Y207.92 E19.45729
G1 X12.349 Y207.377 E19.48063
G1 X11.834 Y206.778 E19.50399
G1 X11.383 Y206.13 E19.52733
G1 X10.999 Y205.439 E19.5507
G1 X10.687 Y204.714 E19.57403
G1 X10.45 Y203.961 E19.59737
G1 X10.291 Y203.187 E19.62073
G1 X10.21 Y202.402 E19.64407
G1 X10.2 Y202 E19.65596
G1 X10.2 Y182 E20.24725
G1 X10.24 Y181.211 E20.27061
G1 X10.359 Y180.431 E20.29394
G1 X10.557 Y179.666 E20.3173
G1 X10.831 Y178.926 E20.34063
G1 X11.179 Y178.217 E20.36398
G1 X11.597 Y177.546 E20.38735
G1 X12.08 Y176.922 E20.41068
G1 X12.623 Y176.349 E20.43402
G1 X13.222 Y175.834 E20.45738
G1 X13.87 Y175.383 E20.48072
G1 X14.561 Y174.999 E20.50409
G1 X15.286 Y174.687 E20.52743
G1 X16.039 Y174.45 E20.55076
G1 X16.813 Y174.291 E20.57413
G1 X17.598 Y174.21 E20.59746
G1 X18 Y174.2 E20.60935
G1 X19.4 Y174.2 E20.65074
G1 X19.4 Y127.8 E22.02255
G1 X18 Y127.8 E22.06394
G1 X17.211 Y127.76 E22.0873
G1 X16.431 Y127.641 E22.11062
G1 X15.666 Y127.443 E22.13399
G1 X14.926 Y127.169 E22.15732
G1 X14.217 Y126.821 E22.18067
G1 X13.546 Y126.403 E22.20404
G1 X12.922 Y125.92 E22.22737
G1 X12.349 Y125.377 E22.25071
G1 X11.834 Y124.778 E22.27406
G1 X11.383 Y124.13 E22.2974
G1 X10.999 Y123.439 E22.32078
G1 X10.687 Y122.714 E22.34411
G1 X10.45 Y121.961 E22.36745
G1 X10.291 Y121.187 E22.39081
G1 X10.21 Y120.402 E22.41414
G1 X10.2 Y120 E22.42603
G1 X10.2 Y100 E23.01733
G1 X10.24 Y99.211 E23.04069
G1 X10.359 Y98.431 E23.06401
G1 X10.557 Y97.666 E23.08738
G1 X10.831 Y96.926 E23.11071
G1 X11.179 Y96.217 E23.13406
G1 X11.597 Y95.546 E23.15743
G1 X12.08 Y94.922 E23.18076
G1 X12.623 Y94.349 E23.2041
G1 X13.222 Y93.834 E23.22745
G1 X13.87 Y93.383 E23.25079
G1 X14.561 Y92.999 E23.27417
G1 X15.286 Y92.687 E23.2975
G1 X16.039 Y92.45 E23.32084
G1 X16.813 Y92.291 E23.3442
G1 X17.598 Y92.21 E23.36753
G1 X18 Y92.2 E23.37942
G1 X19.4 Y92.2 E23.42081
G1 X19.4 Y45.8 E24.79263
G1 X18 Y45.8 E24.83402
G1 X17.211 Y45.76 E24.85737
G1 X16.431 Y45.641 E24.8807
G1 X15.666 Y45.443 E24.90406
G1 X14.926 Y45.169 E24.92739
G1 X14.217 Y44.821 E24.95074
G1 X13.546 Y44.403 E24.97412
G1 X12.922 Y43.92 E24.99745
G1 X12.349 Y43.377 E25.02078
G1 X11.834 Y42.778 E25.04414
G1 X11.383 Y42.13 E25.06748
G1 X10.999 Y41.439 E25.09085
G1 X10.687 Y40.714 E25.11419
G1 X10.45 Y39.961 E25.13753
G1 X10.291 Y39.187 E25.16089
G1 X10.21 Y38.402 E25.18422
G1 X10.2 Y38 E25.19611
G1 X10.2 Y18 E25.78741
G1 X10.24 Y17.211 E25.81076
G1 X10.359 Y16.431 E25.83409
G1 X10.557 Y15.666 E25.85745
G1 X10.831 Y14.926 E25.88078
G1 X11.179 Y14.217 E25.90413
G1 X11.597 Y13.546 E25.92751
G1 X12.08 Y12.922 E25.95084
G1 X12.623 Y12.349 E25.97418
G0 F6000 X13.016 Y12.53
G1 F2400 X13.611 Y12.042 E25.99693
G1 X14.253 Y11.619 E26.01966
G1 X14.936 Y11.264 E26.04241
G1 X15.651 Y10.983 E26.06513
G1 X16.393 Y10.777 E26.08789
G1 X17.151 Y10.649 E26.11062
G1 X18 Y10.6 E26.13576
G1 X38 Y10.6 E26.72706
G1 X38.768 Y10.64 E26.7498
G1 X39.528 Y10.759 E26.77254
G1 X40.271 Y10.957 E26.79528
G1 X40.99 Y11.231 E26.81802
G1 X41.676 Y11.578 E26.84075
G1 X42.323 Y11.994 E26.86349
G1 X42.923 Y12.475 E26.88623
G1 X43.47 Y13.016 E26.90897
G1 X43.958 Y13.611 E26.93173
G1 X44.381 Y14.253 E26.95446
G1 X44.736 Y14.936 E26.97721
G1 X45.017 Y15.651 E26.99993
G1 X45.223 Y16.393 E27.02269
G1 X45.351 Y17.151 E27.04542
G1 X45.4 Y18 E27.07056
G1 X45.4 Y19.8 E27.12378
G1 X92.6 Y19.8 E28.51925
G1 X92.6 Y18 E28.57246
G1 X92.64 Y17.232 E28.5952
G1 X92.759 Y16.472 E28.61794
G1 X92.957 Y15.729 E28.64068
G1 X93.231 Y15.01 E28.66342
G1 X93.578 Y14.324 E28.68615
G1 X93.994 Y13.677 E28.70889
G1 X94.475 Y13.077 E28.73163
G1 X95.016 Y12.53 E28.75437
G1 X95.611 Y12.042 E28.77713
G1 X96.253 Y11.619 E28.79986
G1 X96.936 Y11.264 E28.82261
G1 X97.651 Y10.983 E28.84533
G1 X98.393 Y10.777 E28.86809
G1 X99.151 Y10.649 E28.89082
G1 X100 Y10.6 E28.91596
G1 X120 Y10.6 E29.50726
G1 X120.768 Y10.64 E29.53
G1 X121.528 Y10.759 E29.55274
G1 X122.271 Y10.957 E29.57547
G1 X122.99 Y11.231 E29.59822
G1 X123.676 Y11.578 E29.62095
G1 X124.323 Y11.994 E29.64369
G1 X124.923 Y12.475 E29.66643
G1 X125.47 Y13.016 E29.68917
G1 X125.958 Y13.611 E29.71192
G1 X126.381 Y14.253 E29.73466
G1 X126.736 Y14.936 E29.75741
G1 X127.017 Y15.651 E29.78013
G1 X127.223 Y16.393 E29.80289
G1 X127.351 Y17.151 E29.82562
G1 X127.4 Y18 E29.85076
G1 X127.4 Y19.8 E29.90398
G1 X174.6 Y19.8 E31.29944
G1 X174.6 Y18 E31.35266
G1 X174.64 Y17.232 E31.3754
G1 X174.759 Y16.472 E31.39814
G1 X174.957 Y15.729 E31.42087
G1 X175.231 Y15.01 E31.44362
G1 X175.578 Y14.324 E31.46635
G1 X175.994 Y13.677 E31.48909
G1 X176.475 Y13.077 E31.51183
G1 X177.016 Y12.53 E31.53457
G1 X177.611 Y12.042 E31.55732
G1 X178.253 Y11.619 E31.58005
G1 X178.936 Y11.264 E31.60281
G1 X179.651 Y10.983 E31.62553
G1 X180.393 Y10.777 E31.64829
G1 X181.151 Y10.649 E31.67102
G1 X182 Y10.6 E31.69616
G1 X202 Y10.6 E32.28746
G1 X202.768 Y10.64 E32.3102
G1 X203.528 Y10.759 E32.33294
G1 X204.271 Y10.957 E32.35567
G1 X204.99 Y11.231 E32.37842
G1 X205.676 Y11.578 E32.40115
G1 X206.323 Y11.994 E32.42389
G1 X206.923 Y12.475 E32.44663
G1 X207.47 Y13.016 E32.46937
G1 X207.958 Y13.611 E32.49212
G1 X208.381 Y14.253 E32.51485
G1 X208.736 Y14.936 E32.53761
G1 X209.017 Y15.651 E32.56032
G1 X209.223 Y16.393 E32.58309
G1 X209.351 Y17.151 E32.60582
G1 X209.4 Y18 E32.63096
G1 X209.4 Y38 E33.22226
G1 X209.36 Y38.768 E33.245
G1 X209.241 Y39.528 E33.26774
G1 X209.043 Y40.271 E33.29047
G1 X208.769 Y40.99 E33.31322
G1 X208.422 Y41.676 E33.33595
G1 X208.006 Y42.323 E33.35869
G1 X207.525 Y42.923 E33.38143
G1 X206.984 Y43.47 E33.40417
G1 X206.389 Y43.958 E33.42692
G1 X205.747 Y44.381 E33.44965
G1 X205.064 Y44.736 E33.47241
G1 X204.349 Y45.017 E33.49512
G1 X203.607 Y45.223 E33.51789
G1 X202.849 Y45.351 E33.54062
G1 X202 Y45.4 E33.56576
G1 X200.2 Y45.4 E33.61898
G1 X200.2 Y92.6 E35.01444
G1 X202 Y92.6 E35.06766
G1 X202.768 Y92.64 E35.0904
G1 X203.528 Y92.759 E35.11314
G1 X204.271 Y92.957 E35.13587
G1 X204.99 Y93.231 E35.15862
G1 X205.676 Y93.578 E35.18135
G1 X206.323 Y93.994 E35.20409
G1 X206.923 Y94.475 E35.22683
G1 X207.47 Y95.016 E35.24957
G1 X207.958 Y95.611 E35.27232
G1 X208.381 Y96.253 E35.29505
G1 X208.736 Y96.936 E35.31781
G1 X209.017 Y97.651 E35.34052
G1 X209.223 Y98.393 E35.36329
G1 X209.351 Y99.151 E35.38602
G1 X209.4 Y100 E35.41116
G1 X209.4 Y120 E36.00246
G1 X209.36 Y120.768 E36.0252
G1 X209.241 Y121.528 E36.04794
G1 X209.043 Y122.271 E36.07067
G1 X208.769 Y122.99 E36.09342
G1 X208.422 Y123.676 E36.11615
G1 X208.006 Y124.323 E36.13889
G1 X207.525 Y124.923 E36.16163
G1 X206.984 Y125.47 E36.18437
G1 X206.389 Y125.958 E36.20712
G1 X205.747 Y126.381 E36.22985
G1 X205.064 Y126.736 E36.25261
G1 X204.349 Y127.017 E36.27532
G1 X203.607 Y127.223 E36.29809
G1 X202.849 Y127.351 E36.32082
G1 X202 Y127.4 E36.34596
G1 X200.2 Y127.4 E36.39918
G1 X200.2 Y174.6 E37.79464
G1 X202 Y174.6 E37.84786
G1 X202.768 Y174.64 E37.8706
G1 X203.528 Y174.759 E37.89334
G1 X204.271 Y174.957 E37.91607
G1 X204.99 Y175.231 E37.93882
G1 X205.676 Y175.578 E37.96155
G1 X206.323 Y175.994 E37.98429
G1 X206.923 Y176.475 E38.00703
G1 X207.47 Y177.016 E38.02977
G1 X207.958 Y177.611 E38.05252
G1 X208.381 Y178.253 E38.07525
G1 X208.736 Y178.936 E38.09801
G1 X209.017 Y179.651 E38.12072
G1 X209.223 Y180.393 E38.14349
G1 X209.351 Y181.151 E38.16622
G1 X209.4 Y182 E38.19136
G1 X209.4 Y202 E38.78266
G1 X209.36 Y202.768 E38.8054
G1 X209.241 Y203.528 E38.82814
