;FLAVOR:Marlin
;TIME:1371
;Filament used: 0.632137m
;Layer height: 0.2
;MINX:5.683
;MINY:6.548
;MINZ:0.2
;MAXX:214.317
;MAXY:213.452
;MAXZ:0.2
;Generated with Cura_SteamEngine 4.9.0
M82 ;absolute extrusion mode
; Ender 3 Custom Start G-code
M117 Warming Print Bed
M301 P24.63 I2.05 D74.05
M304 P134.53 I26.22 D460.11
M140 S80 ; Set Heat Bed temperature
M190 S80 ; Wait for Heat Bed temperature
M104 S160; start warming extruder to 160
M117 Homing all axes
G28 ; Home all axes
M117 Beginning Bed Leveling
G29 ; Auto bed-level (BL-Touch)
G92 E0 ; Reset Extruder
M117 Warming Extruder
M104 S200 ; Set Extruder temperature
G1 X0.1 Y20 Z0.3 F5000.0 ; Move to start position
M109 S200 ; Wait for Extruder temperature
; G1 Z2.0 F3000 ; Move Z Axis up little to prevent scratching of Heat Bed
G1 X0.1 Y200.0 Z0.3 F1500.0 E15 ; Draw the first line
G1 X0.4 Y200.0 Z0.3 F5000.0 ; Move to side a little
G1 X0.4 Y20 Z0.3 F1500.0 E30 ; Draw the second line
G92 E0 ; Reset Extruder
G1 Z2.0 F3000 ; Move Z Axis up little to prevent scratching of Heat Bed
; End of custom start GCode
G92 E0
G92 E0
G1 F1380 E-5
;LAYER_COUNT:1
;LAYER:0
M106 S127.5
;MESH:lvl_03.stl
G0 F6000 X99.083 Y149.181 Z0.2
;TYPE:WALL-INNER
G1 F1380 E0
G1 F1200 X108.872 Y149.181 E0.28941
G1 X108.872 Y120.917 E1.12503
G1 X99.386 Y120.917 E1.40549
G1 X28.782 Y191.521 E4.35752
G1 X28.782 Y210.797 E4.92741
G1 X108.872 Y210.797 E7.29527
G1 X108.872 Y171.015 E8.47142
G1 X99.083 Y171.015 E8.76083
G1 X99.083 Y149.181 E9.40635
G1 F1380 E4.40635
G0 F6000 X98.683 Y148.781
;TYPE:WALL-OUTER
G1 F1380 E9.40635
G1 F1200 X108.472 Y148.781 E9.69576
G1 X108.472 Y121.317 E10.50774
G1 X99.552 Y121.317 E10.77146
G1 X29.182 Y191.687 E13.7137
G1 X29.182 Y210.397 E14.26686
G1 X108.472 Y210.397 E16.61107
G1 X108.472 Y171.415 E17.76357
G1 X98.683 Y171.415 E18.05298
G1 X98.683 Y148.781 E18.72215
G1 F1380 E13.72215
G0 F6000 X98.983 Y149.051
G0 X99.279 Y170.819
G0 X99.279 Y172.28
G0 X113.055 Y172.28
G0 X113.055 Y170.845
G0 X120.917 Y171.015
;TYPE:WALL-INNER
G1 F1380 E18.72215
G1 F1200 X111.128 Y171.015 E19.01156
G1 X111.128 Y210.797 E20.18772
G1 X191.218 Y210.797 E22.55557
G1 X191.218 Y191.521 E23.12547
G1 X120.614 Y120.917 E26.0775
G1 X111.128 Y120.917 E26.35795
G1 X111.128 Y149.181 E27.19357
G1 X120.917 Y149.181 E27.48299
G1 X120.917 Y171.015 E28.12851
G1 F1380 E23.12851
G0 F6000 X121.317 Y171.415
;TYPE:WALL-OUTER
G1 F1380 E28.12851
G1 F1200 X111.528 Y171.415 E28.41792
G1 X111.528 Y210.397 E29.57042
G1 X190.818 Y210.397 E31.91462
G1 X190.818 Y191.687 E32.46778
G1 X120.448 Y121.317 E35.41003
G1 X111.528 Y121.317 E35.67375
G1 X111.528 Y148.781 E36.48572
G1 X121.317 Y148.781 E36.77513
G1 X121.317 Y171.415 E37.4443
G1 F1380 E32.4443
G0 F6000 X121.017 Y171.145
G0 X121.089 Y149.009
G0 X111.3 Y149.009
G0 X111.3 Y121.089
G0 X120.546 Y121.081
G0 X135.032 Y135.066
G0 X135.342 Y134.756
G0 X121.081 Y120.546
G0 X121.089 Y111.3
G0 X149.009 Y111.3
G0 X149.181 Y120.917
;TYPE:WALL-INNER
G1 F1380 E37.4443
G1 F1200 X149.181 Y111.128 E37.73372
G1 X120.917 Y111.128 E38.56934
G1 X120.917 Y120.614 E38.84979
G1 X191.521 Y191.218 E41.80183
G1 X210.797 Y191.218 E42.37172
G1 X210.797 Y111.128 E44.73957
G1 X171.015 Y111.128 E45.91573
G1 X171.015 Y120.917 E46.20514
G1 X149.181 Y120.917 E46.85066
G1 F1380 E41.85066
G0 F6000 X148.781 Y121.317
;TYPE:WALL-OUTER
G1 F1380 E46.85066
G1 F1200 X148.781 Y111.528 E47.14007
G1 X121.317 Y111.528 E47.95204
G1 X121.317 Y120.448 E48.21576
G1 X191.687 Y190.818 E51.15801
G1 X210.397 Y190.818 E51.71117
G1 X210.397 Y111.528 E54.05537
G1 X171.415 Y111.528 E55.20787
G1 X171.415 Y121.317 E55.49728
G1 X148.781 Y121.317 E56.16646
G1 F1380 E51.16646
G0 F6000 X149.081 Y121.047
G0 X170.819 Y120.721
G0 X172.28 Y120.721
G0 X172.28 Y106.945
G0 X170.845 Y106.945
G0 X171.015 Y99.083
;TYPE:WALL-INNER
G1 F1380 E56.16646
G1 F1200 X171.015 Y108.872 E56.45587
G1 X210.797 Y108.872 E57.63202
G1 X210.797 Y28.782 E59.99988
G1 X191.521 Y28.782 E60.56977
G1 X120.917 Y99.386 E63.5218
G1 X120.917 Y108.872 E63.80226
G1 X149.181 Y108.872 E64.63788
G1 X149.181 Y99.083 E64.92729
G1 X171.015 Y99.083 E65.57281
G1 F1380 E60.57281
G0 F6000 X171.415 Y98.683
;TYPE:WALL-OUTER
G1 F1380 E65.57281
G1 F1200 X171.415 Y108.472 E65.86222
G1 X210.397 Y108.472 E67.01472
G1 X210.397 Y29.182 E69.35893
G1 X191.687 Y29.182 E69.91209
G1 X121.317 Y99.552 E72.85434
G1 X121.317 Y108.472 E73.11805
G1 X148.781 Y108.472 E73.93003
G1 X148.781 Y98.683 E74.21944
G1 X171.415 Y98.683 E74.88861
G1 F1380 E69.88861
G0 F6000 X171.145 Y98.983
G0 X149.009 Y98.911
G0 X149.009 Y108.7
G0 X121.089 Y108.7
G0 X121.081 Y99.454
G0 X135.066 Y84.968
G0 X134.756 Y84.658
G0 X120.546 Y98.919
G0 X111.3 Y98.911
G0 X111.3 Y70.991
G0 X120.917 Y70.819
;TYPE:WALL-INNER
G1 F1380 E74.88861
G1 F1200 X111.128 Y70.819 E75.17802
G1 X111.128 Y99.083 E76.01364
G1 X120.614 Y99.083 E76.2941
G1 X191.218 Y28.479 E79.24613
G1 X191.218 Y9.203 E79.81602
G1 X111.128 Y9.203 E82.18388
G1 X111.128 Y48.985 E83.36003
G1 X120.917 Y48.985 E83.64944
G1 X120.917 Y70.819 E84.29496
G1 F1380 E79.29496
G0 F6000 X121.317 Y71.219
;TYPE:WALL-OUTER
G1 F1380 E84.29496
G1 F1200 X111.528 Y71.219 E84.58437
G1 X111.528 Y98.683 E85.39635
G1 X120.448 Y98.683 E85.66007
G1 X190.818 Y28.313 E88.60231
G1 X190.818 Y9.603 E89.15547
G1 X111.528 Y9.603 E91.49968
G1 X111.528 Y48.585 E92.65218
G1 X121.317 Y48.585 E92.94159
G1 X121.317 Y71.219 E93.61076
G1 F1380 E88.61076
G0 F6000 X121.017 Y70.949
G0 X120.721 Y49.181
G0 X120.721 Y47.72
G0 X106.945 Y47.72
G0 X106.945 Y49.155
G0 X99.083 Y48.985
;TYPE:WALL-INNER
G1 F1380 E93.61076
G1 F1200 X108.872 Y48.985 E93.90017
G1 X108.872 Y9.203 E95.07633
G1 X28.782 Y9.203 E97.44418
G1 X28.782 Y28.479 E98.01407
G1 X99.386 Y99.083 E100.96611
G1 X108.872 Y99.083 E101.24656
G1 X108.872 Y70.819 E102.08218
G1 X99.083 Y70.819 E102.3716
G1 X99.083 Y48.985 E103.01712
G1 F1380 E98.01712
G0 F6000 X98.683 Y48.585
;TYPE:WALL-OUTER
G1 F1380 E103.01712
G1 F1200 X108.472 Y48.585 E103.30653
G1 X108.472 Y9.603 E104.45903
G1 X29.182 Y9.603 E106.80323
G1 X29.182 Y28.313 E107.35639
G1 X99.552 Y98.683 E110.29864
G1 X108.472 Y98.683 E110.56236
G1 X108.472 Y71.219 E111.37433
G1 X98.683 Y71.219 E111.66374
G1 X98.683 Y48.585 E112.33291
G1 F1380 E107.33291
G0 F6000 X98.983 Y48.855
G0 X98.911 Y70.991
G0 X108.7 Y70.991
G0 X108.7 Y98.911
G0 X99.454 Y98.919
G0 X84.968 Y84.934
G0 X84.658 Y85.244
G0 X98.919 Y99.454
G0 X98.911 Y108.7
G0 X70.991 Y108.7
G0 X70.819 Y99.083
;TYPE:WALL-INNER
G1 F1380 E112.33291
G1 F1200 X70.819 Y108.872 E112.62233
G1 X99.083 Y108.872 E113.45795
G1 X99.083 Y99.386 E113.7384
G1 X28.479 Y28.782 E116.69044
G1 X9.203 Y28.782 E117.26033
G1 X9.203 Y108.872 E119.62818
G1 X48.985 Y108.872 E120.80434
G1 X48.985 Y99.083 E121.09375
G1 X70.819 Y99.083 E121.73927
G1 F1380 E116.73927
G0 F6000 X71.219 Y98.683
;TYPE:WALL-OUTER
G1 F1380 E121.73927
G1 F1200 X71.219 Y108.472 E122.02868
G1 X98.683 Y108.472 E122.84065
G1 X98.683 Y99.552 E123.10437
G1 X28.313 Y29.182 E126.04662
G1 X9.603 Y29.182 E126.59978
G1 X9.603 Y108.472 E128.94398
G1 X48.585 Y108.472 E130.09648
G1 X48.585 Y98.683 E130.38589
G1 X71.219 Y98.683 E131.05507
G1 F1380 E126.05507
G0 F6000 X70.949 Y98.983
G0 X49.181 Y99.279
G0 X47.72 Y99.279
G0 X47.72 Y113.055
G0 X49.155 Y113.055
G0 X48.985 Y120.917
;TYPE:WALL-INNER
G1 F1380 E131.05507
G1 F1200 X48.985 Y111.128 E131.34448
G1 X9.203 Y111.128 E132.52063
G1 X9.203 Y191.218 E134.88849
G1 X28.479 Y191.218 E135.45838
G1 X99.083 Y120.614 E138.41041
G1 X99.083 Y111.128 E138.69087
G1 X70.819 Y111.128 E139.52649
G1 X70.819 Y120.917 E139.8159
G1 X48.985 Y120.917 E140.46142
G1 F1380 E135.46142
G0 F6000 X48.585 Y121.317
;TYPE:WALL-OUTER
G1 F1380 E140.46142
G1 F1200 X48.585 Y111.528 E140.75083
G1 X9.603 Y111.528 E141.90333
G1 X9.603 Y190.818 E144.24754
G1 X28.313 Y190.818 E144.8007
G1 X98.683 Y120.448 E147.74295
G1 X98.683 Y111.528 E148.00666
G1 X71.219 Y111.528 E148.81864
G1 X71.219 Y121.317 E149.10805
G1 X48.585 Y121.317 E149.77722
G1 F1380 E144.77722
G0 F6000 X48.885 Y121.047
G0 X48.813 Y111.3
G0 X9.375 Y111.3
G0 X9.013 Y191.408
G0 X7.158 Y191.408
G0 X6.948 Y213.052
;TYPE:WALL-INNER
G1 F1380 E149.77722
G1 F1200 X6.948 Y6.948 E155.87067
G1 X213.052 Y6.948 E161.96412
G1 X213.052 Y213.052 E168.05757
G1 X6.948 Y213.052 E174.15102
G1 F1380 E169.15102
G0 F6000 X6.548 Y213.452
;TYPE:WALL-OUTER
G1 F1380 E174.15102
G1 F1200 X6.548 Y6.548 E180.26813
G1 X213.452 Y6.548 E186.38523
G1 X213.452 Y213.452 E192.50233
G1 X6.548 Y213.452 E198.61944
G1 F1380 E193.61944
G0 F6000 X6.848 Y213.182
G0 X7.158 Y17.982
G0 X17.982 Y17.982
;TYPE:SKIN
G1 F1380 E198.61944
G1 F1200 X17.748 Y17.982 E198.62635
G1 X17.748 Y17.748 E198.63327
G1 X17.982 Y17.748 E198.64019
G1 X17.982 Y17.982 E198.64711
G0 F6000 X18.382 Y18.382
G1 F1200 X17.348 Y18.382 E198.67768
G1 X17.348 Y17.348 E198.70825
G1 X18.382 Y17.348 E198.73882
G1 X18.382 Y18.382 E198.76939
G0 F6000 X18.782 Y18.782
G1 F1200 X16.948 Y18.782 E198.82361
G1 X16.948 Y16.948 E198.87783
G1 X18.782 Y16.948 E198.93206
G1 X18.782 Y18.782 E198.98628
G0 F6000 X19.182 Y19.182
G1 F1200 X16.548 Y19.182 E199.06415
G1 X16.548 Y16.548 E199.14203
G1 X19.182 Y16.548 E199.2199
G1 X19.182 Y19.182 E199.29777
G0 F6000 X19.582 Y19.582
G1 F1200 X16.148 Y19.582 E199.3993
G1 X16.148 Y16.148 E199.50083
G1 X19.582 Y16.148 E199.60235
G1 X19.582 Y19.582 E199.70388
G0 F6000 X19.982 Y19.982
G1 F1200 X15.748 Y19.982 E199.82906
G1 X15.748 Y15.748 E199.95423
G1 X19.982 Y15.748 E200.07941
G1 X19.982 Y19.982 E200.20459
G0 F6000 X20.382 Y20.382
G1 F1200 X15.348 Y20.382 E200.35342
G1 X15.348 Y15.348 E200.50225
G1 X20.382 Y15.348 E200.65108
G1 X20.382 Y20.382 E200.79991
G0 F6000 X20.782 Y20.782
G1 F1200 X14.948 Y20.782 E200.97239
G1 X14.948 Y14.948 E201.14487
G1 X20.782 Y14.948 E201.31736
G1 X20.782 Y20.782 E201.48984
G0 F6000 X21.182 Y21.182
G1 F1200 X14.548 Y21.182 E201.68597
G1 X14.548 Y14.548 E201.8821
G1 X21.182 Y14.548 E202.07824
G1 X21.182 Y21.182 E202.27437
G0 F6000 X21.582 Y21.582
G1 F1200 X14.148 Y21.582 E202.49416
G1 X14.148 Y14.148 E202.71394
G1 X21.582 Y14.148 E202.93373
G1 X21.582 Y21.582 E203.15351
G0 F6000 X21.982 Y21.982
G1 F1200 X13.748 Y21.982 E203.39695
G1 X13.748 Y13.748 E203.64039
G1 X21.982 Y13.748 E203.88383
G1 X21.982 Y21.982 E204.12727
G0 F6000 X22.382 Y22.382
G1 F1200 X13.348 Y22.382 E204.39436
G1 X13.348 Y13.348 E204.66144
G1 X22.382 Y13.348 E204.92853
G1 X22.382 Y22.382 E205.19562
G0 F6000 X22.782 Y22.782
G1 F1200 X12.948 Y22.782 E205.48637
G1 X12.948 Y12.948 E205.77711
G1 X22.782 Y12.948 E206.06785
G1 X22.782 Y22.782 E206.35859
G0 F6000 X23.182 Y23.182
G1 F1200 X12.548 Y23.182 E206.67298
G1 X12.548 Y12.548 E206.98738
G1 X23.182 Y12.548 E207.30177
G1 X23.182 Y23.182 E207.61616
G0 F6000 X23.582 Y23.582
G1 F1200 X12.148 Y23.582 E207.95421
G1 X12.148 Y12.148 E208.29226
G1 X23.582 Y12.148 E208.6303
G1 X23.582 Y23.582 E208.96835
G0 F6000 X23.982 Y23.982
G1 F1200 X11.748 Y23.982 E209.33004
G1 X11.748 Y11.748 E209.69174
G1 X23.982 Y11.748 E210.05344
G1 X23.982 Y23.982 E210.41514
G0 F6000 X24.382 Y24.382
G1 F1200 X11.348 Y24.382 E210.80049
G1 X11.348 Y11.348 E211.18583
G1 X24.382 Y11.348 E211.57118
G1 X24.382 Y24.382 E211.95653
G0 F6000 X24.782 Y24.782
G1 F1200 X10.948 Y24.782 E212.36553
G1 X10.948 Y10.948 E212.77454
G1 X24.782 Y10.948 E213.18354
G1 X24.782 Y24.782 E213.59254
G0 F6000 X25.182 Y25.182
G1 F1200 X10.548 Y25.182 E214.02519
G1 X10.548 Y10.548 E214.45784
G1 X25.182 Y10.548 E214.8905
G1 X25.182 Y25.182 E215.32315
G0 F6000 X25.582 Y25.582
G1 F1200 X10.148 Y25.582 E215.77946
G1 X10.148 Y10.148 E216.23576
G1 X25.582 Y10.148 E216.69207
G1 X25.582 Y25.582 E217.14837
G0 F6000 X25.982 Y25.982
G1 F1200 X9.748 Y25.982 E217.62833
G1 X9.748 Y9.748 E218.10829
G1 X25.982 Y9.748 E218.58824
G1 X25.982 Y25.982 E219.0682
G0 F6000 X26.382 Y26.382
G1 F1200 X9.348 Y26.382 E219.57181
G1 X9.348 Y9.348 E220.07542
G1 X26.382 Y9.348 E220.57903
G1 X26.382 Y26.382 E221.08264
G0 F6000 X26.782 Y26.782
G1 F1200 X8.948 Y26.782 E221.6099
G1 X8.948 Y8.948 E222.13716
G1 X26.782 Y8.948 E222.66442
G1 X26.782 Y26.782 E223.19168
G0 F6000 X27.182 Y27.182
G1 F1200 X8.548 Y27.182 E223.74259
G1 X8.548 Y8.548 E224.29351
G1 X27.182 Y8.548 E224.84442
G1 X27.182 Y27.182 E225.39533
G0 F6000 X27.582 Y27.582
G1 F1200 X8.148 Y27.582 E225.9699
G1 X8.148 Y8.148 E226.54446
G1 X27.582 Y8.148 E227.11903
G1 X27.582 Y27.582 E227.69359
G1 F1380 E222.69359
G0 F6000 X28.672 Y27.582
G0 X28.59 Y28.559
G0 X9.093 Y28.642
G0 X8.803 Y28.382
G1 F1380 E227.69359
G1 F1200 X8.803 Y109.272 E230.0851
G1 X49.385 Y109.272 E231.2849
G1 X49.385 Y99.483 E231.57432
G1 X70.419 Y99.483 E232.19618
G1 X70.419 Y109.272 E232.4856
G1 X99.483 Y109.272 E233.34487
G1 X99.483 Y99.483 E233.63428
G1 X109.272 Y99.483 E233.92369
G1 X109.272 Y70.419 E234.78297
G1 X99.483 Y70.419 E235.07238
G1 X99.483 Y49.385 E235.69425
G1 X109.272 Y49.385 E235.98366
G1 X109.272 Y8.803 E237.18346
G1 X28.382 Y8.803 E239.57497
G1 X28.382 Y28.382 E240.15382
G1 X8.803 Y28.382 E240.73267
G0 F6000 X8.403 Y27.982
G1 F1200 X8.403 Y109.672 E243.14783
G1 X49.785 Y109.672 E244.37129
G1 X49.785 Y99.883 E244.6607
G1 X70.019 Y99.883 E245.25892
G1 X70.019 Y109.672 E245.54833
G1 X99.883 Y109.672 E246.43126
G1 X99.883 Y99.883 E246.72067
G1 X109.672 Y99.883 E247.01008
G1 X109.672 Y70.019 E247.89301
G1 X99.883 Y70.019 E248.18242
G1 X99.883 Y49.785 E248.78063
G1 X109.672 Y49.785 E249.07005
G1 X109.672 Y8.403 E250.2935
G1 X27.982 Y8.403 E252.70866
G1 X27.982 Y27.982 E253.28751
G1 X8.403 Y27.982 E253.86636
G1 F1380 E248.86636
G0 F6000 X9.093 Y28.642
G0 X7.158 Y28.586
G0 X7.058 Y7.748
G0 X7.748 Y7.748
G1 F1380 E253.86636
G1 F1200 X212.252 Y7.748 E259.91251
G1 X212.252 Y212.252 E265.95866
G1 X7.748 Y212.252 E272.00481
G1 X7.748 Y7.748 E278.05095
G0 F6000 X7.348 Y7.348
G1 F1200 X212.652 Y7.348 E284.12075
G1 X212.652 Y212.652 E290.19055
G1 X7.348 Y212.652 E296.26035
G1 X7.348 Y7.348 E302.33015
G1 F1380 E297.33015
G0 F6000 X7.058 Y7.348
G0 X7.158 Y49.095
G0 X5.683 Y49.095
G0 X27.956 Y30.043
G0 X28.592 Y28.558
G0 X28.954 Y9.375
G0 X108.7 Y9.375
G0 X108.7 Y48.813
G0 X100.283 Y49.095
G0 X100.283 Y50.185
G1 F1380 E302.33015
G1 F1200 X119.717 Y50.185 E302.90472
G1 X119.717 Y69.619 E303.47928
G1 X100.283 Y69.619 E304.05385
G1 X100.283 Y50.185 E304.62841
G0 F6000 X100.683 Y50.585
G1 F1200 X119.317 Y50.585 E305.17932
G1 X119.317 Y69.219 E305.73024
G1 X100.683 Y69.219 E306.28115
G1 X100.683 Y50.585 E306.83206
G0 F6000 X101.083 Y50.985
G1 F1200 X118.917 Y50.985 E307.35932
G1 X118.917 Y68.819 E307.88658
G1 X101.083 Y68.819 E308.41385
G1 X101.083 Y50.985 E308.94111
G0 F6000 X101.483 Y51.385
G1 F1200 X118.517 Y51.385 E309.44472
G1 X118.517 Y68.419 E309.94832
G1 X101.483 Y68.419 E310.45193
G1 X101.483 Y51.385 E310.95554
G0 F6000 X101.883 Y51.785
G1 F1200 X118.117 Y51.785 E311.4355
G1 X118.117 Y68.019 E311.91546
G1 X101.883 Y68.019 E312.39541
G1 X101.883 Y51.785 E312.87537
G0 F6000 X102.283 Y52.185
G1 F1200 X117.717 Y52.185 E313.33168
G1 X117.717 Y67.619 E313.78798
G1 X102.283 Y67.619 E314.24429
G1 X102.283 Y52.185 E314.70059
G0 F6000 X102.683 Y52.585
G1 F1200 X117.317 Y52.585 E315.13325
G1 X117.317 Y67.219 E315.5659
G1 X102.683 Y67.219 E315.99855
G1 X102.683 Y52.585 E316.4312
G0 F6000 X103.083 Y52.985
G1 F1200 X116.917 Y52.985 E316.84021
G1 X116.917 Y66.819 E317.24921
G1 X103.083 Y66.819 E317.65821
G1 X103.083 Y52.985 E318.06721
G0 F6000 X103.483 Y53.385
G1 F1200 X116.517 Y53.385 E318.45256
G1 X116.517 Y66.419 E318.83791
G1 X103.483 Y66.419 E319.22326
G1 X103.483 Y53.385 E319.60861
G0 F6000 X103.883 Y53.785
G1 F1200 X116.117 Y53.785 E319.9703
G1 X116.117 Y66.019 E320.332
G1 X103.883 Y66.019 E320.6937
G1 X103.883 Y53.785 E321.0554
G0 F6000 X104.283 Y54.185
G1 F1200 X115.717 Y54.185 E321.39344
G1 X115.717 Y65.619 E321.73149
G1 X104.283 Y65.619 E322.06953
G1 X104.283 Y54.185 E322.40758
G0 F6000 X104.683 Y54.585
G1 F1200 X115.317 Y54.585 E322.72197
G1 X115.317 Y65.219 E323.03637
G1 X104.683 Y65.219 E323.35076
G1 X104.683 Y54.585 E323.66515
G0 F6000 X105.083 Y54.985
G1 F1200 X114.917 Y54.985 E323.95589
G1 X114.917 Y64.819 E324.24664
G1 X105.083 Y64.819 E324.53738
G1 X105.083 Y54.985 E324.82812
G0 F6000 X105.483 Y55.385
