;FLAVOR:Marlin
;TIME:7054
;Filament used: 3.78942m
;Layer height: 0.2
;MINX:80.062
;MINY:94.698
;MINZ:0.2
;MAXX:139.799
;MAXY:125.302
;MAXZ:48
;Generated with Cura_SteamEngine 4.9.0
M82 ;absolute extrusion mode
; Ender 3 Custom Start G-code
M117 Warming Print Bed
M140 S80 ; Set Heat Bed temperature
M190 S80 ; Wait for Heat Bed temperature
M104 S160; start warming extruder to 160
M117 Homing all axes
G28 ; Home all axes
M117 Beginning Bed Leveling
G29 ; Auto bed-level (BL-Touch)
G92 E0 ; Reset Extruder
M117 Warming Extruder
M104 S200.0 ; Set Extruder temperature
G1 X0.1 Y20 Z0.3 F5000.0 ; Move to start position
M109 S200.0 ; Wait for Extruder temperature
; G1 Z2.0 F3000 ; Move Z Axis up little to prevent scratching of Heat Bed
G1 X0.1 Y200.0 Z0.3 F1500.0 E15 ; Draw the first line
G1 X0.4 Y200.0 Z0.3 F5000.0 ; Move to side a little
G1 X0.4 Y20 Z0.3 F1500.0 E30 ; Draw the second line
G92 E0 ; Reset Extruder
G1 Z2.0 F3000 ; Move Z Axis up little to prevent scratching of Heat Bed
; End of custom start GCode
G92 E0
G92 E0
G1 F1500 E-6.5
;LAYER_COUNT:240
;LAYER:0
M107
;MESH:3DBenchy.stl
G0 F6000 X88.338 Y113.581 Z0.2
;TYPE:WALL-INNER
G1 F1500 E0
G1 F1200 X88.715 Y113.47 E0.01307
G1 X89.057 Y113.303 E0.02573
G1 X89.357 Y113.09 E0.03797
G1 X89.616 Y112.822 E0.05036
G1 X89.813 Y112.517 E0.06244
G1 X89.981 Y112.099 E0.07742
G1 X89.896 Y111.6 E0.09426
G1 X89.617 Y111.234 E0.10957
G1 X89.216 Y111.005 E0.12492
G1 X88.772 Y110.931 E0.1399
G1 X88.326 Y111.028 E0.15508
G1 X88.018 Y111.263 E0.16796
G1 X87.878 Y111.406 E0.17462
G1 X87.802 Y111.434 E0.17731
G1 X87.541 Y111.46 E0.18604
G1 X87.303 Y111.421 E0.19406
G1 X86.98 Y111.23 E0.20654
G1 X86.788 Y110.904 E0.21912
G1 X86.723 Y110.668 E0.22726
G1 X86.679 Y110.355 E0.23778
G1 X86.663 Y110.065 E0.24744
G1 X86.667 Y109.768 E0.25732
G1 X86.682 Y109.532 E0.26518
G1 X86.73 Y109.233 E0.27525
G1 X86.872 Y108.847 E0.28893
G1 X87.117 Y108.589 E0.30077
G1 X87.484 Y108.473 E0.31357
G1 X87.655 Y108.493 E0.31929
G1 X87.82 Y108.575 E0.32542
G1 X88.065 Y108.73 E0.33507
G1 X88.37 Y108.889 E0.34651
G1 X88.782 Y109.002 E0.36071
G1 X89.182 Y108.963 E0.37408
G1 X89.545 Y108.76 E0.38791
G1 X89.779 Y108.456 E0.40067
G1 X89.831 Y108.387 E0.40355
G1 X89.876 Y108.222 E0.40924
G1 X89.923 Y108.052 E0.4151
G1 X90.027 Y108.263 E0.41777
G1 X90.093 Y108.318 E0.42063
G1 X90.372 Y108.55 E0.4327
G1 X90.782 Y108.645 E0.44669
G1 X91.114 Y108.628 E0.45775
G1 X91.406 Y108.585 E0.46757
G1 X91.414 Y108.584 E0.46784
G1 X91.699 Y108.584 E0.47732
G1 X91.704 Y108.837 E0.48573
G1 X91.704 Y108.846 E0.48603
G1 X91.683 Y109.233 E0.49892
G1 X91.689 Y109.638 E0.51239
G1 X91.692 Y109.718 E0.51506
G1 X91.689 Y111.062 E0.55976
G1 X91.687 Y111.224 E0.56515
G1 X91.691 Y111.577 E0.57689
G1 X91.699 Y111.888 E0.58724
G1 X91.678 Y112.221 E0.59833
G1 X91.655 Y112.529 E0.60861
G1 X91.732 Y112.934 E0.62232
G1 X92.015 Y113.3 E0.63771
G1 X92.447 Y113.485 E0.65334
G1 X92.905 Y113.506 E0.66858
G1 X93.323 Y113.362 E0.68329
G1 X93.652 Y113.031 E0.69881
G1 X93.81 Y112.626 E0.71327
G1 X93.847 Y112.212 E0.7271
G1 X93.843 Y112.023 E0.73338
G1 X93.828 Y111.662 E0.7454
G1 X93.827 Y111.387 E0.75455
G1 X93.831 Y110.986 E0.76788
G1 X93.83 Y109.4 E0.82064
G1 X93.833 Y108.849 E0.83896
G1 X93.833 Y108.771 E0.84156
G1 X93.83 Y108.609 E0.84695
G1 X93.829 Y108.592 E0.84751
G1 X93.844 Y108.593
G1 X94.01 Y108.604 E0.85036
G1 X94.088 Y108.605 E0.85295
G1 X94.353 Y108.61 E0.86177
G1 X94.797 Y108.579 E0.87657
G1 X95.192 Y108.472 E0.89018
G1 X95.536 Y108.207 E0.90462
G1 X95.643 Y107.988 E0.91273
G1 X95.71 Y108.114 E0.91311
G1 X95.862 Y108.4 E0.92295
G1 X96.229 Y108.716 E0.93906
G1 X96.588 Y108.83 E0.95159
G1 X96.717 Y108.81 E0.95593
G1 X96.631 Y108.881 E0.95607
G1 X96.538 Y108.957 E0.95794
G1 X96.328 Y109.379 E0.97362
G1 X96.276 Y109.798 E0.98766
G1 X96.402 Y110.266 E1.00378
G1 X96.732 Y110.582 E1.01898
G1 X97.12 Y110.714 E1.03261
G1 X97.461 Y110.771 E1.04411
G1 X97.658 Y110.834 E1.05098
G1 X97.926 Y111.057 E1.06258
G1 X97.997 Y111.264 E1.06986
G1 X98.018 Y111.325 E1.07201
G1 X97.911 Y111.522 E1.07946
G1 X97.813 Y111.557 E1.08292
G1 X97.694 Y111.479 E1.08766
G1 X97.642 Y111.441 E1.08969
G1 X97.411 Y111.271 E1.09923
G1 X97.053 Y111.12 E1.11215
G1 X96.639 Y111.082 E1.12598
G1 X96.261 Y111.161 E1.13883
G1 X95.89 Y111.395 E1.15341
G1 X95.648 Y111.795 E1.16896
G1 X95.599 Y112.261 E1.18455
G1 X95.71 Y112.698 E1.19954
G1 X95.929 Y113.039 E1.21302
G1 X96.283 Y113.324 E1.22814
G1 X96.641 Y113.49 E1.24126
G1 X96.998 Y113.59 E1.2536
G1 X97.417 Y113.648 E1.26766
G1 X97.821 Y113.656 E1.2811
G1 X98.165 Y113.633 E1.29257
G1 X98.549 Y113.559 E1.30558
G1 X98.914 Y113.427 E1.31849
G1 X99.26 Y113.231 E1.33171
G1 X99.607 Y112.938 E1.34682
G1 X99.821 Y112.686 E1.35781
G1 X100.031 Y112.346 E1.37111
G1 X100.147 Y112.074 E1.38094
G1 X100.171 Y112.016 E1.38303
G1 X100.189 Y111.975 E1.38452
G1 X100.257 Y111.697 E1.39404
G1 X100.283 Y111.594 E1.39757
G1 X100.307 Y111.297 E1.40748
G1 X100.314 Y111.224 E1.40992
G1 X100.265 Y110.778 E1.42484
G1 X100.181 Y110.45 E1.4361
G1 X100.126 Y110.267 E1.44246
G1 X100.077 Y110.106 E1.44806
G1 X99.894 Y109.707 E1.46266
G1 X99.69 Y109.477 E1.47288
G1 X99.805 Y109.361 E1.47832
G1 X99.979 Y108.972 E1.49249
G1 X100.042 Y108.614 E1.50458
G1 X100.067 Y108.31 E1.51472
G1 X100.06 Y107.944 E1.5269
G1 X99.972 Y107.52 E1.5413
G1 X99.799 Y107.176 E1.55411
G1 X99.59 Y106.917 E1.56518
G1 X99.283 Y106.658 E1.57854
G1 X98.945 Y106.476 E1.59131
G1 X98.519 Y106.345 E1.60613
G1 X98.171 Y106.29 E1.61785
G1 X97.858 Y106.271 E1.62828
G1 X97.545 Y106.275 E1.63869
G1 X97.2 Y106.314 E1.65024
G1 X96.863 Y106.386 E1.6617
G1 X96.574 Y106.489 E1.6719
G1 X96.242 Y106.662 E1.68435
G1 X95.97 Y106.869 E1.69572
G1 X95.832 Y107.046 E1.70319
G1 X95.712 Y107.2 E1.70968
G1 X95.638 Y106.984 E1.71266
G1 X95.596 Y106.863 E1.7153
G1 X95.255 Y106.556 E1.73056
G1 X94.845 Y106.444 E1.7447
G1 X94.34 Y106.45 E1.76149
G1 X93.451 Y106.446 E1.79106
G1 X92.72 Y106.448 E1.81538
G1 X92.069 Y106.445 E1.83703
G1 X91.498 Y106.456 E1.85602
G1 X91.19 Y106.433 E1.8663
G1 X90.838 Y106.411 E1.87803
G1 X90.455 Y106.481 E1.89098
G1 X90.099 Y106.724 E1.90531
G1 X89.941 Y106.972 E1.91509
G1 X89.875 Y107.075 E1.91916
G1 X89.849 Y107.21 E1.92373
G1 X89.813 Y107.395 E1.93
G1 X89.696 Y107.181 E1.93264
G1 X89.613 Y107.091 E1.93671
G1 X89.452 Y106.919 E1.94455
G1 X89.139 Y106.68 E1.95765
G1 X88.807 Y106.5 E1.97021
G1 X88.429 Y106.369 E1.98351
G1 X87.997 Y106.292 E1.99811
G1 X87.607 Y106.273 E2.0111
G1 X87.3 Y106.284 E2.02131
G1 X86.957 Y106.329 E2.03282
G1 X86.654 Y106.402 E2.04319
G1 X86.342 Y106.514 E2.05421
G1 X85.973 Y106.703 E2.068
G1 X85.63 Y106.947 E2.082
G1 X85.325 Y107.24 E2.09607
G1 X85.12 Y107.506 E2.10724
G1 X85.068 Y107.574 E2.11008
G1 X84.916 Y107.828 E2.11993
G1 X84.788 Y108.096 E2.12981
G1 X84.728 Y108.26 E2.13562
G1 X84.728 Y108.096 E2.13595
G1 X84.728 Y107.828 E2.13855
G1 X84.728 Y107.574 E2.14401
G1 X84.728 Y107.488 E2.14667
G1 X84.728 Y105.133 E2.225
G1 X84.754 Y104.881 E2.23343
G1 X84.801 Y104.701 E2.23962
G1 X84.911 Y104.463 E2.24834
G1 X85.196 Y104.157 E2.26224
G1 X85.551 Y103.991 E2.27528
G1 X85.821 Y103.948 E2.28437
G1 X109.326 Y102.52 E3.06759
G1 X109.786 Y102.503 E3.0829
G1 X110.067 Y102.501 E3.09225
G1 X110.377 Y102.505 E3.10256
G1 X110.651 Y102.513 E3.11168
G1 X111.073 Y102.537 E3.12574
G1 X111.501 Y102.574 E3.14003
G1 X111.909 Y102.622 E3.15369
G1 X112.042 Y102.64 E3.15815
G1 X112.459 Y102.705 E3.17219
G1 X112.736 Y102.756 E3.18156
G1 X113.002 Y102.809 E3.19058
G1 X113.367 Y102.891 E3.20302
G1 X113.734 Y102.983 E3.21561
G1 X114.13 Y103.096 E3.2293
G1 X114.372 Y103.169 E3.23771
G1 X114.86 Y103.333 E3.25483
G1 X115.325 Y103.509 E3.27137
G1 X115.579 Y103.614 E3.28051
G1 X115.905 Y103.753 E3.2923
G1 X116.245 Y103.911 E3.30477
G1 X116.255 Y103.918 E3.30517
G1 X116.507 Y104.041 E3.3145
G1 X116.78 Y104.183 E3.32474
G1 X117.227 Y104.432 E3.34175
G1 X117.467 Y104.576 E3.35106
G1 X117.828 Y104.802 E3.36523
G1 X118.138 Y105.009 E3.37763
G1 X118.386 Y105.181 E3.38766
G1 X118.709 Y105.423 E3.40109
G1 X119.078 Y105.712 E3.41668
G1 X119.528 Y106.094 E3.43631
G1 X119.858 Y106.396 E3.45119
G1 X120.067 Y106.599 E3.46088
G1 X120.263 Y106.796 E3.47012
G1 X120.431 Y106.969 E3.47814
G1 X120.797 Y107.371 E3.49622
G1 X121.023 Y107.638 E3.50786
G1 X121.36 Y108.055 E3.52569
G1 X121.499 Y108.239 E3.53336
G1 X121.728 Y108.555 E3.54634
G1 X122.01 Y108.969 E3.563
G1 X122.145 Y109.18 E3.57133
G1 X122.272 Y109.387 E3.57941
G1 X122.43 Y109.66 E3.5899
G1 X122.513 Y110.011 E3.6019
G1 X122.458 Y110.28 E3.61103
G1 X122.297 Y110.573 E3.62215
G1 X122.084 Y110.918 E3.63564
G1 X121.831 Y111.299 E3.65085
G1 X121.624 Y111.592 E3.66278
G1 X121.332 Y111.981 E3.67896
G1 X121.326 Y111.989 E3.67929
G1 X121.204 Y112.141 E3.68577
G1 X121.088 Y112.286 E3.69195
G1 X121.019 Y112.11 E3.69411
G1 X120.953 Y111.941 E3.69823
G1 X120.945 Y111.935 E3.69856
G1 X120.583 Y111.644 E3.71401
G1 X120.173 Y111.522 E3.72824
G1 X120.041 Y111.51 E3.73265
G1 X119.755 Y111.484 E3.7422
G1 X119.683 Y111.471 E3.74463
G1 X119.7 Y111.446
G1 X119.864 Y111.212 E3.75069
G1 X120.296 Y110.597 E3.77569
G1 X120.592 Y110.181 E3.79267
G1 X120.798 Y109.873 E3.80499
G1 X120.951 Y109.58 E3.81599
G1 X121.048 Y109.218 E3.82845
G1 X121.048 Y108.796 E3.84249
G1 X120.908 Y108.374 E3.85728
G1 X120.604 Y108.046 E3.87215
G1 X120.198 Y107.899 E3.88651
G1 X119.758 Y107.881 E3.90116
G1 X119.467 Y107.886 E3.91084
G1 X118.373 Y107.882 E3.94723
G1 X118.062 Y107.878 E3.95757
G1 X117.667 Y107.895 E3.97072
G1 X117.26 Y107.986 E3.98459
G1 X116.872 Y108.256 E4.00031
G1 X116.851 Y108.3 E4.00194
G1 X116.776 Y108.452 E4.00757
G1 X116.718 Y108.379 E4.00765
G1 X116.532 Y108.145 E4.01465
G1 X116.118 Y107.902 E4.03061
G1 X115.656 Y107.897 E4.04598
G1 X115.272 Y108.111 E4.0606
G1 X114.99 Y108.441 E4.07504
G1 X114.834 Y108.734 E4.08608
G1 X114.744 Y108.955 E4.09402
G1 X114.718 Y109.019 E4.09631
G1 X114.618 Y109.332 E4.10724
G1 X114.569 Y109.484 E4.11255
G1 X114.537 Y109.572 E4.11567
G1 X114.512 Y109.507
G1 X114.419 Y109.269 E4.11984
G1 X114.377 Y109.11 E4.12294
G1 X114.36 Y109.043 E4.12511
G1 X114.285 Y108.763 E4.13476
G1 X114.143 Y108.439 E4.14652
G1 X113.855 Y108.121 E4.16079
G1 X113.479 Y107.935 E4.17474
G1 X113.031 Y107.876 E4.18977
G1 X112.59 Y107.993 E4.20495
G1 X112.253 Y108.321 E4.22059
G1 X112.248 Y108.339 E4.22121
G1 X112.167 Y108.59 E4.22998
G1 X112.077 Y108.411 E4.23114
G1 X112.001 Y108.261 E4.2339
G1 X111.644 Y107.973 E4.24916
G1 X111.285 Y107.872 E4.26156
G1 X110.862 Y107.947 E4.27585
G1 X110.502 Y108.182 E4.29015
G1 X110.266 Y108.437 E4.3017
G1 X110.244 Y108.472 E4.30308
G1 X110.178 Y108.576 E4.30718
G1 X110.143 Y108.527
G1 X109.983 Y108.307 E4.3132
G1 X109.671 Y108.028 E4.32713
G1 X109.282 Y107.886 E4.3409
G1 X109.056 Y107.88 E4.34842
G1 X108.691 Y107.966 E4.36089
G1 X108.338 Y108.198 E4.37494
G1 X108.087 Y108.62 E4.39127
G1 X108.087 Y109.133 E4.40833
G1 X108.231 Y109.532 E4.42244
G1 X108.38 Y109.809 E4.4329
G1 X108.571 Y110.134 E4.44544
G1 X108.724 Y110.415 E4.45608
G1 X108.935 Y110.739 E4.46894
G1 X108.947 Y110.764 E4.46987
G1 X108.75 Y111.026 E4.48077
G1 X108.479 Y111.497 E4.49884
G1 X108.462 Y111.528 E4.50002
G1 X108.383 Y111.656 E4.50502
G1 X108.317 Y111.763 E4.5092
G1 X108.277 Y111.837 E4.512
G1 X108.256 Y111.792
G1 X108.192 Y111.655 E4.51428
G1 X108.116 Y111.492 E4.51845
G1 X108.093 Y111.465 E4.51963
G1 X107.836 Y111.169 E4.53267
G1 X107.487 Y110.93 E4.54674
G1 X107.093 Y110.795 E4.56059
G1 X106.795 Y110.763 E4.57056
G1 X106.488 Y110.797 E4.58083
G1 X106.381 Y110.808 E4.58441
G1 X106.195 Y110.882 E4.59107
G1 X106.13 Y110.908 E4.5934
G1 X106.156 Y110.786 E4.59451
G1 X106.168 Y110.679 E4.59749
G1 X106.207 Y110.361 E4.60815
G1 X106.22 Y109.984 E4.62069
G1 X106.215 Y109.676 E4.63094
G1 X106.188 Y109.327 E4.64258
G1 X106.127 Y108.933 E4.65584
G1 X106.056 Y108.63 E4.66619
G1 X105.963 Y108.346 E4.67613
G1 X105.849 Y108.071 E4.68603
G1 X105.644 Y107.702 E4.70007
G1 X105.397 Y107.373 E4.71376
G1 X105.153 Y107.128 E4.72526
G1 X104.841 Y106.894 E4.73823
G1 X104.441 Y106.695 E4.75309
G1 X104.143 Y106.598 E4.76351
G1 X103.857 Y106.535 E4.77325
G1 X103.544 Y106.489 E4.78377
G1 X103.365 Y106.472 E4.78975
G1 X102.977 Y106.45 E4.80268
G1 X102.606 Y106.448 E4.81502
G1 X102.306 Y106.451 E4.825
G1 X102.169 Y106.448 E4.82955
G1 X101.834 Y106.434 E4.84071
G1 X101.471 Y106.45 E4.85279
G1 X101.126 Y106.539 E4.86464
G1 X100.751 Y106.774 E4.87936
G1 X100.522 Y107.182 E4.89492
G1 X100.491 Y107.568 E4.9078
G1 X100.523 Y107.872 E4.91797
G1 X100.534 Y108.133 E4.92666
G1 X100.523 Y108.768 E4.94778
G1 X100.523 Y110.257 E4.99731
G1 X100.523 Y110.449 E5.00324
G1 X100.524 Y110.777 E5.01144
G1 X100.525 Y111.223 E5.02017
G1 X100.526 Y111.315 E5.02193
G1 X100.527 Y111.592 E5.02713
G1 X100.529 Y111.763 E5.03125
G1 X100.52 Y111.988 E5.03674
G1 X100.513 Y112.161 E5.04207
G1 X100.515 Y112.224 E5.0441
G1 X100.525 Y112.505 E5.05345
G1 X100.622 Y112.897 E5.06688
G1 X100.876 Y113.283 E5.08225
G1 X101.27 Y113.493 E5.0971
G1 X101.658 Y113.516 E5.11003
G1 X102.053 Y113.476 E5.12323
G1 X102.236 Y113.473 E5.12932
G1 X102.643 Y113.484 E5.14286
G1 X103.054 Y113.479 E5.15653
G1 X103.407 Y113.455 E5.1683
G1 X103.816 Y113.399 E5.18203
G1 X104.211 Y113.302 E5.19556
G1 X104.503 Y113.189 E5.20597
G1 X104.859 Y112.99 E5.21954
G1 X105.014 Y112.862 E5.22622
G1 X105.164 Y112.739 E5.23267
G1 X105.214 Y112.698 E5.23482
G1 X105.232 Y112.82 E5.23652
G1 X105.309 Y112.999 E5.2411
G1 X105.386 Y113.178 E5.24758
G1 X105.666 Y113.529 E5.26251
G1 X106.013 Y113.779 E5.27674
G1 X106.384 Y113.921 E5.28995
G1 X106.804 Y113.967 E5.304
G1 X107.224 Y113.901 E5.31814
G1 X107.64 Y113.709 E5.33338
G1 X107.94 Y113.459 E5.34637
G1 X108.099 Y113.234 E5.35553
G1 X108.151 Y113.161 E5.35851
G1 X108.227 Y113.299 E5.36079
G1 X108.251 Y113.341 E5.36127
G1 X108.64 Y113.609 E5.37698
G1 X109.134 Y113.694 E5.39365
G1 X109.527 Y113.555 E5.40752
G1 X109.825 Y113.283 E5.42094
G1 X109.895 Y113.193 E5.42473
G1 X109.908 Y113.177 E5.42541
G1 X110.049 Y112.973 E5.43366
G1 X110.07 Y112.943 E5.43488
G1 X110.119 Y112.863 E5.438
G1 X110.141 Y112.901
G1 X110.202 Y113.006 E5.43968
G1 X110.271 Y113.126 E5.44238
G1 X110.283 Y113.142 E5.44304
G1 X110.486 Y113.408 E5.45417
G1 X110.842 Y113.643 E5.46836
G1 X111.305 Y113.706 E5.4839
G1 X111.747 Y113.586 E5.49913
G1 X112.096 Y113.3 E5.51414
G1 X112.282 Y112.865 E5.52988
G1 X112.282 Y112.434 E5.54421
G1 X112.173 Y112.076 E5.55666
G1 X112.063 Y111.869 E5.56445
G1 X111.905 Y111.625 E5.57412
G1 X111.854 Y111.541 E5.57739
G1 X111.648 Y111.17 E5.59151
G1 X111.472 Y110.89 E5.60251
G1 X111.397 Y110.721 E5.60866
G1 X111.514 Y110.443 E5.61869
G1 X111.705 Y110.141 E5.63057
G1 X111.921 Y109.773 E5.64476
G1 X112.034 Y109.581 E5.65217
G1 X112.074 Y109.491 E5.65545
G1 X112.16 Y109.304 E5.6623
G1 X112.214 Y109.539 E5.66458
G1 X112.218 Y109.556
G1 X112.297 Y109.764 E5.67019
G1 X112.346 Y109.894 E5.67481
G1 X112.502 Y110.26 E5.68804
G1 X112.56 Y110.408 E5.69333
G1 X112.765 Y110.962 E5.71298
G1 X112.985 Y111.541 E5.73358
G1 X113.087 Y111.831 E5.7438
G1 X113.193 Y112.113 E5.75382
G1 X113.275 Y112.301 E5.76065
G1 X113.399 Y112.564 E5.77032
G1 X113.437 Y112.701 E5.77505
G1 X113.41 Y112.82 E5.7791
G1 X113.237 Y113.182 E5.79245
G1 X113.185 Y113.306 E5.79692
G1 X113.054 Y113.665 E5.80963
G1 X112.871 Y113.952 E5.82095
G1 X112.728 Y114.029 E5.82635
G1 X112.406 Y114.113 E5.83742
G1 X112.001 Y114.31 E5.8524
G1 X111.784 Y114.567 E5.86359
G1 X111.677 Y114.984 E5.87791
G1 X111.745 Y115.425 E5.89275
G1 X111.96 Y115.826 E5.90788
G1 X112.31 Y116.115 E5.92298
G1 X112.793 Y116.225 E5.93945
G1 X113.176 Y116.189 E5.95225
G1 X113.553 Y116.085 E5.96526
G1 X113.896 Y115.938 E5.97767
G1 X114.193 Y115.742 E5.9895
G1 X114.441 Y115.497 E6.0011
G1 X114.683 Y115.137 E6.01553
G1 X114.779 Y114.958 E6.02228
G1 X114.923 Y114.641 E6.03386
G1 X115.06 Y114.302 E6.04602
G1 X115.247 Y113.824 E6.0631
G1 X115.424 Y113.357 E6.07971
G1 X115.7 Y112.591 E6.10679
G1 X116.342 Y110.788 E6.17044
G1 X116.552 Y110.151 E6.19275
G1 X116.625 Y109.963 E6.19946
G1 X116.629 Y109.952 E6.19985
G1 X116.801 Y109.589 E6.21321
G1 X116.805 Y109.599
G1 X116.88 Y109.664
G1 X116.889 Y109.671 E6.21359
