;FLAVOR:Marlin
;TIME:12273
;Filament used: 8.76023m
;Layer height: 0.2
;MINX:53.48
;MINY:60.596
;MINZ:0.24
;MAXX:135.158
;MAXY:182.573
;MAXZ:46.09
;Generated with Cura_SteamEngine 4.9.0
M82 ;absolute extrusion mode
; Ender 3 Custom Start G-code
M117 Warming Print Bed
M301 P24.63 I2.05 D74.05
M304 P134.53 I26.22 D460.11
M140 S80 ; Set Heat Bed temperature
M190 S80 ; Wait for Heat Bed temperature
M104 S160; start warming extruder to 160
M117 Homing all axes
G28 ; Home all axes
M117 Beginning Bed Leveling
G29 ; Auto bed-level (BL-Touch)
G92 E0 ; Reset Extruder
M117 Warming Extruder
M104 S200 ; Set Extruder temperature
G1 X0.1 Y20 Z0.3 F5000.0 ; Move to start position
M109 S200 ; Wait for Extruder temperature
; G1 Z2.0 F3000 ; Move Z Axis up little to prevent scratching of Heat Bed
G1 X0.1 Y200.0 Z0.3 F1500.0 E15 ; Draw the first line
G1 X0.4 Y200.0 Z0.3 F5000.0 ; Move to side a little
G1 X0.4 Y20 Z0.3 F1500.0 E30 ; Draw the second line
G92 E0 ; Reset Extruder
G1 Z2.0 F3000 ; Move Z Axis up little to prevent scratching of Heat Bed
; End of custom start GCode
G92 E0
G92 E0
G1 F2100 E-6
;LAYER_COUNT:225
;LAYER:-6
M107
G0 F9000 X78.57 Y69.077 Z0.24
;TYPE:SUPPORT-INTERFACE
G1 F2100 E0
G1 F1125 X78.666 Y68.969 E0.01153
G1 X79.148 Y68.457 E0.06767
G1 X81.688 Y65.918 E0.35435
G1 X82.384 Y65.272 E0.43015
G1 X82.523 Y65.153 E0.44475
G1 X83.214 Y64.599 E0.51545
G1 X83.353 Y64.495 E0.52931
G1 X84.068 Y64.003 E0.59859
G1 X84.252 Y63.886 E0.616
G1 X85.008 Y63.443 E0.68594
G1 X85.15 Y63.366 E0.69883
G1 X85.982 Y62.957 E0.77284
G1 X86.095 Y62.907 E0.7827
G1 X86.945 Y62.564 E0.85587
G1 X87.118 Y62.502 E0.87054
G1 X87.956 Y62.233 E0.94079
G1 X88.12 Y62.187 E0.95439
G1 X88.992 Y61.975 E1.02602
G1 X89.154 Y61.942 E1.03922
G1 X90.047 Y61.794 E1.11148
G1 X90.224 Y61.771 E1.12572
G1 X91.118 Y61.688 E1.19739
G1 X91.26 Y61.681 E1.20874
G1 X92.001 Y61.66 E1.26792
G1 X116.996 Y61.661 E3.26313
G1 X117.997 Y61.697 E3.34308
G1 X118.12 Y61.706 E3.35293
G1 X119.037 Y61.808 E3.42658
G1 X119.212 Y61.833 E3.44069
G1 X120.101 Y61.997 E3.51285
G1 X120.224 Y62.025 E3.52292
G1 X121.118 Y62.259 E3.59669
G1 X121.281 Y62.308 E3.61027
G1 X122.123 Y62.594 E3.68126
G1 X122.289 Y62.658 E3.69546
G1 X123.092 Y62.999 E3.7651
G1 X123.281 Y63.087 E3.78174
G1 X124.075 Y63.495 E3.853
G1 X124.192 Y63.562 E3.86376
G1 X124.971 Y64.036 E3.93655
G1 X125.122 Y64.136 E3.95101
G1 X125.836 Y64.647 E4.02109
G1 X125.984 Y64.76 E4.03596
G1 X126.676 Y65.337 E4.10788
G1 X126.784 Y65.433 E4.11941
G1 X127.296 Y65.915 E4.17554
G1 X129.798 Y68.417 E4.45799
G1 X130.481 Y69.151 E4.53803
G1 X130.6 Y69.29 E4.55263
G1 X131.154 Y69.981 E4.62333
G1 X131.258 Y70.12 E4.63719
G1 X131.75 Y70.835 E4.70647
G1 X131.867 Y71.019 E4.72387
G1 X132.307 Y71.768 E4.79322
G1 X132.38 Y71.902 E4.8054
G1 X132.785 Y72.725 E4.87861
G1 X132.846 Y72.862 E4.89059
G1 X133.188 Y73.707 E4.96335
G1 X133.247 Y73.873 E4.97742
G1 X133.518 Y74.715 E5.04802
G1 X133.565 Y74.881 E5.06179
G1 X133.776 Y75.75 E5.13318
G1 X133.81 Y75.913 E5.14647
G1 X133.958 Y76.805 E5.21865
G1 X133.982 Y76.991 E5.23362
G1 X134.063 Y77.875 E5.30448
G1 X134.072 Y78.027 E5.31663
G1 X134.093 Y78.76 E5.37517
G1 X134.093 Y142.941 E10.49837
G1 X134.057 Y143.947 E10.57873
G1 X134.047 Y144.082 E10.58953
G1 X133.945 Y144.999 E10.66318
G1 X133.92 Y145.174 E10.67729
G1 X133.758 Y146.052 E10.74856
G1 X133.728 Y146.186 E10.75952
G1 X133.497 Y147.071 E10.83253
G1 X133.445 Y147.243 E10.84688
G1 X133.159 Y148.085 E10.91786
G1 X133.095 Y148.251 E10.93206
G1 X132.755 Y149.054 E11.00167
G1 X132.686 Y149.2 E11.01456
G1 X132.441 Y149.823 E11.068
G1 X132.273 Y150.491 E11.12298
G1 X132.183 Y151.459 E11.20059
G1 X132.183 Y153.746 E11.38314
G1 X132.147 Y154.752 E11.4635
G1 X132.137 Y154.887 E11.4743
G1 X132.038 Y155.786 E11.5465
G1 X132.01 Y155.978 E11.56199
G1 X131.851 Y156.838 E11.6318
G1 X131.814 Y157.006 E11.64553
G1 X131.587 Y157.876 E11.71731
G1 X131.535 Y158.048 E11.73165
G1 X131.249 Y158.89 E11.80263
G1 X131.185 Y159.056 E11.81683
G1 X130.844 Y159.859 E11.88647
G1 X130.763 Y160.034 E11.90187
G1 X130.348 Y160.842 E11.97437
G1 X130.281 Y160.959 E11.98514
G1 X129.807 Y161.738 E12.05793
G1 X129.707 Y161.889 E12.07238
G1 X129.196 Y162.603 E12.14247
G1 X129.083 Y162.751 E12.15733
G1 X128.507 Y163.442 E12.22914
G1 X128.406 Y163.555 E12.24124
G1 X127.781 Y164.204 E12.31316
G1 X127.656 Y164.324 E12.327
G1 X126.986 Y164.926 E12.3989
G1 X126.869 Y165.023 E12.41103
G1 X126.157 Y165.573 E12.48284
G1 X125.998 Y165.686 E12.49842
G1 X125.26 Y166.176 E12.56913
G1 X125.134 Y166.252 E12.58087
G1 X124.34 Y166.698 E12.65357
G1 X124.189 Y166.776 E12.66714
G1 X123.375 Y167.159 E12.73895
G1 X123.232 Y167.219 E12.75132
G1 X122.373 Y167.548 E12.82475
G1 X122.223 Y167.6 E12.83742
G1 X121.373 Y167.855 E12.90826
G1 X121.2 Y167.902 E12.92257
G1 X120.305 Y168.102 E12.99578
G1 X120.175 Y168.125 E13.00632
G1 X119.27 Y168.259 E13.07934
G1 X119.102 Y168.277 E13.09283
G1 X118.212 Y168.343 E13.16407
G1 X118.028 Y168.352 E13.17878
G1 X117.523 Y168.36 E13.21909
G1 X102.52 Y168.36 E14.4167
G1 X101.852 Y168.402 E14.47012
G1 X101.181 Y168.531 E14.52467
G1 X100.532 Y168.744 E14.57919
G1 X99.915 Y169.036 E14.63368
G1 X99.338 Y169.405 E14.68835
G1 X98.726 Y169.93 E14.75272
G1 X91.463 Y177.192 E15.57257
G1 X91.371 Y177.28 E15.58273
G1 X90.692 Y177.912 E15.65678
G1 X90.571 Y178.018 E15.66962
G1 X89.881 Y178.57 E15.74016
G1 X89.716 Y178.692 E15.75654
G1 X89.013 Y179.177 E15.82471
G1 X88.841 Y179.287 E15.84101
G1 X88.071 Y179.738 E15.91224
G1 X87.945 Y179.805 E15.92363
G1 X87.105 Y180.218 E15.99835
G1 X86.988 Y180.27 E16.00857
G1 X86.133 Y180.615 E16.08217
G1 X85.97 Y180.673 E16.09598
G1 X85.127 Y180.944 E16.16666
G1 X84.963 Y180.99 E16.18026
G1 X84.091 Y181.202 E16.25189
G1 X83.929 Y181.235 E16.26509
G1 X83.043 Y181.382 E16.33678
G1 X82.855 Y181.406 E16.35191
G1 X81.972 Y181.487 E16.42269
G1 X81.825 Y181.496 E16.43445
G1 X80.917 Y181.513 E16.50694
G1 X80.728 Y181.509 E16.52203
G1 X79.839 Y181.461 E16.5931
G1 X79.707 Y181.449 E16.60368
G1 X78.768 Y181.329 E16.67924
G1 X78.638 Y181.307 E16.68977
G1 X77.75 Y181.126 E16.76211
G1 X77.576 Y181.084 E16.7764
G1 X76.7 Y180.838 E16.84903
G1 X76.566 Y180.795 E16.86026
G1 X75.72 Y180.489 E16.93207
G1 X75.544 Y180.418 E16.94722
G1 X74.738 Y180.059 E17.01765
G1 X74.594 Y179.988 E17.03047
G1 X73.798 Y179.561 E17.10258
G1 X73.652 Y179.476 E17.11606
G1 X72.877 Y178.985 E17.1893
G1 X72.767 Y178.909 E17.19997
G1 X72.017 Y178.351 E17.27459
G1 X71.899 Y178.257 E17.28663
G1 X71.196 Y177.65 E17.36077
G1 X71.097 Y177.559 E17.37151
G1 X70.785 Y177.259 E17.40606
G1 X70.701 Y177.17 E17.41583
G1 X69.859 Y176.245 E17.51567
G1 X69.789 Y176.164 E17.52422
G1 X67.309 Y173.174 E17.83431
G1 X66.687 Y172.367 E17.91564
G1 X66.516 Y172.12 E17.93962
G1 X66.113 Y171.587 E17.99296
G1 X65.635 Y171.097 E18.0476
G1 X65.101 Y170.674 E18.10198
G1 X65.055 Y170.632 E18.10695
G1 X64.455 Y170.281 E18.16244
G1 X63.697 Y169.8 E18.2341
G1 X63.556 Y169.703 E18.24776
G1 X62.84 Y169.172 E18.31892
G1 X62.714 Y169.07 E18.33186
G1 X61.981 Y168.438 E18.40912
G1 X61.932 Y168.393 E18.41443
G1 X61.51 Y167.985 E18.46128
G1 X61.031 Y167.478 E18.51696
G1 X59.924 Y166.263 E18.64817
G1 X59.755 Y166.086 E18.6677
G1 X58.864 Y165.196 E18.76823
G1 X58.769 Y165.098 E18.77912
G1 X58.166 Y164.449 E18.84984
G1 X58.039 Y164.301 E18.86541
G1 X57.485 Y163.613 E18.93592
G1 X57.373 Y163.463 E18.95086
G1 X56.883 Y162.751 E19.01985
G1 X56.768 Y162.569 E19.03704
G1 X56.327 Y161.816 E19.1067
G1 X56.25 Y161.674 E19.11959
G1 X55.851 Y160.861 E19.19188
G1 X55.779 Y160.701 E19.20589
G1 X55.443 Y159.871 E19.27736
G1 X55.389 Y159.723 E19.28994
G1 X55.117 Y158.876 E19.36095
G1 X55.066 Y158.69 E19.37635
G1 X54.861 Y157.844 E19.44583
G1 X54.82 Y157.643 E19.46221
G1 X54.674 Y156.767 E19.5331
G1 X54.654 Y156.614 E19.54542
G1 X54.571 Y155.716 E19.6174
G1 X54.562 Y155.544 E19.63115
G1 X54.545 Y154.665 E19.70133
G1 X54.549 Y154.47 E19.7169
G1 X54.595 Y153.609 E19.78573
G1 X54.612 Y153.422 E19.80072
G1 X54.725 Y152.535 E19.87209
G1 X54.75 Y152.377 E19.88486
G1 X54.933 Y151.477 E19.95817
G1 X54.969 Y151.33 E19.97025
G1 X55.212 Y150.461 E20.04228
G1 X55.262 Y150.303 E20.05551
G1 X55.561 Y149.474 E20.12586
G1 X55.64 Y149.278 E20.14273
G1 X55.992 Y148.489 E20.21169
G1 X56.078 Y148.315 E20.22719
G1 X56.497 Y147.533 E20.298
G1 X56.581 Y147.39 E20.31124
G1 X57.068 Y146.623 E20.38377
G1 X57.157 Y146.492 E20.39641
G1 X57.685 Y145.78 E20.46717
G1 X57.805 Y145.631 E20.48244
G1 X58.383 Y144.959 E20.55319
G1 X58.492 Y144.839 E20.56613
G1 X58.817 Y144.502 E20.6035
G1 X66.056 Y137.263 E21.42071
G1 X66.498 Y136.759 E21.47422
G1 X66.881 Y136.195 E21.52864
G1 X67.19 Y135.585 E21.58322
G1 X67.419 Y134.943 E21.63763
G1 X67.567 Y134.272 E21.69248
G1 X67.628 Y133.468 E21.75684
G1 X67.628 Y118.419 E22.95812
G1 X67.664 Y117.413 E23.03847
G1 X67.674 Y117.278 E23.04928
G1 X67.776 Y116.361 E23.12293
G1 X67.801 Y116.186 E23.13704
G1 X67.963 Y115.308 E23.20831
G1 X67.993 Y115.174 E23.21927
G1 X68.224 Y114.289 E23.29228
G1 X68.276 Y114.117 E23.30663
G1 X68.562 Y113.275 E23.37761
G1 X68.626 Y113.109 E23.39181
G1 X68.967 Y112.306 E23.46145
G1 X69.048 Y112.131 E23.47684
G1 X69.463 Y111.323 E23.54935
G1 X69.53 Y111.206 E23.56011
G1 X70.004 Y110.427 E23.6329
G1 X70.104 Y110.276 E23.64736
G1 X70.615 Y109.562 E23.71745
G1 X70.728 Y109.414 E23.73231
G1 X71.304 Y108.723 E23.80412
G1 X71.405 Y108.61 E23.81622
G1 X72.03 Y107.961 E23.88814
G1 X72.155 Y107.841 E23.90197
G1 X72.827 Y107.238 E23.97405
G1 X72.958 Y107.129 E23.98765
G1 X73.444 Y106.668 E24.04112
G1 X73.877 Y106.14 E24.09563
G1 X74.24 Y105.562 E24.15011
G1 X74.528 Y104.942 E24.20468
G1 X74.734 Y104.292 E24.25911
G1 X74.857 Y103.621 E24.31356
G1 X74.893 Y102.999 E24.3633
G1 X74.893 Y78.774 E26.29704
G1 X74.929 Y77.768 E26.3774
G1 X74.939 Y77.633 E26.3882
G1 X75.04 Y76.718 E26.46169
G1 X75.066 Y76.543 E26.47581
G1 X75.228 Y75.663 E26.54723
G1 X75.258 Y75.529 E26.55819
G1 X75.489 Y74.643 E26.63128
G1 X75.541 Y74.472 E26.64555
G1 X75.827 Y73.63 E26.71653
G1 X75.891 Y73.464 E26.73074
G1 X76.232 Y72.661 E26.80037
G1 X76.313 Y72.486 E26.81577
G1 X76.728 Y71.678 E26.88828
G1 X76.795 Y71.561 E26.89904
G1 X77.269 Y70.782 E26.97183
G1 X77.369 Y70.631 E26.98629
G1 X77.885 Y69.91 E27.05706
G1 X77.993 Y69.769 E27.07124
G1 X78.57 Y69.077 E27.14316
G0 F9000 X78.4 Y69.28
G1 F1125 X78.4 Y181.258 E36.08173
G0 F9000 X80 Y181.469
G1 F1125 X80 Y67.605 E45.17084
G0 F9000 X81.6 Y66.005
G1 F1125 X81.6 Y181.501 E54.39023
G0 F9000 X83.2 Y181.356
G1 F1125 X83.2 Y64.61 E63.7094
G0 F9000 X84.8 Y63.564
G1 F1125 X84.8 Y181.03 E73.08605
G0 F9000 X86.4 Y180.508
G1 F1125 X86.4 Y62.783 E82.48337
G0 F9000 X88 Y62.22
G1 F1125 X88 Y179.776 E91.86719
G0 F9000 X89.6 Y178.773
G1 F1125 X89.6 Y61.868 E101.19906
G0 F9000 X91.2 Y61.683
G1 F1125 X91.2 Y177.44 E110.43928
G0 F9000 X92.8 Y175.856
G1 F1125 X92.8 Y61.661 E119.55482
G0 F9000 X94.4 Y61.661
G1 F1125 X94.4 Y174.256 E128.54264
G0 F9000 X96 Y172.656
G1 F1125 X96 Y61.661 E137.40274
G0 F9000 X97.6 Y61.661
G1 F1125 X97.6 Y171.056 E146.13512
G0 F9000 X99.2 Y169.524
G1 F1125 X99.2 Y61.661 E154.74521
G0 F9000 X100.8 Y61.661
G1 F1125 X100.8 Y168.657 E163.2861
G0 F9000 X102.4 Y168.368
G1 F1125 X102.4 Y61.661 E171.80391
G0 F9000 X104 Y61.661
G1 F1125 X104 Y168.36 E180.32109
G0 F9000 X105.6 Y168.36
G1 F1125 X105.6 Y61.661 E188.83826
G0 F9000 X107.2 Y61.661
G1 F1125 X107.2 Y168.36 E197.35544
G0 F9000 X108.8 Y168.36
G1 F1125 X108.8 Y61.661 E205.87261
G0 F9000 X110.4 Y61.661
G1 F1125 X110.4 Y168.36 E214.38979
G0 F9000 X112 Y168.36
G1 F1125 X112 Y61.661 E222.90696
G0 F9000 X113.6 Y61.661
G1 F1125 X113.6 Y168.36 E231.42414
G0 F9000 X115.2 Y168.36
G1 F1125 X115.2 Y61.661 E239.94132
G0 F9000 X116.8 Y61.661
G1 F1125 X116.8 Y168.36 E248.45849
G0 F9000 X118.4 Y168.33
G1 F1125 X118.4 Y61.738 E256.96713
G0 F9000 X120 Y61.979
G1 F1125 X120 Y168.151 E265.44223
G0 F9000 X121.6 Y167.787
G1 F1125 X121.6 Y62.417 E273.85332
G0 F9000 X123.2 Y63.05
G1 F1125 X123.2 Y167.232 E282.16958
G0 F9000 X124.8 Y166.44
G1 F1125 X124.8 Y63.932 E290.35221
G0 F9000 X126.4 Y65.107
G1 F1125 X126.4 Y165.386 E298.35692
G0 F9000 X128 Y163.977
G1 F1125 X128 Y66.619 E306.12845
G0 F9000 X129.6 Y68.219
G1 F1125 X129.6 Y162.039 E313.61757
G0 F9000 X131.2 Y159.018
G1 F1125 X131.2 Y70.043 E320.71994
G0 F9000 X132.8 Y72.759
G1 F1125 X132.8 Y148.948 E326.80167
G1 F2100 E320.80167
G0 F9000 X133.672 Y149.602
G0 X133.062 Y156.144
G0 X132.61 Y158.17
G0 X132.17 Y159.46
G0 X131.288 Y161.34
G0 X130.579 Y162.499
G0 X129.308 Y164.143
G0 X128.385 Y165.1
G0 X126.784 Y166.433
G0 X125.665 Y167.175
G0 X123.8 Y168.135
G0 X85.432 Y181.964
G0 X84.123 Y182.283
G0 X82.049 Y182.548
G0 X80.696 Y182.573
G0 X78.62 Y182.383
G0 X76.513 Y181.891
G0 X76.8 Y180.866
G1 F2100 E326.80167
G1 F1125 X76.8 Y71.552 E335.52759
G1 F2100 E329.52759
G0 F9000 X75.788 Y71.18
G0 X74.906 Y73.06
G0 X74.782 Y73.424
G0 X74.225 Y75.272
G0 X75.2 Y75.815
G1 F2100 E335.52759
G1 F1125 X75.2 Y180.264 E343.86516
G0 F9000 X73.6 Y179.443
G1 F1125 X73.6 Y106.477 E349.68962
G0 F9000 X72 Y107.992
G1 F1125 X72 Y178.337 E355.30487
G0 F9000 X70.4 Y176.839
G1 F1125 X70.4 Y109.862 E360.65126
G0 F9000 X68.8 Y112.699
G1 F1125 X68.8 Y174.971 E365.62208
G0 F9000 X67.2 Y173.032
G1 F1125 X67.2 Y135.556 E368.61358
G0 F9000 X65.6 Y137.719
G1 F1125 X65.6 Y171.069 E371.27572
G0 F9000 X64 Y169.992
G1 F1125 X64 Y139.319 E373.72417
G0 F9000 X62.4 Y140.919
G1 F1125 X62.4 Y168.799 E375.94967
G0 F9000 X60.8 Y167.224
G1 F1125 X60.8 Y142.519 E377.92173
G0 F9000 X59.2 Y144.119
M104 S190
G1 F1125 X59.2 Y165.531 E379.63093
G0 F9000 X57.6 Y163.755
G1 F1125 X57.6 Y145.894 E381.05667
G0 F9000 X56 Y148.472
G1 F1125 X56 Y161.164 E382.0698
G0 F300 X56 Y161.164 Z0.54
G0 F9000 X57.323 Y163.389
;TIME_ELAPSED:268.044635
;LAYER:-5
M140 S50
;TYPE:SUPPORT
G1 F1125 X63.797 Y169.863 E382.98335
G1 X63.696 Y169.799 E382.99528
G1 X63.556 Y169.702 E383.01228
G1 X62.839 Y169.171 E383.1013
G1 X62.714 Y169.069 E383.1174
G1 X61.98 Y168.437 E383.21405
G1 X61.931 Y168.392 E383.22069
G1 X61.509 Y167.984 E383.27926
G1 X61.031 Y167.477 E383.34878
G1 X59.923 Y166.262 E383.51286
G1 X59.754 Y166.085 E383.53728
G1 X58.863 Y165.195 E383.66294
G1 X58.769 Y165.096 E383.67656
G1 X58.165 Y164.448 E383.76495
G1 X58.039 Y164.3 E383.78434
G1 X57.484 Y163.611 E383.87262
G1 X57.373 Y163.461 E383.89124
G1 F2100 E377.89124
G0 F9000 X56.649 Y164.271
G0 X58.107 Y165.944
G0 X61.28 Y169.238
G0 X62.625 Y170.318
G0 X63.568 Y170.961
G0 X64.454 Y170.28
G1 F2100 E383.89124
G1 F1125 X65.054 Y170.631 E383.9606
G1 X65.047 Y170.641 E383.96182
G1 X65.101 Y170.673 E383.96808
G1 X65.635 Y171.095 E384.03599
G1 X66.113 Y171.586 E384.10437
G1 X66.516 Y172.119 E384.17104
G1 X66.581 Y172.217 E384.18278
G1 X66.686 Y172.366 E384.20096
G1 X67.309 Y173.173 E384.30269
G1 X68.291 Y174.357 E384.45618
G1 X72.988 Y179.054 E385.11897
G1 X73.652 Y179.475 E385.19742
G1 X73.797 Y179.559 E385.21414
G1 X74.594 Y179.986 E385.30436
G1 X74.737 Y180.058 E385.32034
G1 X75.543 Y180.417 E385.40838
G1 X75.72 Y180.488 E385.42741
G1 X75.902 Y180.554 E385.44672
G1 X55.594 Y160.246 E388.3124
G1 X55.442 Y159.869 E388.35296
G1 X55.389 Y159.722 E388.36855
G1 X55.116 Y158.874 E388.45744
G1 X55.065 Y158.689 E388.47659
G1 X54.942 Y158.18 E388.52884
G1 X77.921 Y181.159 E391.77143
G1 X78.638 Y181.305 E391.84444
G1 X78.768 Y181.328 E391.85761
G1 X79.612 Y181.435 E391.9425
G1 X54.64 Y156.463 E395.46632
G1 X54.57 Y155.715 E395.54128
G1 X54.561 Y155.543 E395.55847
G1 X54.55 Y154.959 E395.61675
G1 X81.1 Y181.509 E399.36324
G1 X81.824 Y181.495 E399.43549
G1 X81.972 Y181.486 E399.45029
G1 X82.447 Y181.442 E399.49789
G1 X54.596 Y153.591 E403.42796
G1 X54.611 Y153.421 E403.44499
G1 X54.724 Y152.534 E403.53421
G1 X54.749 Y152.375 E403.55027
G1 X54.756 Y152.337 E403.55413
G1 X83.692 Y181.273 E407.63731
G1 X83.929 Y181.234 E407.66128
G1 X84.091 Y181.201 E407.67777
G1 X84.849 Y181.016 E407.75563
G1 X55.01 Y151.177 E411.96623
G1 X55.211 Y150.46 E412.04053
G1 X55.261 Y150.302 E412.05707
G1 X55.338 Y150.09 E412.07957
G1 X85.931 Y180.684 E416.39665
G1 X85.97 Y180.672 E416.40072
G1 X86.133 Y180.614 E416.41798
G1 X86.947 Y180.285 E416.50559
