;FLAVOR:Marlin
;TIME:504
;Filament used: 0.408273m
;Layer height: 0.2
;MINX:90.752
;MINY:90.353
;MINZ:0.24
;MAXX:129.646
;MAXY:129.649
;MAXZ:3.89
;Generated with Cura_SteamEngine 4.9.0
M82 ;absolute extrusion mode
; Ender 3 Custom Start G-code
M117 Warming Print Bed
M140 S80 ; Set Heat Bed temperature
M190 S80 ; Wait for Heat Bed temperature
M104 S160; start warming extruder to 160
M117 Homing all axes
G28 ; Home all axes
M117 Beginning Bed Leveling
G29 ; Auto bed-level (BL-Touch)
G92 E0 ; Reset Extruder
M117 Warming Extruder
M104 S200.0 ; Set Extruder temperature
G1 X0.1 Y20 Z0.3 F5000.0 ; Move to start position
M109 S200.0 ; Wait for Extruder temperature
; G1 Z2.0 F3000 ; Move Z Axis up little to prevent scratching of Heat Bed
G1 X0.1 Y200.0 Z0.3 F1500.0 E15 ; Draw the first line
G1 X0.4 Y200.0 Z0.3 F5000.0 ; Move to side a little
G1 X0.4 Y20 Z0.3 F1500.0 E30 ; Draw the second line
G92 E0 ; Reset Extruder
G1 Z2.0 F3000 ; Move Z Axis up little to prevent scratching of Heat Bed
; End of custom start GCode
G92 E0
G92 E0
G1 F1500 E-6.5
;LAYER_COUNT:14
;LAYER:-6
M107
G0 F9000 X96.41 Y97.309 Z0.24
;TYPE:SUPPORT-INTERFACE
G1 F1500 E0
G1 F1125 X97.393 Y96.331 E0.11069
G1 X97.654 Y96.093 E0.13888
G1 X97.746 Y96.015 E0.14851
G1 X98.732 Y95.211 E0.25007
G1 X99.047 Y94.973 E0.28158
G1 X99.152 Y94.898 E0.29188
G1 X100.254 Y94.166 E0.39749
G1 X100.602 Y93.954 E0.43001
G1 X100.69 Y93.905 E0.43805
G1 X101.811 Y93.307 E0.53947
G1 X102.15 Y93.142 E0.56957
G1 X103.548 Y92.562 E0.69039
G1 X103.684 Y92.51 E0.70201
G1 X103.921 Y92.426 E0.72208
G1 X104.029 Y92.39 E0.73117
G1 X105.317 Y92.006 E0.83845
G1 X105.425 Y91.977 E0.84738
G1 X105.755 Y91.897 E0.87449
G1 X107.137 Y91.626 E0.9869
G1 X107.503 Y91.575 E1.0164
G1 X108.852 Y91.442 E1.12461
G1 X108.969 Y91.434 E1.13397
G1 X109.249 Y91.42 E1.15635
G1 X109.326 Y91.418 E1.1625
G1 X110.674 Y91.418 E1.2701
G1 X110.762 Y91.42 E1.27712
G1 X111.022 Y91.433 E1.29791
G1 X111.155 Y91.443 E1.30855
G1 X112.541 Y91.581 E1.41974
G1 X112.668 Y91.596 E1.42994
G1 X112.946 Y91.639 E1.4524
G1 X113.019 Y91.652 E1.45832
G1 X114.335 Y91.919 E1.56551
G1 X114.411 Y91.936 E1.57172
G1 X114.655 Y91.997 E1.5918
G1 X114.804 Y92.039 E1.60416
G1 X116.075 Y92.426 E1.71021
G1 X116.392 Y92.537 E1.73702
G1 X116.533 Y92.592 E1.7491
G1 X117.8 Y93.12 E1.85867
G1 X118.098 Y93.26 E1.88495
G1 X118.264 Y93.344 E1.89981
G1 X119.385 Y93.948 E2.00145
G1 X119.698 Y94.133 E2.03047
G1 X119.8 Y94.198 E2.04013
G1 X120.994 Y95.004 E2.15512
G1 X121.234 Y95.183 E2.17902
G1 X121.327 Y95.256 E2.18846
G1 X122.298 Y96.054 E2.28879
G1 X122.38 Y96.124 E2.29739
G1 X122.587 Y96.311 E2.31966
G1 X123.615 Y97.336 E2.43554
G1 X123.675 Y97.399 E2.44248
G1 X123.857 Y97.599 E2.46407
G1 X123.929 Y97.682 E2.47284
G1 X124.826 Y98.779 E2.58596
G1 X124.899 Y98.873 E2.59546
G1 X125.07 Y99.106 E2.61853
G1 X125.116 Y99.172 E2.62495
G1 X125.85 Y100.276 E2.73077
G1 X126.043 Y100.599 E2.76081
G1 X126.701 Y101.826 E2.87195
G1 X126.748 Y101.92 E2.88034
G1 X126.855 Y102.146 E2.9003
G1 X126.911 Y102.272 E2.9113
G1 X127.423 Y103.507 E3.01802
G1 X127.476 Y103.643 E3.02967
G1 X127.586 Y103.953 E3.05593
G1 X127.981 Y105.264 E3.16523
G1 X128.061 Y105.574 E3.19078
G1 X128.101 Y105.749 E3.20511
G1 X128.368 Y107.104 E3.31536
G1 X128.424 Y107.483 E3.34594
G1 X128.434 Y107.568 E3.35277
G1 X128.556 Y108.829 E3.4539
G1 X128.578 Y109.188 E3.48261
G1 X128.581 Y109.328 E3.49379
G1 X128.582 Y110.634 E3.59804
G1 X128.567 Y111.021 E3.62895
G1 X128.559 Y111.145 E3.63887
G1 X128.426 Y112.485 E3.74636
G1 X128.408 Y112.628 E3.75787
G1 X128.359 Y112.955 E3.78426
G1 X128.098 Y114.265 E3.89089
G1 X128.078 Y114.357 E3.8984
G1 X127.985 Y114.72 E3.92831
G1 X127.568 Y116.1 E4.04339
G1 X127.424 Y116.492 E4.07673
G1 X126.921 Y117.705 E4.18155
G1 X126.755 Y118.068 E4.21341
G1 X126.69 Y118.195 E4.2248
G1 X126.038 Y119.413 E4.33508
G1 X125.87 Y119.693 E4.36114
G1 X125.837 Y119.746 E4.36613
G1 X125.031 Y120.948 E4.48165
G1 X124.794 Y121.265 E4.51324
G1 X123.938 Y122.306 E4.62083
G1 X123.862 Y122.395 E4.63017
G1 X123.68 Y122.595 E4.65176
G1 X123.619 Y122.659 E4.65881
G1 X122.653 Y123.625 E4.76786
G1 X122.415 Y123.844 E4.79368
G1 X122.273 Y123.966 E4.80862
G1 X121.249 Y124.805 E4.9143
G1 X120.956 Y125.025 E4.94355
G1 X120.847 Y125.102 E4.9542
G1 X119.768 Y125.823 E5.05779
G1 X119.485 Y125.995 E5.08422
G1 X119.339 Y126.078 E5.09763
G1 X118.163 Y126.705 E5.20401
G1 X117.822 Y126.87 E5.23425
G1 X117.7 Y126.925 E5.24493
G1 X116.457 Y127.436 E5.35221
G1 X116.096 Y127.567 E5.38287
G1 X116.018 Y127.593 E5.38943
G1 X114.726 Y127.983 E5.49716
G1 X114.367 Y128.075 E5.52674
G1 X114.284 Y128.094 E5.53354
G1 X112.96 Y128.358 E5.64131
G1 X112.615 Y128.41 E5.66916
G1 X112.497 Y128.425 E5.67865
G1 X111.118 Y128.561 E5.78926
G1 X110.72 Y128.582 E5.82108
G1 X110.626 Y128.584 E5.82858
G1 X109.254 Y128.579 E5.9381
G1 X109.139 Y128.576 E5.94729
G1 X108.867 Y128.561 E5.96903
G1 X108.777 Y128.554 E5.97624
G1 X107.498 Y128.424 E6.07886
G1 X107.137 Y128.373 E6.10796
G1 X107.006 Y128.351 E6.11857
G1 X105.713 Y128.094 E6.2238
G1 X105.382 Y128.013 E6.251
G1 X105.258 Y127.979 E6.26126
G1 X103.944 Y127.58 E6.37088
G1 X103.84 Y127.545 E6.37964
G1 X103.6 Y127.459 E6.39999
G1 X103.467 Y127.408 E6.41136
G1 X102.308 Y126.926 E6.51156
G1 X102.15 Y126.856 E6.52535
G1 X101.923 Y126.749 E6.54539
G1 X101.83 Y126.702 E6.5537
G1 X100.578 Y126.031 E6.66709
G1 X100.265 Y125.844 E6.6962
G1 X99.13 Y125.087 E6.8051
G1 X98.815 Y124.856 E6.83628
G1 X98.739 Y124.796 E6.84401
G1 X97.661 Y123.909 E6.95545
G1 X97.375 Y123.652 E6.98614
G1 X97.278 Y123.559 E6.99687
G1 X96.35 Y122.625 E7.10197
G1 X96.116 Y122.369 E7.12965
G1 X96.001 Y122.236 E7.14369
G1 X95.193 Y121.247 E7.24563
G1 X94.977 Y120.959 E7.27437
G1 X94.921 Y120.88 E7.2821
G1 X94.144 Y119.71 E7.39421
G1 X93.95 Y119.389 E7.42415
G1 X93.884 Y119.27 E7.43501
G1 X93.305 Y118.187 E7.53304
G1 X93.151 Y117.869 E7.56124
G1 X93.103 Y117.761 E7.57068
G1 X92.554 Y116.433 E7.68539
G1 X92.426 Y116.078 E7.71551
G1 X92.383 Y115.948 E7.72644
G1 X92.003 Y114.673 E7.83264
G1 X91.906 Y114.288 E7.86433
G1 X91.643 Y112.957 E7.97263
G1 X91.59 Y112.615 E8.00026
G1 X91.575 Y112.497 E8.00975
G1 X91.442 Y111.148 E8.11796
G1 X91.434 Y111.031 E8.12732
G1 X91.418 Y110.683 E8.15513
G1 X91.418 Y109.326 E8.26345
G1 X91.42 Y109.238 E8.27048
G1 X91.433 Y108.978 E8.29126
G1 X91.442 Y108.85 E8.3015
G1 X91.58 Y107.466 E8.41252
G1 X91.594 Y107.346 E8.42217
G1 X91.65 Y106.991 E8.45086
G1 X91.917 Y105.673 E8.5582
G1 X91.936 Y105.589 E8.56508
G1 X91.997 Y105.345 E8.58515
G1 X92.039 Y105.196 E8.59751
G1 X92.428 Y103.916 E8.7043
G1 X92.537 Y103.607 E8.73046
G1 X92.596 Y103.454 E8.74355
G1 X93.116 Y102.209 E8.85125
G1 X93.26 Y101.902 E8.87831
G1 X93.339 Y101.745 E8.89234
G1 X93.948 Y100.615 E8.99481
G1 X94.003 Y100.517 E9.00378
G1 X94.185 Y100.219 E9.03166
G1 X94.914 Y99.13 E9.13626
G1 X95.125 Y98.839 E9.16496
G1 X95.215 Y98.725 E9.17655
G1 X96.075 Y97.679 E9.28464
G1 X96.157 Y97.584 E9.29466
G1 X96.342 Y97.38 E9.31664
G1 X96.41 Y97.309 E9.32449
G0 F9000 X96 Y97.77
G1 F1125 X96 Y122.234 E11.27731
G0 F9000 X97.6 Y123.854
G1 F1125 X97.6 Y96.142 E13.48941
G0 F9000 X99.2 Y94.866
G1 F1125 X99.2 Y125.133 E15.90545
G0 F9000 X100.8 Y126.149
G1 F1125 X100.8 Y93.846 E18.48401
G0 F9000 X102.4 Y93.038
G1 F1125 X102.4 Y126.964 E21.19213
G0 F9000 X104 Y127.597
G1 F1125 X104 Y92.399 E24.00179
G0 F9000 X105.6 Y91.934
G1 F1125 X105.6 Y128.066 E26.886
G0 F9000 X107.2 Y128.381
G1 F1125 X107.2 Y91.617 E29.82066
G0 F9000 X108.8 Y91.447
G1 F1125 X108.8 Y128.555 E32.78279
G0 F9000 X110.4 Y128.583
G1 F1125 X110.4 Y91.418 E35.74946
G0 F9000 X112 Y91.528
G1 F1125 X112 Y128.475 E38.69873
G0 F9000 X113.6 Y128.231
G1 F1125 X113.6 Y91.77 E41.6092
G0 F9000 X115.2 Y92.16
G1 F1125 X115.2 Y127.84 E44.45733
G0 F9000 X116.8 Y127.295
G1 F1125 X116.8 Y92.704 E47.21854
G0 F9000 X118.4 Y93.418
G1 F1125 X118.4 Y126.579 E49.86559
G0 F9000 X120 Y125.668
G1 F1125 X120 Y94.334 E52.36681
G0 F9000 X121.6 Y95.481
G1 F1125 X121.6 Y124.518 E54.68466
G0 F9000 X123.2 Y123.078
G1 F1125 X123.2 Y96.923 E56.77247
G0 F9000 X124.8 Y98.748
G1 F1125 X124.8 Y121.257 E58.56924
G0 F9000 X126.4 Y118.737
G1 F1125 X126.4 Y101.265 E59.96393
G0 F9000 X128 Y105.338
G1 F1125 X128 Y114.662 E60.70821
M104 S190
G1 F1500 E54.20821
G0 F9000 X129.007 Y115.018
G0 X128.414 Y116.882
G0 X127.632 Y118.69
G0 X126.729 Y120.326
G0 X125.623 Y121.932
G0 X124.378 Y123.405
G0 X122.961 Y124.778
G0 X121.454 Y125.976
G0 X119.857 Y127.009
G0 X118.113 Y127.905
G0 X116.334 Y128.61
G0 X114.512 Y129.134
G0 X112.621 Y129.482
G0 X110.638 Y129.649
G0 X108.685 Y129.615
G0 X106.817 Y129.399
G0 X104.96 Y129.001
G0 X103.078 Y128.399
G0 X101.335 Y127.645
G0 X99.641 Y126.708
G0 X98.074 Y125.627
G0 X96.529 Y124.315
G0 X95.189 Y122.925
G0 X94.543 Y122.111
G0 X93.514 Y120.685
G0 X94.4 Y120.095
G1 F1500 E60.70821
G1 F1125 X94.4 Y99.897 E62.3205
G0 F9000 X92.8 Y102.965
G1 F1125 X92.8 Y117.028 E63.44307
G0 F300 X92.8 Y117.028 Z0.54
G0 F9000 X94.077 Y119.602
;TIME_ELAPSED:51.292921
;LAYER:-5
M140 S50
;TYPE:SUPPORT
G1 F1125 X94.144 Y119.708 E63.45558
G1 X94.921 Y120.879 E63.59581
G1 X94.976 Y120.958 E63.60541
G1 X95.193 Y121.246 E63.64139
G1 X96.001 Y122.234 E63.76874
G1 X96.116 Y122.368 E63.78636
G1 X96.25 Y122.518 E63.80643
G1 X96.349 Y122.624 E63.82091
G1 X97.278 Y123.558 E63.95235
G1 X97.374 Y123.651 E63.96569
G1 X97.547 Y123.809 E63.98907
G1 X97.66 Y123.908 E64.00406
G1 X98.738 Y124.795 E64.14335
G1 X98.815 Y124.855 E64.15309
G1 X99.13 Y125.086 E64.19207
G1 X100.264 Y125.843 E64.32811
G1 X100.567 Y126.023 E64.36328
G1 X93.974 Y119.43 E65.29362
G1 X93.949 Y119.388 E65.2985
G1 X93.883 Y119.269 E65.31208
G1 X93.304 Y118.186 E65.43461
G1 X93.15 Y117.868 E65.46987
G1 X93.103 Y117.76 E65.48162
G1 X92.668 Y116.71 E65.59503
G1 X103.292 Y127.334 E67.09419
G1 X103.467 Y127.407 E67.11311
G1 X103.6 Y127.458 E67.12732
G1 X103.84 Y127.543 E67.15272
G1 X103.943 Y127.579 E67.16361
G1 X105.257 Y127.978 E67.30063
G1 X105.382 Y128.012 E67.31356
G0 F9000 X105.385 Y128.013
G1 F1125 X91.988 Y114.615 E69.20409
G1 X91.906 Y114.287 E69.23783
G1 X91.643 Y112.956 E69.3732
G1 X91.625 Y112.854 E69.38354
G1 X91.622 Y112.835 E69.38546
G1 X107.162 Y128.375 E71.57832
G1 X107.498 Y128.423 E71.61219
G1 X108.751 Y128.55 E71.73785
G1 X91.451 Y111.25 E74.17907
G1 X91.441 Y111.147 E74.18939
G1 X91.433 Y111.03 E74.2011
G1 X91.417 Y110.682 E74.23586
G1 X91.417 Y109.802 E74.32366
G1 X110.196 Y128.581 E76.97358
G1 X110.626 Y128.583 E77.01649
G1 X110.72 Y128.581 E77.02587
G1 X111.117 Y128.56 E77.06554
G1 X111.546 Y128.517 E77.10856
G1 X91.48 Y108.451 E79.94009
G1 X91.579 Y107.465 E80.03897
G1 X91.593 Y107.345 E80.05102
G1 X91.619 Y107.176 E80.06808
G1 X112.821 Y128.378 E83.05991
G1 X112.959 Y128.357 E83.07384
G1 X114.006 Y128.148 E83.18037
G1 X91.851 Y105.993 E86.30668
G1 X91.917 Y105.672 E86.33938
G1 X91.935 Y105.588 E86.34795
G1 X91.996 Y105.344 E86.37305
G1 X92.039 Y105.195 E86.38852
G1 X92.138 Y104.866 E86.4228
G1 X115.131 Y127.859 E89.66737
G1 X116.017 Y127.591 E89.75973
G1 X116.095 Y127.566 E89.7679
G1 X116.21 Y127.523 E89.78015
G1 X92.471 Y103.785 E93.12991
G1 X92.536 Y103.605 E93.149
G1 X92.596 Y103.453 E93.16531
G1 X92.877 Y102.777 E93.23836
G1 X117.221 Y127.12 E96.67349
G1 X117.699 Y126.924 E96.72504
G1 X117.822 Y126.869 E96.73848
G1 X118.028 Y126.771 E96.76124
G1 X118.162 Y126.704 E96.77619
G1 X118.199 Y126.684 E96.78039
G1 X93.311 Y101.797 E100.29228
G1 X93.339 Y101.744 E100.29826
G1 X93.805 Y100.876 E100.39657
G1 X119.122 Y126.193 E103.96907
G1 X119.339 Y126.077 E103.99362
G1 X119.484 Y125.994 E104.01029
G1 X119.768 Y125.822 E104.04342
G1 X120.005 Y125.662 E104.07195
G1 X94.335 Y99.992 E107.69427
G1 X94.902 Y99.144 E107.79605
G1 X120.853 Y125.096 E111.45809
G1 X120.955 Y125.024 E111.47055
G1 X121.14 Y124.887 E111.49352
G1 X121.249 Y124.804 E111.50719
G1 X121.648 Y124.476 E111.55873
G1 X95.521 Y98.35 E115.24546
G1 X96.074 Y97.678 E115.33229
G1 X96.156 Y97.583 E115.34482
G1 X96.162 Y97.576 E115.34574
G1 X122.422 Y123.836 E119.05131
G1 X122.652 Y123.624 E119.08252
G1 X123.138 Y123.138 E119.1511
G1 X96.86 Y96.86 E122.85921
G1 X97.391 Y96.331 E122.934
G1 X97.577 Y96.162 E122.95907
G1 X123.836 Y122.422 E126.66457
G1 X123.861 Y122.394 E126.66832
G1 X123.936 Y122.306 E126.67985
G1 X124.477 Y121.649 E126.76477
G1 X98.35 Y95.522 E130.45158
G1 X98.731 Y95.211 E130.50065
G1 X98.876 Y95.098 E130.51899
G1 X99.145 Y94.902 E130.5522
G1 X125.094 Y120.852 E134.21396
G1 X125.662 Y120.005 E134.31571
G1 X99.994 Y94.337 E137.93775
G1 X100.252 Y94.166 E137.96863
G1 X100.387 Y94.081 E137.98455
G1 X100.6 Y93.953 E138.00935
G1 X100.689 Y93.905 E138.01943
G1 X100.876 Y93.805 E138.04059
G1 X126.193 Y119.122 E141.6131
G1 X126.685 Y118.2 E141.71737
G1 X101.799 Y93.314 E145.22906
G1 X101.81 Y93.306 E145.23041
G1 X101.93 Y93.245 E145.24385
G1 X102.149 Y93.143 E145.26795
G1 X102.229 Y93.106 E145.27675
G1 X102.779 Y92.879 E145.33612
G1 X127.12 Y117.221 E148.77096
G1 X127.423 Y116.491 E148.84983
G1 X127.526 Y116.212 E148.8795
G1 X103.787 Y92.474 E152.22926
G1 X103.92 Y92.425 E152.24341
G1 X104.028 Y92.389 E152.25476
G1 X104.868 Y92.14 E152.34219
G1 X127.86 Y115.132 E155.5866
G1 X127.984 Y114.72 E155.62954
G1 X128.077 Y114.356 E155.66702
G1 X128.097 Y114.264 E155.67642
G1 X128.148 Y114.006 E155.70266
G1 X105.993 Y91.851 E158.82897
G1 X107.135 Y91.626 E158.94511
G1 X107.176 Y91.62 E158.94924
G1 X128.378 Y112.822 E161.94107
G1 X128.407 Y112.627 E161.96075
G1 X128.424 Y112.485 E161.97502
G1 X128.518 Y111.548 E162.06898
G1 X108.452 Y91.481 E164.90058
G1 X108.851 Y91.442 E164.94058
G1 X108.968 Y91.433 E164.95229
G1 X109.248 Y91.419 E164.98026
G1 X109.325 Y91.418 E164.98795
G1 X109.803 Y91.418 E165.03564
G1 X128.581 Y110.196 E167.68542
G1 X128.58 Y109.328 E167.77203
G1 X128.576 Y109.187 E167.7861
G1 X128.564 Y108.967 E167.80809
G1 X128.555 Y108.828 E167.82199
G1 X128.548 Y108.749 E167.8299
G1 X111.251 Y91.452 E170.27069
G1 X112.54 Y91.581 E170.39995
G1 X112.667 Y91.595 E170.4127
G1 X112.835 Y91.621 E170.42967
G1 X128.375 Y107.162 E172.6226
G1 X128.366 Y107.104 E172.62845
G1 X128.1 Y105.748 E172.76634
G1 X128.059 Y105.573 E172.78427
G1 X128.011 Y105.384 E172.80373
G1 X114.614 Y91.987 E174.69419
G1 X114.654 Y91.997 E174.6983
G1 X114.803 Y92.039 E174.71375
G1 X116.074 Y92.425 E174.84629
G1 X116.391 Y92.536 E174.8798
G1 X116.531 Y92.592 E174.89485
G1 X116.706 Y92.664 E174.91373
G1 X127.333 Y103.292 E176.41338
G1 X126.91 Y102.271 E176.52366
G1 X126.854 Y102.146 E176.53732
G1 X126.747 Y101.919 E176.56237
G1 X126.7 Y101.825 E176.57285
G1 X126.042 Y100.599 E176.71169
G1 X126.024 Y100.568 E176.71526
G1 X119.43 Y93.974 E177.64575
G1 X119.491 Y94.009 E177.65277
G1 X119.697 Y94.132 E177.67671
G1 X119.799 Y94.197 E177.68877
G1 X120.993 Y95.004 E177.83257
G1 X121.232 Y95.182 E177.86231
G1 X121.326 Y95.256 E177.87424
G1 X122.297 Y96.054 E177.99965
G1 X122.378 Y96.124 E178.01033
G1 X122.586 Y96.311 E178.03824
G1 X123.614 Y97.335 E178.18302
G1 X123.673 Y97.399 E178.19171
G1 X123.856 Y97.599 E178.21876
G1 X123.928 Y97.681 E178.22965
G1 X124.825 Y98.778 E178.37104
G1 X124.898 Y98.872 E178.38292
G1 X125.069 Y99.105 E178.41175
G1 X125.115 Y99.171 E178.41978
G1 X125.849 Y100.276 E178.55215
G1 F1500 E172.05215
G0 F300 X125.849 Y100.276 Z0.74
G0 F9000 X126.706 Y99.639
G0 X125.663 Y98.122
G0 X124.374 Y96.59
G0 X123.249 Y95.498
G0 X121.885 Y94.341
G0 X121.054 Y94.8
;TIME_ELAPSED:114.499161
;LAYER:-4
;TYPE:SUPPORT-INTERFACE
G1 F1500 E178.55215
G1 X98.944 Y94.8 E179.28753
G1 X98.928 Y94.811 E179.28817
G1 X98.751 Y94.943 E179.29552
G1 X98.609 Y95.052 E179.30147
G1 X98.428 Y95.2 E179.30925
G1 X121.576 Y95.2 E180.07915
G1 X122.063 Y95.6 E180.10011
G1 X97.938 Y95.6 E180.90251
G1 X97.622 Y95.858 E180.91608
G1 X97.524 Y95.941 E180.92035
G1 X97.46 Y96 E180.92325
G1 X122.543 Y96 E181.75751
G1 X122.717 Y96.158 E181.76533
G1 X122.777 Y96.214 E181.76806
G1 X122.963 Y96.4 E181.77681
G1 X97.04 Y96.4 E182.63901
G1 X96.638 Y96.8 E182.65787
G1 X123.363 Y96.8 E183.54675
G1 X123.753 Y97.19 E183.5651
G1 X123.763 Y97.2 E183.56557
G1 X96.238 Y97.2 E184.48105
G1 X96.191 Y97.249 E184.48331
G1 X96.009 Y97.449 E184.4923
