;FLAVOR:Marlin
;TIME:21291
;Filament used: 14.2097m
;Layer height: 0.2
;MINX:21.655
;MINY:66.884
;MINZ:0.2
;MAXX:202.795
;MAXY:180.565
;MAXZ:14.6
;Generated with Cura_SteamEngine 4.8.0
M82 ;absolute extrusion mode
; Ender 3 Custom Start G-code
M117 Warming Print Bed
M140 S70 ; Set Heat Bed temperature
M190 S70 ; Wait for Heat Bed temperature
M104 S160; start warming extruder to 160
M117 Homing all axes
G28 ; Home all axes
M117 Beginning Bed Leveling
G29 ; Auto bed-level (BL-Touch)
G92 E0 ; Reset Extruder
M117 Warming Extruder
M104 S200 ; Set Extruder temperature
G1 X0.1 Y20 Z0.3 F5000.0 ; Move to start position
M109 S200 ; Wait for Extruder temperature
; G1 Z2.0 F3000 ; Move Z Axis up little to prevent scratching of Heat Bed
G1 X0.1 Y200.0 Z0.3 F1500.0 E15 ; Draw the first line
G1 X0.4 Y200.0 Z0.3 F5000.0 ; Move to side a little
G1 X0.4 Y20 Z0.3 F1500.0 E30 ; Draw the second line
G92 E0 ; Reset Extruder
G1 Z2.0 F3000 ; Move Z Axis up little to prevent scratching of Heat Bed
; End of custom start GCode
G92 E0
G92 E0
G1 F1500 E-6.5
;LAYER_COUNT:73
;LAYER:0
M107
;MESH:The_Ultimate_Spool_Holder_v2.stl(3)
G0 F6000 X133.27 Y96.693 Z0.2
;TYPE:WALL-INNER
G1 F1500 E0
G1 F1200 X132.153 Y96.416 E0.03828
G1 X131.06 Y96.04 E0.07672
G1 X129.988 Y95.558 E0.11581
G1 X126.385 Y93.86 E0.24829
G1 X120.527 Y91.494 E0.45842
G1 X114.53 Y89.5 E0.66862
G1 X108.42 Y87.888 E0.87879
G1 X102.22 Y86.662 E1.089
G1 X95.955 Y85.827 E1.29922
G1 X89.651 Y85.387 E1.5094
G1 X83.331 Y85.345 E1.71961
G1 X77.021 Y85.698 E1.92981
G1 X70.746 Y86.448 E2.14
G1 X64.53 Y87.59 E2.3502
G1 X58.398 Y89.12 E2.56041
G1 X52.375 Y91.033 E2.77059
G1 X46.483 Y93.319 E2.9808
G1 X40.773 Y95.958 E3.19001
G1 X40.135 Y96.199 E3.2127
G1 X39.011 Y96.542 E3.25178
G1 X37.884 Y96.778 E3.29008
G1 X36.735 Y96.911 E3.32855
G1 X35.575 Y96.944 E3.36715
G1 X34.419 Y96.871 E3.40567
G1 X33.27 Y96.693 E3.44435
G1 X32.153 Y96.416 E3.48262
G1 X31.06 Y96.039 E3.52108
G1 X30.004 Y95.566 E3.55956
G1 X28.993 Y94.998 E3.59813
G1 X28.04 Y94.344 E3.63658
G1 X27.149 Y93.606 E3.67506
G1 X26.326 Y92.79 E3.7136
G1 X25.579 Y91.904 E3.75215
G1 X24.916 Y90.955 E3.79065
G1 X24.341 Y89.95 E3.82916
G1 X23.856 Y88.897 E3.86772
G1 X23.471 Y87.811 E3.90604
G1 X23.182 Y86.687 E3.94465
G1 X22.996 Y85.544 E3.98316
G1 X22.914 Y84.393 E4.02154
G1 X22.922 Y69.155 E4.52836
G1 X22.945 Y68.869 E4.5379
G1 X23.021 Y68.655 E4.54546
G1 X23.156 Y68.46 E4.55334
G1 X23.337 Y68.307 E4.56123
G1 X23.55 Y68.206 E4.56907
G1 X23.797 Y68.161 E4.57742
G1 X147.734 Y68.148 E8.69958
G1 X148.017 Y68.172 E8.70903
G1 X148.243 Y68.253 E8.71701
G1 X148.432 Y68.383 E8.72464
G1 X148.582 Y68.559 E8.73233
G1 X148.676 Y68.759 E8.73968
G1 X148.697 Y68.9 E8.74442
G1 X148.697 Y84.035 E9.24781
G1 X148.682 Y84.853 E9.27503
G1 X148.555 Y86.02 E9.31407
G1 X148.335 Y87.126 E9.35158
G1 X147.999 Y88.261 E9.39095
G1 X147.576 Y89.33 E9.42918
G1 X147.057 Y90.361 E9.46757
G1 X146.443 Y91.347 E9.50621
G1 X145.742 Y92.275 E9.54489
G1 X144.974 Y93.124 E9.58297
G1 X144.121 Y93.91 E9.62155
G1 X143.198 Y94.62 E9.66028
G1 X142.224 Y95.237 E9.69862
G1 X141.194 Y95.768 E9.73717
G1 X140.118 Y96.205 E9.77579
G1 X139.014 Y96.54 E9.81417
G1 X137.884 Y96.778 E9.85257
G1 X136.735 Y96.911 E9.89105
G1 X135.575 Y96.944 E9.92964
G1 X134.419 Y96.871 E9.96817
G1 X133.27 Y96.693 E10.00684
G0 F6000 X133.191 Y97.085
;TYPE:WALL-OUTER
G1 F1200 X132.039 Y96.8 E10.04631
G1 X130.908 Y96.41 E10.0861
G1 X129.817 Y95.92 E10.12588
G1 X126.225 Y94.227 E10.25796
G1 X120.389 Y91.87 E10.4673
G1 X114.416 Y89.884 E10.67665
G1 X108.33 Y88.278 E10.886
G1 X102.155 Y87.057 E11.09536
G1 X95.915 Y86.225 E11.30474
G1 X89.636 Y85.787 E11.51409
G1 X83.341 Y85.745 E11.72346
G1 X77.056 Y86.097 E11.93283
G1 X70.806 Y86.844 E12.14219
G1 X64.615 Y87.981 E12.35155
G1 X58.507 Y89.505 E12.56093
G1 X52.508 Y91.41 E12.77027
G1 X46.639 Y93.687 E12.97965
G1 X40.932 Y96.325 E13.18877
G1 X40.252 Y96.582 E13.21294
G1 X39.121 Y96.927 E13.25227
G1 X37.947 Y97.173 E13.29217
G1 X36.758 Y97.311 E13.33198
G1 X35.572 Y97.344 E13.37144
G1 X34.377 Y97.269 E13.41127
G1 X33.191 Y97.085 E13.45118
G1 X32.039 Y96.8 E13.49065
G1 X30.908 Y96.41 E13.53045
G1 X29.823 Y95.923 E13.57
G1 X28.784 Y95.34 E13.60963
G1 X27.8 Y94.664 E13.64933
G1 X26.877 Y93.9 E13.68919
G1 X26.031 Y93.061 E13.72881
G1 X25.263 Y92.15 E13.76844
G1 X24.578 Y91.17 E13.80821
G1 X23.987 Y90.138 E13.84777
G1 X23.483 Y89.042 E13.88789
G1 X23.09 Y87.935 E13.92696
G1 X22.789 Y86.761 E13.96727
G1 X22.598 Y85.592 E14.00667
G1 X22.514 Y84.407 E14.04618
G1 X22.522 Y69.135 E14.55413
G1 X22.55 Y68.787 E14.56574
G1 X22.662 Y68.471 E14.57689
G1 X22.857 Y68.189 E14.58829
G1 X23.119 Y67.967 E14.59972
G1 X23.424 Y67.823 E14.61093
G1 X23.763 Y67.761 E14.6224
G1 X147.755 Y67.748 E18.74639
G1 X148.101 Y67.777 E18.75794
G1 X148.426 Y67.893 E18.76941
G1 X148.701 Y68.083 E18.78053
G1 X148.92 Y68.34 E18.79176
G1 X149.064 Y68.644 E18.80295
G1 X149.097 Y68.869 E18.81051
G1 X149.097 Y84.042 E19.31517
G1 X149.082 Y84.881 E19.34308
G1 X148.952 Y86.074 E19.38299
G1 X148.722 Y87.231 E19.42223
G1 X148.38 Y88.386 E19.46229
G1 X147.942 Y89.492 E19.50186
G1 X147.404 Y90.56 E19.54163
G1 X146.775 Y91.57 E19.58121
G1 X146.049 Y92.532 E19.62129
G1 X145.26 Y93.404 E19.6604
G1 X144.377 Y94.218 E19.70035
G1 X143.427 Y94.948 E19.7402
G1 X142.421 Y95.586 E19.77982
G1 X141.359 Y96.133 E19.81955
G1 X140.256 Y96.581 E19.85915
G1 X139.121 Y96.926 E19.8986
G1 X137.947 Y97.173 E19.9385
G1 X136.758 Y97.311 E19.97832
G1 X135.572 Y97.344 E20.01778
G1 X134.377 Y97.269 E20.0576
G1 X133.191 Y97.085 E20.09752
G0 F6000 X133.277 Y96.654
G0 X133.334 Y96.307
;TYPE:SKIN
G1 F1200 X132.272 Y96.044 E20.13391
G1 X131.193 Y95.673 E20.17186
G1 X130.154 Y95.205 E20.20976
G1 X126.541 Y93.503 E20.3426
G1 X120.662 Y91.128 E20.55348
G1 X114.641 Y89.126 E20.76452
G1 X108.508 Y87.508 E20.97549
G1 X102.284 Y86.277 E21.18651
G1 X95.994 Y85.439 E21.39756
G1 X89.666 Y84.997 E21.60855
G1 X83.321 Y84.955 E21.81959
G1 X76.987 Y85.31 E22.03059
G1 X70.688 Y86.062 E22.24158
G1 X64.448 Y87.208 E22.45259
G1 X58.291 Y88.744 E22.66365
G1 X52.245 Y90.665 E22.87465
G1 X46.331 Y92.96 E23.08564
G1 X40.623 Y95.598 E23.29479
G1 X40.002 Y95.832 E23.31686
G1 X38.92 Y96.162 E23.35448
G1 X37.825 Y96.392 E23.3917
G1 X36.702 Y96.521 E23.42929
G1 X35.588 Y96.554 E23.46636
G1 X34.46 Y96.482 E23.50396
G1 X33.334 Y96.307 E23.54186
G1 X32.272 Y96.044 E23.57825
G1 X31.203 Y95.675 E23.61586
G1 X30.176 Y95.216 E23.65327
G1 X29.204 Y94.67 E23.69035
G1 X28.271 Y94.029 E23.728
G1 X27.415 Y93.321 E23.76495
G1 X26.607 Y92.519 E23.80282
G1 X25.895 Y91.674 E23.83957
G1 X25.239 Y90.735 E23.87766
G1 X24.694 Y89.781 E23.91421
G1 X24.215 Y88.742 E23.95226
G1 X23.844 Y87.696 E23.98917
G1 X23.564 Y86.605 E24.02664
G1 X23.383 Y85.497 E24.06398
G1 X23.304 Y84.38 E24.10122
G1 X23.312 Y69.155 E24.60761
G1 X23.37 Y68.834 E24.61846
G1 X23.549 Y68.638 E24.62729
G1 X23.834 Y68.551 E24.6372
G1 X147.725 Y68.538 E28.75783
G1 X148.061 Y68.602 E28.7692
G1 X148.251 Y68.772 E28.77768
G1 X148.307 Y68.931 E28.78329
G1 X148.307 Y84.027 E29.28539
G1 X148.292 Y84.825 E29.31193
G1 X148.167 Y85.971 E29.35027
G1 X147.959 Y87.021 E29.38588
G1 X147.632 Y88.127 E29.42424
G1 X147.219 Y89.171 E29.46158
G1 X146.713 Y90.175 E29.49897
G1 X146.127 Y91.117 E29.53587
G1 X145.434 Y92.035 E29.57413
G1 X144.709 Y92.837 E29.61009
G1 X143.871 Y93.61 E29.648
G1 X142.972 Y94.301 E29.68572
G1 X142.028 Y94.899 E29.72288
G1 X141.021 Y95.419 E29.76058
G1 X139.991 Y95.836 E29.79754
G1 X138.923 Y96.16 E29.83466
G1 X137.825 Y96.392 E29.87198
G1 X136.702 Y96.521 E29.90958
G1 X135.588 Y96.554 E29.94665
G1 X134.46 Y96.482 E29.98424
G1 X133.334 Y96.307 E30.02214
G1 F1500 E23.52214
G0 F6000 X133.266 Y96.578
G0 X135.582 Y96.773
G0 X136.719 Y96.74
G0 X137.866 Y96.608
G0 X138.964 Y96.376
G0 X140.057 Y96.045
G0 X141.124 Y95.612
G0 X142.147 Y95.084
G0 X143.098 Y94.481
G0 X144.012 Y93.779
G0 X144.847 Y93.01
G0 X145.607 Y92.169
G0 X146.307 Y91.242
G0 X146.905 Y90.281
G0 X147.424 Y89.252
G0 X147.837 Y88.207
G0 X148.168 Y87.088
G0 X148.386 Y85.997
G0 X148.486 Y85.06
G0 X148.587 Y68.946
G0 X148.142 Y68.946
G1 F1500 E30.02214
G1 F1200 X147.936 Y68.74 E30.03183
G0 F6000 X147.328 Y68.698
G1 F1200 X148.146 Y69.516 E30.07031
G0 F6000 X148.146 Y70.082
G1 F1200 X146.762 Y68.698 E30.13541
G0 F6000 X146.197 Y68.698
G1 F1200 X148.146 Y70.647 E30.22708
G0 F6000 X148.146 Y71.213
G1 F1200 X145.631 Y68.698 E30.34538
G0 F6000 X145.065 Y68.698
G1 F1200 X148.146 Y71.779 E30.4903
G0 F6000 X148.146 Y72.344
G1 F1200 X144.5 Y68.698 E30.6618
G0 F6000 X143.934 Y68.698
G1 F1200 X148.146 Y72.91 E30.85992
G0 F6000 X148.146 Y73.476
G1 F1200 X143.368 Y68.698 E31.08466
G0 F6000 X142.803 Y68.698
G1 F1200 X148.146 Y74.041 E31.33598
G0 F6000 X148.146 Y74.607
G1 F1200 X142.237 Y68.698 E31.61392
G0 F6000 X141.671 Y68.698
G1 F1200 X148.146 Y75.173 E31.91848
G0 F6000 X148.146 Y75.738
G1 F1200 X141.105 Y68.698 E32.24965
G0 F6000 X140.541 Y68.698
G1 F1200 X148.146 Y76.304 E32.60739
G0 F6000 X148.146 Y76.87
G1 F1200 X139.975 Y68.698 E32.99175
G0 F6000 X139.409 Y68.698
G1 F1200 X148.146 Y77.435 E33.40271
G0 F6000 X148.146 Y78.001
G1 F1200 X138.843 Y68.698 E33.8403
G0 F6000 X138.278 Y68.698
G1 F1200 X148.146 Y78.567 E34.30448
G0 F6000 X148.146 Y79.133
G1 F1200 X137.712 Y68.698 E34.79529
G0 F6000 X137.146 Y68.698
G1 F1200 X148.146 Y79.698 E35.31269
G0 F6000 X148.146 Y80.264
G1 F1200 X136.581 Y68.698 E35.8567
G0 F6000 X136.015 Y68.698
G1 F1200 X148.146 Y80.83 E36.42733
G0 F6000 X148.146 Y81.395
G1 F1200 X135.449 Y68.698 E37.02456
G0 F6000 X134.884 Y68.698
G1 F1200 X148.146 Y81.961 E37.64838
G0 F6000 X148.146 Y82.527
G1 F1200 X134.318 Y68.698 E38.29883
G0 F6000 X133.753 Y68.699
G1 F1200 X148.146 Y83.092 E38.97584
G0 F6000 X148.146 Y83.658
G1 F1200 X133.187 Y68.699 E39.67946
G0 F6000 X132.622 Y68.699
G1 F1200 X148.142 Y84.219 E40.40947
G0 F6000 X148.132 Y84.775
G1 F1200 X132.056 Y68.699 E41.16564
G0 F6000 X131.49 Y68.699
G1 F1200 X148.079 Y85.288 E41.94594
G0 F6000 X148.023 Y85.798
G1 F1200 X130.925 Y68.699 E42.7502
G0 F6000 X130.359 Y68.699
G1 F1200 X147.941 Y86.281 E43.5772
G0 F6000 X147.848 Y86.754
G1 F1200 X129.793 Y68.699 E44.42645
G0 F6000 X129.228 Y68.699
G1 F1200 X147.736 Y87.208 E45.29704
G0 F6000 X147.607 Y87.644
G1 F1200 X128.662 Y68.699 E46.18815
G0 F6000 X128.096 Y68.699
G1 F1200 X147.477 Y88.08 E47.09977
G0 F6000 X147.317 Y88.486
G1 F1200 X127.53 Y68.699 E48.03049
G0 F6000 X126.965 Y68.7
G1 F1200 X147.157 Y88.891 E48.98024
G0 F6000 X146.982 Y89.282
G1 F1200 X126.4 Y68.7 E49.94835
G0 F6000 X125.834 Y68.7
G1 F1200 X146.793 Y89.659 E50.9342
G0 F6000 X146.603 Y90.035
G1 F1200 X125.268 Y68.7 E51.93773
G0 F6000 X124.703 Y68.7
G1 F1200 X146.39 Y90.388 E52.95785
G0 F6000 X146.174 Y90.737
G1 F1200 X124.137 Y68.7 E53.9944
G0 F6000 X123.571 Y68.7
G1 F1200 X145.952 Y91.081 E55.04713
G0 F6000 X145.709 Y91.403
G1 F1200 X123.006 Y68.7 E56.11501
G0 F6000 X122.44 Y68.7
G1 F1200 X145.466 Y91.725 E57.19806
G0 F6000 X145.214 Y92.039
G1 F1200 X121.874 Y68.7 E58.29588
G0 F6000 X121.309 Y68.7
G1 F1200 X144.945 Y92.336 E59.40765
G0 F6000 X144.676 Y92.633
G1 F1200 X120.743 Y68.7 E60.53338
G0 F6000 X120.178 Y68.701
G1 F1200 X144.389 Y92.911 E61.67217
G0 F6000 X144.095 Y93.183
G1 F1200 X119.612 Y68.701 E62.82375
G0 F6000 X119.047 Y68.701
G1 F1200 X143.801 Y93.455 E63.9881
G0 F6000 X143.484 Y93.704
G1 F1200 X118.481 Y68.701 E65.16417
G0 F6000 X117.915 Y68.701
G1 F1200 X143.164 Y93.949 E66.35178
G0 F6000 X142.841 Y94.192
G1 F1200 X117.35 Y68.701 E67.5508
G0 F6000 X116.784 Y68.701
G1 F1200 X142.495 Y94.412 E68.76016
G0 F6000 X142.149 Y94.632
G1 F1200 X116.218 Y68.701 E69.97988
G0 F6000 X115.652 Y68.701
G1 F1200 X141.791 Y94.839 E71.20935
G0 F6000 X141.418 Y95.032
G1 F1200 X115.087 Y68.701 E72.44788
G0 F6000 X114.521 Y68.701
G1 F1200 X141.044 Y95.223 E73.69542
G0 F6000 X140.649 Y95.395
G1 F1200 X113.955 Y68.701 E74.95102
G0 F6000 X113.39 Y68.701
G1 F1200 X140.247 Y95.558 E76.21429
G0 F6000 X139.838 Y95.714
G1 F1200 X112.825 Y68.701 E77.4849
G0 F6000 X112.259 Y68.701
G1 F1200 X139.403 Y95.846 E78.7617
G0 F6000 X138.97 Y95.978
G1 F1200 X111.693 Y68.701 E80.04472
G0 F6000 X111.128 Y68.701
G1 F1200 X138.509 Y96.083 E81.33267
G0 F6000 X138.042 Y96.182
G1 F1200 X110.562 Y68.701 E82.62526
G0 F6000 X109.996 Y68.701
G1 F1200 X137.557 Y96.261 E83.92163
G0 F6000 X137.048 Y96.319
G1 F1200 X109.431 Y68.701 E85.22067
G0 F6000 X108.865 Y68.701
G1 F1200 X136.528 Y96.365 E86.52187
G0 F6000 X135.98 Y96.382
G1 F1200 X108.299 Y68.701 E87.8239
G0 F6000 X107.734 Y68.701
G1 F1200 X135.414 Y96.382 E89.12591
G0 F6000 X134.81 Y96.344
G1 F1200 X107.168 Y68.701 E90.42613
G0 F6000 X106.602 Y68.701
G1 F1200 X134.176 Y96.275 E91.72312
G0 F6000 X133.505 Y96.17
G1 F1200 X106.037 Y68.702 E93.01513
G0 F6000 X105.472 Y68.702
G1 F1200 X132.772 Y96.002 E94.29924
G0 F6000 X131.976 Y95.772
G1 F1200 X104.906 Y68.702 E95.57253
G0 F6000 X104.34 Y68.702
G1 F1200 X131.089 Y95.45 E96.8307
G0 F6000 X130.908 Y95.851
G0 X129.866 Y95.377
G0 X130.053 Y94.98
G1 F1200 X103.774 Y68.702 E98.06676
G0 F6000 X103.209 Y68.702
G1 F1200 X128.984 Y94.477 E99.27914
G0 F6000 X128.797 Y94.874
G0 X127.727 Y94.37
G0 X127.914 Y93.973
G1 F1200 X102.643 Y68.702 E100.46781
G0 F6000 X102.077 Y68.702
G1 F1200 X126.845 Y93.47 E101.63282
G0 F6000 X126.658 Y93.866
G0 X125.704 Y93.466
G0 X125.869 Y93.059
G1 F1200 X101.512 Y68.702 E102.7785
G0 F6000 X100.946 Y68.702
G1 F1200 X124.92 Y92.676 E103.90616
G0 F6000 X124.755 Y93.082
G0 X123.805 Y92.699
G0 X123.97 Y92.292
G1 F1200 X100.38 Y68.702 E105.01576
G0 F6000 X99.815 Y68.702
G1 F1200 X123.021 Y91.908 E106.1073
G0 F6000 X122.856 Y92.315
G0 X121.907 Y91.932
G0 X122.072 Y91.525
G1 F1200 X99.25 Y68.703 E107.18078
G0 F6000 X98.684 Y68.703
G1 F1200 X121.122 Y91.141 E108.23619
G0 F6000 X120.231 Y90.815
G1 F1200 X98.118 Y68.703 E109.2763
G0 F6000 X97.553 Y68.703
G1 F1200 X119.384 Y90.534 E110.30316
G0 F6000 X118.536 Y90.252
G1 F1200 X96.987 Y68.703 E111.31676
G0 F6000 X96.421 Y68.703
G1 F1200 X117.689 Y89.97 E112.31712
G0 F6000 X116.842 Y89.689
G1 F1200 X95.856 Y68.703 E113.30423
G0 F6000 X95.29 Y68.703
G1 F1200 X115.994 Y89.407 E114.27809
G0 F6000 X115.147 Y89.125
G1 F1200 X94.724 Y68.703 E115.2387
G0 F6000 X94.159 Y68.703
G1 F1200 X114.335 Y88.879 E116.18772
G0 F6000 X113.567 Y88.677
G1 F1200 X93.593 Y68.703 E117.12723
G0 F6000 X93.027 Y68.703
G1 F1200 X112.799 Y88.474 E118.05722
G0 F6000 X112.03 Y88.271
G1 F1200 X92.462 Y68.703 E118.97764
G0 F6000 X91.897 Y68.703
G1 F1200 X111.261 Y88.068 E119.88849
G0 F6000 X110.493 Y87.866
G1 F1200 X91.331 Y68.703 E120.78983
G0 F6000 X90.765 Y68.703
G1 F1200 X109.725 Y87.663 E121.68165
G0 F6000 X108.956 Y87.46
G1 F1200 X90.199 Y68.703 E122.56393
G0 F6000 X89.634 Y68.703
G1 F1200 X108.217 Y87.287 E123.43804
G0 F6000 X107.512 Y87.148
G1 F1200 X89.068 Y68.703 E124.30561
G0 F6000 X88.502 Y68.703
G1 F1200 X106.807 Y87.008 E125.16662
G0 F6000 X106.102 Y86.868
G1 F1200 X87.937 Y68.703 E126.02105
G0 F6000 X87.371 Y68.703
G1 F1200 X105.397 Y86.729 E126.86893
G0 F6000 X104.692 Y86.59
G1 F1200 X86.805 Y68.703 E127.71028
G0 F6000 X86.24 Y68.703
G1 F1200 X103.987 Y86.45 E128.54505
G0 F6000 X103.282 Y86.311
G1 F1200 X85.675 Y68.704 E129.37323
G0 F6000 X85.109 Y68.704
G1 F1200 X102.577 Y86.172 E130.19487
G0 F6000 X101.904 Y86.065
G1 F1200 X84.543 Y68.704 E131.01148
G0 F6000 X83.978 Y68.704
G1 F1200 X101.252 Y85.978 E131.82399
G0 F6000 X100.599 Y85.891
G1 F1200 X83.412 Y68.704 E132.63242
G0 F6000 X82.846 Y68.704
G1 F1200 X99.946 Y85.804 E133.43675
G0 F6000 X99.294 Y85.717
G1 F1200 X82.281 Y68.704 E134.23699
G0 F6000 X81.715 Y68.704
G1 F1200 X98.641 Y85.63 E135.03313
G0 F6000 X97.988 Y85.543
G1 F1200 X81.149 Y68.704 E135.82519
G0 F6000 X80.584 Y68.704
G1 F1200 X97.336 Y85.456 E136.61315
G0 F6000 X96.683 Y85.369
G1 F1200 X80.018 Y68.704 E137.39702
G0 F6000 X79.452 Y68.704
G1 F1200 X96.03 Y85.282 E138.1768
G0 F6000 X95.42 Y85.238
G1 F1200 X78.887 Y68.705 E138.95446
G0 F6000 X78.321 Y68.705
G1 F1200 X94.812 Y85.195 E139.73012
G0 F6000 X94.204 Y85.153
G1 F1200 X77.756 Y68.705 E140.50379
G0 F6000 X77.19 Y68.705
G1 F1200 X93.596 Y85.11 E141.27545
G0 F6000 X92.988 Y85.068
