;FLAVOR:Marlin
;TIME:5358
;Filament used: 2.25619m
;Layer height: 0.2
;MINX:80.249
;MINY:97.269
;MINZ:0.2
;MAXX:140.578
;MAXY:122.731
;MAXZ:75.6
;POSTPROCESSED
;Generated with Cura_SteamEngine 4.9.0
M82 ;absolute extrusion mode
; Ender 3 Custom Start G-code
M117 Warming Print Bed
M301 P24.63 I2.05 D74.05
M304 P134.53 I26.22 D460.11
M140 S80 ; Set Heat Bed temperature
M190 S80 ; Wait for Heat Bed temperature
M104 S160; start warming extruder to 160
M117 Homing all axes
G28 ; Home all axes
M117 Beginning Bed Leveling
G29 ; Auto bed-level (BL-Touch)
G92 E0 ; Reset Extruder
M117 Warming Extruder
M104 S225 ; Set Extruder temperature
G1 X0.1 Y20 Z0.3 F5000.0 ; Move to start position
M109 S225 ; Wait for Extruder temperature
; G1 Z2.0 F3000 ; Move Z Axis up little to prevent scratching of Heat Bed
G1 X0.1 Y200.0 Z0.3 F1500.0 E15 ; Draw the first line
G1 X0.4 Y200.0 Z0.3 F5000.0 ; Move to side a little
G1 X0.4 Y20 Z0.3 F1500.0 E30 ; Draw the second line
G92 E0 ; Reset Extruder
G1 Z2.0 F3000 ; Move Z Axis up little to prevent scratching of Heat Bed
; End of custom start GCode
G92 E0
G92 E0
G1 F2400 E-6.5
;LAYER_COUNT:378
;LAYER:0
M107
G0 F6000 X83.271 Y98.952 Z0.2
;TYPE:SKIRT
G1 F2400 E0
G1 X83.919 Y98.501 E0.02334
G1 X84.61 Y98.117 E0.04671
G1 X85.684 Y97.685 E0.08094
G1 X85.838 Y97.636 E0.08572
G1 X86.602 Y97.435 E0.10907
G1 X87.382 Y97.312 E0.13242
G1 X88.203 Y97.269 E0.15672
G1 X132.682 Y97.27 E1.47174
G1 X133.471 Y97.31 E1.4951
G1 X134.251 Y97.43 E1.51843
G1 X135.016 Y97.627 E1.54179
G1 X135.757 Y97.901 E1.56514
G1 X136.466 Y98.249 E1.58849
G1 X137.136 Y98.667 E1.61184
G1 X137.76 Y99.15 E1.63517
G1 X138.333 Y99.694 E1.65853
G1 X138.957 Y100.436 E1.68719
G1 X139.053 Y100.566 E1.69197
G1 X139.489 Y101.225 E1.71533
G1 X139.856 Y101.924 E1.73867
G1 X140.151 Y102.656 E1.76201
G1 X140.371 Y103.415 E1.78537
G1 X140.513 Y104.192 E1.80872
G1 X140.578 Y105.201 E1.83862
G1 X140.577 Y114.801 E2.12244
G1 X140.537 Y115.589 E2.14577
G1 X140.417 Y116.37 E2.16913
G1 X140.219 Y117.135 E2.19249
G1 X139.945 Y117.875 E2.21582
G1 X139.598 Y118.584 E2.23916
G1 X139.075 Y119.402 E2.26786
G1 X138.98 Y119.532 E2.27262
G1 X138.482 Y120.145 E2.29597
G1 X137.925 Y120.705 E2.31932
G1 X137.314 Y121.206 E2.34268
G1 X136.656 Y121.642 E2.36602
G1 X135.957 Y122.009 E2.38936
G1 X135.224 Y122.304 E2.41272
G1 X134.466 Y122.523 E2.43605
G1 X133.689 Y122.665 E2.4594
G1 X132.682 Y122.73 E2.48924
G1 X88.203 Y122.731 E3.80425
G1 X87.415 Y122.691 E3.82758
G1 X86.634 Y122.572 E3.85094
G1 X85.838 Y122.364 E3.87526
G1 X85.684 Y122.315 E3.88004
G1 X84.945 Y122.038 E3.90337
G1 X84.237 Y121.687 E3.92674
G1 X83.568 Y121.267 E3.95009
G1 X82.946 Y120.781 E3.97343
G1 X82.376 Y120.235 E3.99676
G1 X81.863 Y119.634 E4.02012
G1 X81.415 Y118.984 E4.04346
G1 X81.034 Y118.292 E4.06682
G1 X80.725 Y117.565 E4.09017
G1 X80.491 Y116.811 E4.11351
G1 X80.335 Y116.037 E4.13686
G1 X80.249 Y114.882 E4.1711
G1 X80.249 Y105.118 E4.45977
G1 X80.289 Y104.329 E4.48313
G1 X80.408 Y103.549 E4.50646
G1 X80.606 Y102.784 E4.52982
G1 X80.88 Y102.044 E4.55315
G1 X81.228 Y101.335 E4.5765
G1 X81.646 Y100.664 E4.59987
G1 X82.129 Y100.04 E4.6232
G1 X82.672 Y99.467 E4.64654
G1 X83.271 Y98.952 E4.66989
G0 F6000 X83.66 Y99.16
G1 F2400 X84.302 Y98.737 E4.69262
G1 X84.985 Y98.382 E4.71538
G1 X85.805 Y98.066 E4.74136
G1 X85.959 Y98.017 E4.74614
G1 X86.703 Y97.823 E4.76887
G1 X87.464 Y97.706 E4.79164
G1 X88.203 Y97.669 E4.81351
G1 X132.682 Y97.67 E6.12853
G1 X133.45 Y97.71 E6.15127
G1 X134.21 Y97.829 E6.17401
G1 X134.953 Y98.027 E6.19674
G1 X135.672 Y98.301 E6.21949
G1 X136.359 Y98.648 E6.24225
G1 X137.005 Y99.064 E6.26496
G1 X137.605 Y99.546 E6.28772
G1 X138.152 Y100.086 E6.31044
G1 X138.635 Y100.674 E6.33294
G1 X138.731 Y100.804 E6.33772
G1 X139.155 Y101.446 E6.36046
G1 X139.51 Y102.128 E6.3832
G1 X139.793 Y102.843 E6.40593
G1 X139.999 Y103.584 E6.42867
G1 X140.128 Y104.342 E6.4514
G1 X140.178 Y105.201 E6.47684
G1 X140.177 Y114.801 E6.76066
G1 X140.137 Y115.569 E6.7834
G1 X140.017 Y116.329 E6.80615
G1 X139.82 Y117.072 E6.82887
G1 X139.546 Y117.791 E6.85162
G1 X139.199 Y118.477 E6.87435
G1 X138.752 Y119.166 E6.89863
G1 X138.657 Y119.296 E6.90339
G1 X138.171 Y119.893 E6.92615
G1 X137.626 Y120.436 E6.9489
G1 X137.028 Y120.919 E6.97162
G1 X136.383 Y121.338 E6.99436
G1 X135.698 Y121.688 E7.01711
G1 X134.98 Y121.964 E7.03985
G1 X134.238 Y122.165 E7.06258
G1 X133.478 Y122.287 E7.08533
G1 X132.682 Y122.33 E7.1089
G1 X88.203 Y122.331 E8.42392
G1 X87.435 Y122.291 E8.44666
G1 X86.675 Y122.172 E8.4694
G1 X85.959 Y121.983 E8.49129
G1 X85.805 Y121.934 E8.49607
G1 X85.085 Y121.663 E8.51882
G1 X84.398 Y121.318 E8.54154
G1 X83.749 Y120.905 E8.56429
G1 X83.147 Y120.426 E8.58703
G1 X82.598 Y119.887 E8.60978
G1 X82.108 Y119.294 E8.63252
G1 X81.682 Y118.654 E8.65525
G1 X81.325 Y117.973 E8.67798
G1 X81.041 Y117.258 E8.70073
G1 X80.832 Y116.518 E8.72346
G1 X80.701 Y115.76 E8.74621
G1 X80.649 Y114.882 E8.77221
G1 X80.649 Y105.118 E9.06088
G1 X80.689 Y104.35 E9.08362
G1 X80.808 Y103.59 E9.10636
G1 X81.006 Y102.847 E9.12909
G1 X81.28 Y102.128 E9.15184
G1 X81.627 Y101.442 E9.17457
G1 X82.043 Y100.795 E9.19731
G1 X82.524 Y100.195 E9.22005
G1 X83.065 Y99.648 E9.24279
G1 X83.66 Y99.16 E9.26554
G0 F6000 X84.047 Y99.375
G1 F2400 X84.683 Y98.98 E9.28768
G1 X85.357 Y98.656 E9.30979
G1 X85.927 Y98.448 E9.32773
G1 X86.081 Y98.399 E9.33251
G1 X86.805 Y98.21 E9.35463
G1 X87.544 Y98.1 E9.37672
G1 X88.203 Y98.069 E9.39622
G1 X132.682 Y98.07 E10.71124
G1 X133.429 Y98.11 E10.73336
G1 X134.168 Y98.229 E10.75549
G1 X134.889 Y98.427 E10.77759
G1 X135.585 Y98.701 E10.79971
G1 X136.249 Y99.047 E10.82184
G1 X136.871 Y99.462 E10.84395
G1 X137.445 Y99.941 E10.86605
G1 X137.966 Y100.478 E10.88817
G1 X138.313 Y100.912 E10.9046
G1 X138.409 Y101.042 E10.90938
G1 X138.821 Y101.666 E10.93149
G1 X139.163 Y102.331 E10.95359
G1 X139.433 Y103.029 E10.97572
G1 X139.627 Y103.752 E10.99785
G1 X139.742 Y104.491 E11.01996
G1 X139.778 Y105.201 E11.04098
G1 X139.777 Y114.801 E11.32481
G1 X139.737 Y115.548 E11.34692
G1 X139.617 Y116.286 E11.36903
G1 X139.42 Y117.008 E11.39115
G1 X139.146 Y117.704 E11.41327
G1 X138.8 Y118.367 E11.43538
G1 X138.429 Y118.93 E11.45531
G1 X138.334 Y119.06 E11.46007
G1 X137.861 Y119.64 E11.4822
G1 X137.329 Y120.165 E11.5043
G1 X136.743 Y120.631 E11.52643
G1 X136.112 Y121.032 E11.54854
G1 X135.441 Y121.363 E11.57066
G1 X134.739 Y121.621 E11.59277
G1 X134.013 Y121.802 E11.61489
G1 X133.272 Y121.905 E11.63701
G1 X132.682 Y121.93 E11.65447
G1 X88.203 Y121.931 E12.96949
G1 X87.456 Y121.891 E12.9916
G1 X86.718 Y121.772 E13.0137
G1 X86.081 Y121.601 E13.0332
G1 X85.927 Y121.552 E13.03798
G1 X85.227 Y121.288 E13.0601
G1 X84.559 Y120.95 E13.08223
G1 X83.932 Y120.543 E13.10433
G1 X83.351 Y120.071 E13.12646
G1 X82.824 Y119.54 E13.14858
G1 X82.357 Y118.956 E13.17069
G1 X81.955 Y118.326 E13.19279
G1 X81.622 Y117.656 E13.21491
G1 X81.363 Y116.954 E13.23703
G1 X81.18 Y116.229 E13.25913
G1 X81.075 Y115.488 E13.28126
G1 X81.049 Y114.882 E13.29919
G1 X81.049 Y105.118 E13.58787
G1 X81.089 Y104.371 E13.60998
G1 X81.208 Y103.633 E13.63208
G1 X81.406 Y102.911 E13.65422
G1 X81.679 Y102.215 E13.67632
G1 X82.026 Y101.552 E13.69844
G1 X82.441 Y100.929 E13.72058
G1 X82.92 Y100.355 E13.74268
G1 X83.457 Y99.834 E13.7648
G1 X84.047 Y99.375 E13.7869
G0 F6000 X83.848 Y100.027
G1 F2400 X84.433 Y99.597 E13.80836
G1 X85.062 Y99.233 E13.82985
G1 X86.048 Y98.829 E13.86135
G1 X86.202 Y98.78 E13.86613
G1 X86.905 Y98.598 E13.8876
G1 X87.624 Y98.494 E13.90908
G1 X88.203 Y98.469 E13.92621
G1 X132.682 Y98.47 E15.24123
G1 X133.407 Y98.51 E15.2627
G1 X134.124 Y98.629 E15.28419
G1 X134.823 Y98.827 E15.30567
G1 X135.496 Y99.1 E15.32714
G1 X136.135 Y99.445 E15.34861
G1 X136.732 Y99.859 E15.37009
G1 X137.28 Y100.335 E15.39155
G1 X137.991 Y101.149 E15.4235
G1 X138.087 Y101.279 E15.42828
G1 X138.486 Y101.886 E15.44975
G1 X138.815 Y102.534 E15.47124
G1 X139.072 Y103.213 E15.4927
G1 X139.252 Y103.917 E15.51419
G1 X139.354 Y104.636 E15.53566
G1 X139.378 Y105.201 E15.55238
G1 X139.377 Y114.801 E15.8362
G1 X139.337 Y115.526 E15.85767
G1 X139.217 Y116.242 E15.87913
G1 X139.02 Y116.941 E15.9006
G1 X138.747 Y117.614 E15.92207
G1 X138.401 Y118.253 E15.94356
G1 X138.106 Y118.694 E15.95924
G1 X138.011 Y118.824 E15.964
G1 X137.551 Y119.386 E15.98548
G1 X137.031 Y119.894 E16.00697
G1 X136.46 Y120.342 E16.02843
G1 X135.842 Y120.724 E16.04991
G1 X135.186 Y121.036 E16.07138
G1 X134.5 Y121.275 E16.09286
G1 X133.792 Y121.436 E16.11433
G1 X133.07 Y121.519 E16.13581
G1 X132.682 Y121.53 E16.14729
G1 X88.203 Y121.531 E17.46231
G1 X87.478 Y121.491 E17.48377
G1 X86.761 Y121.372 E17.50526
G1 X86.202 Y121.22 E17.52239
G1 X86.048 Y121.171 E17.52717
G1 X85.369 Y120.913 E17.54864
G1 X84.722 Y120.582 E17.57013
G1 X84.116 Y120.182 E17.5916
G1 X83.557 Y119.718 E17.61307
G1 X83.053 Y119.195 E17.63455
G1 X82.61 Y118.62 E17.65601
G1 X82.232 Y118 E17.67748
G1 X81.924 Y117.341 E17.69898
G1 X81.691 Y116.654 E17.72043
G1 X81.535 Y115.944 E17.74192
G1 X81.449 Y114.882 E17.77342
G1 X81.449 Y105.118 E18.06209
G1 X81.489 Y104.393 E18.08356
G1 X81.608 Y103.676 E18.10505
G1 X81.806 Y102.977 E18.12653
G1 X82.079 Y102.304 E18.148
G1 X82.424 Y101.665 E18.16947
G1 X82.838 Y101.068 E18.19095
G1 X83.314 Y100.52 E18.21241
G1 X83.848 Y100.027 E18.2339
G0 F6000 X84.238 Y100.227
G1 F2400 X84.817 Y99.827 E18.2547
G1 X85.438 Y99.495 E18.27552
G1 X86.169 Y99.21 E18.29872
G1 X86.323 Y99.161 E18.3035
G1 X87.005 Y98.986 E18.32431
G1 X87.702 Y98.889 E18.34512
G1 X88.203 Y98.869 E18.35994
G1 X132.682 Y98.87 E19.67496
G1 X133.385 Y98.91 E19.69578
G1 X134.079 Y99.029 E19.7166
G1 X134.755 Y99.227 E19.73742
G1 X135.404 Y99.499 E19.75823
G1 X136.018 Y99.844 E19.77905
G1 X136.589 Y100.256 E19.79986
G1 X137.109 Y100.729 E19.82065
G1 X137.669 Y101.387 E19.84619
G1 X137.765 Y101.517 E19.85097
G1 X138.151 Y102.106 E19.87179
G1 X138.467 Y102.735 E19.8926
G1 X138.71 Y103.396 E19.91342
G1 X138.876 Y104.08 E19.93423
G1 X138.964 Y104.778 E19.95503
G1 X138.978 Y105.201 E19.96754
G1 X138.977 Y114.801 E20.25137
G1 X138.937 Y115.503 E20.27216
G1 X138.817 Y116.197 E20.29298
G1 X138.62 Y116.873 E20.3138
G1 X138.347 Y117.522 E20.33461
G1 X138.003 Y118.136 E20.35542
G1 X137.783 Y118.458 E20.36695
G1 X137.688 Y118.588 E20.37171
G1 X137.241 Y119.132 E20.39253
G1 X136.735 Y119.622 E20.41335
G1 X136.177 Y120.051 E20.43416
G1 X135.574 Y120.414 E20.45497
G1 X134.934 Y120.707 E20.47578
G1 X134.264 Y120.925 E20.49661
G1 X133.575 Y121.065 E20.5174
G1 X132.682 Y121.13 E20.54387
G1 X88.203 Y121.131 E21.85889
G1 X87.5 Y121.091 E21.8797
G1 X86.806 Y120.972 E21.90052
G1 X86.323 Y120.839 E21.91533
G1 X86.169 Y120.79 E21.92011
G1 X85.511 Y120.539 E21.94093
G1 X84.887 Y120.215 E21.96172
G1 X84.302 Y119.822 E21.98256
G1 X83.767 Y119.365 E22.00336
G1 X83.286 Y118.851 E22.02417
G1 X82.867 Y118.285 E22.04499
G1 X82.514 Y117.676 E22.0658
G1 X82.233 Y117.031 E22.0866
G1 X82.027 Y116.357 E22.10744
G1 X81.899 Y115.665 E22.12824
G1 X81.849 Y114.882 E22.15144
G1 X81.849 Y105.118 E22.44011
G1 X81.889 Y104.415 E22.46093
G1 X82.008 Y103.721 E22.48175
G1 X82.206 Y103.046 E22.50255
G1 X82.478 Y102.397 E22.52335
G1 X82.823 Y101.783 E22.54417
G1 X83.234 Y101.212 E22.56497
G1 X83.708 Y100.691 E22.5858
G1 X84.238 Y100.227 E22.60662
G0 F6000 X84.627 Y100.435
G1 F2400 X85.199 Y100.066 E22.62675
G1 X85.811 Y99.767 E22.64688
G1 X86.29 Y99.591 E22.66197
G1 X86.444 Y99.542 E22.66675
G1 X87.104 Y99.374 E22.68688
G1 X87.779 Y99.285 E22.70701
G1 X88.203 Y99.269 E22.71956
G1 X132.682 Y99.27 E24.03458
G1 X133.362 Y99.31 E24.05472
G1 X134.032 Y99.429 E24.07483
G1 X134.684 Y99.626 E24.09497
G1 X135.308 Y99.899 E24.11511
G1 X135.896 Y100.242 E24.13523
G1 X136.44 Y100.652 E24.15537
G1 X136.932 Y101.123 E24.17551
G1 X137.348 Y101.625 E24.19479
G1 X137.444 Y101.755 E24.19956
G1 X137.815 Y102.325 E24.21967
G1 X138.118 Y102.935 E24.23981
G1 X138.346 Y103.577 E24.25995
G1 X138.498 Y104.24 E24.28006
G1 X138.578 Y105.201 E24.30857
G1 X138.577 Y114.801 E24.59239
G1 X138.537 Y115.48 E24.6125
G1 X138.418 Y116.151 E24.63265
G1 X138.22 Y116.802 E24.65277
G1 X137.948 Y117.426 E24.67289
G1 X137.46 Y118.222 E24.7005
G1 X137.365 Y118.352 E24.70526
G1 X136.932 Y118.877 E24.72538
G1 X136.44 Y119.348 E24.74551
G1 X135.896 Y119.758 E24.76565
G1 X135.308 Y120.101 E24.78578
G1 X134.684 Y120.374 E24.80592
G1 X134.032 Y120.571 E24.82605
G1 X133.362 Y120.69 E24.84617
G1 X132.682 Y120.73 E24.86631
G1 X88.203 Y120.731 E26.18133
G1 X87.523 Y120.691 E26.20147
G1 X86.853 Y120.572 E26.22159
G1 X86.444 Y120.458 E26.23414
G1 X86.29 Y120.409 E26.23892
G1 X85.655 Y120.165 E26.25903
G1 X85.052 Y119.848 E26.27917
G1 X84.491 Y119.462 E26.2993
G1 X83.979 Y119.014 E26.31942
G1 X83.522 Y118.508 E26.33958
G1 X83.129 Y117.953 E26.35968
G1 X82.803 Y117.355 E26.37982
G1 X82.549 Y116.723 E26.39996
G1 X82.371 Y116.066 E26.42008
G1 X82.272 Y115.393 E26.44019
G1 X82.249 Y114.882 E26.45531
G1 X82.249 Y105.118 E26.74399
G1 X82.289 Y104.438 E26.76412
G1 X82.408 Y103.768 E26.78424
G1 X82.605 Y103.116 E26.80438
G1 X82.877 Y102.492 E26.82451
G1 X83.221 Y101.904 E26.84465
G1 X83.631 Y101.36 E26.86479
G1 X84.102 Y100.869 E26.8849
G1 X84.627 Y100.435 E26.90504
G0 F6000 X84.494 Y101.053
G1 F2400 X85.014 Y100.652 E26.92445
G1 X85.578 Y100.316 E26.94386
G1 X86.412 Y99.972 E26.97054
G1 X86.566 Y99.923 E26.97531
G1 X87.203 Y99.762 E26.99474
G1 X87.854 Y99.68 E27.01414
G1 X88.203 Y99.669 E27.02446
G1 X132.682 Y99.67 E28.33948
G1 X133.338 Y99.71 E28.35891
G1 X133.984 Y99.829 E28.37833
G1 X134.611 Y100.026 E28.39776
G1 X135.209 Y100.298 E28.41718
G1 X135.77 Y100.64 E28.43661
G1 X136.285 Y101.048 E28.45603
G1 X136.747 Y101.515 E28.47546
G1 X137.026 Y101.862 E28.48862
G1 X137.122 Y101.992 E28.4934
G1 X137.479 Y102.543 E28.51281
G1 X137.767 Y103.134 E28.53224
G1 X137.981 Y103.755 E28.55166
G1 X138.118 Y104.398 E28.5711
G1 X138.178 Y105.201 E28.59491
G1 X138.177 Y114.801 E28.87873
G1 X138.137 Y115.456 E28.89813
G1 X138.018 Y116.102 E28.91755
G1 X137.821 Y116.729 E28.93698
G1 X137.549 Y117.327 E28.95641
G1 X137.137 Y117.986 E28.97938
G1 X137.042 Y118.116 E28.98414
G1 X136.623 Y118.622 E29.00357
G1 X136.145 Y119.073 E29.023
G1 X135.616 Y119.463 E29.04243
G1 X135.044 Y119.786 E29.06185
G1 X134.437 Y120.037 E29.08127
G1 X133.804 Y120.212 E29.10068
G1 X133.154 Y120.309 E29.12011
G1 X132.682 Y120.33 E29.13408
G1 X88.203 Y120.331 E30.4491
G1 X87.547 Y120.291 E30.46853
G1 X86.901 Y120.172 E30.48795
G1 X86.566 Y120.077 E30.49825
G1 X86.412 Y120.028 E30.50303
G1 X85.799 Y119.791 E30.52246
G1 X85.219 Y119.481 E30.5419
G1 X84.682 Y119.104 E30.5613
G1 X84.194 Y118.664 E30.58072
G1 X83.763 Y118.167 E30.60017
G1 X83.396 Y117.623 E30.61957
G1 X83.098 Y117.037 E30.63901
G1 X82.873 Y116.42 E30.65843
G1 X82.724 Y115.78 E30.67786
G1 X82.649 Y114.882 E30.7045
G1 X82.649 Y105.118 E30.99317
G1 X82.689 Y104.462 E31.0126
G1 X82.808 Y103.816 E31.03202
G1 X83.005 Y103.189 E31.05145
G1 X83.277 Y102.591 E31.07087
G1 X83.619 Y102.03 E31.0903
G1 X84.027 Y101.515 E31.10972
G1 X84.494 Y101.053 E31.12914
G0 F6000 X84.885 Y101.247
G1 F2400 X85.399 Y100.878 E31.14785
G1 X85.955 Y100.578 E31.16653
G1 X86.533 Y100.353 E31.18487
G1 X86.687 Y100.304 E31.18965
G1 X87.3 Y100.151 E31.20832
G1 X88.203 Y100.069 E31.23513
G1 X132.682 Y100.07 E32.55015
G1 X133.313 Y100.11 E32.56884
G1 X133.934 Y100.229 E32.58754
G1 X134.535 Y100.426 E32.60624
G1 X135.106 Y100.697 E32.62492
G1 X135.638 Y101.037 E32.64359
G1 X136.123 Y101.443 E32.66229
G1 X136.704 Y102.1 E32.68822
G1 X136.8 Y102.23 E32.693
G1 X137.143 Y102.761 E32.71169
G1 X137.416 Y103.331 E32.73037
G1 X137.614 Y103.931 E32.74905
G1 X137.736 Y104.552 E32.76776
G1 X137.778 Y105.201 E32.78699
G1 X137.777 Y114.801 E33.07081
G1 X137.737 Y115.431 E33.08948
G1 X137.618 Y116.052 E33.10817
G1 X137.421 Y116.653 E33.12687
G1 X137.15 Y117.224 E33.14556
G1 X136.814 Y117.75 E33.16401
G1 X136.719 Y117.88 E33.16877
G1 X136.314 Y118.366 E33.18747
G1 X135.852 Y118.797 E33.20615
G1 X135.339 Y119.166 E33.22484
G1 X134.783 Y119.467 E33.24353
G1 X134.194 Y119.696 E33.26221
G1 X133.58 Y119.849 E33.28092
G1 X132.682 Y119.93 E33.30758
G1 X88.203 Y119.931 E34.62259
G1 X87.572 Y119.891 E34.64129
