;FLAVOR:Marlin
;TIME:5884
;Filament used: 2.7391m
;Layer height: 0.2
;MINX:80.291
;MINY:80.281
;MINZ:0.2
;MAXX:139.729
;MAXY:139.738
;MAXZ:120.107
;Generated with Cura_SteamEngine 4.9.0
M82 ;absolute extrusion mode
; Ender 3 Custom Start G-code
M117 Warming Print Bed
M140 S80 ; Set Heat Bed temperature
M190 S80 ; Wait for Heat Bed temperature
M104 S160; start warming extruder to 160
M117 Homing all axes
G28 ; Home all axes
M117 Beginning Bed Leveling
G29 ; Auto bed-level (BL-Touch)
G92 E0 ; Reset Extruder
M117 Warming Extruder
M104 S200.0 ; Set Extruder temperature
G1 X0.1 Y20 Z0.3 F5000.0 ; Move to start position
M109 S200.0 ; Wait for Extruder temperature
; G1 Z2.0 F3000 ; Move Z Axis up little to prevent scratching of Heat Bed
G1 X0.1 Y200.0 Z0.3 F1500.0 E15 ; Draw the first line
G1 X0.4 Y200.0 Z0.3 F5000.0 ; Move to side a little
G1 X0.4 Y20 Z0.3 F1500.0 E30 ; Draw the second line
G92 E0 ; Reset Extruder
G1 Z2.0 F3000 ; Move Z Axis up little to prevent scratching of Heat Bed
; End of custom start GCode
G92 E0
G92 E0
G1 F1500 E-6.5
;LAYER_COUNT:600
;LAYER:0
M107
G0 F6000 X89.28 Y89.783 Z0.2
;TYPE:SKIRT
G1 F1500 E0
G1 F1200 X89.945 Y89.122 E0.03119
G1 X90.663 Y88.52 E0.06235
G1 X91.431 Y87.981 E0.09356
G1 X92.242 Y87.509 E0.12477
G1 X92.818 Y87.227 E0.1461
G1 X93.281 Y87.02 E0.16297
G1 X93.648 Y86.865 E0.17622
G1 X104.943 Y82.188 E0.58282
G1 X105.609 Y81.922 E0.60667
G1 X106.494 Y81.611 E0.63787
G1 X107.212 Y81.42 E0.66259
G1 X107.61 Y81.328 E0.67617
G1 X108.532 Y81.156 E0.70737
G1 X109.465 Y81.063 E0.73855
G1 X110.403 Y81.05 E0.76975
G1 X111.338 Y81.116 E0.80093
G1 X112.264 Y81.263 E0.83211
G1 X113.175 Y81.487 E0.86332
G1 X113.972 Y81.754 E0.89127
G1 X114.221 Y81.848 E0.90012
G1 X114.544 Y81.976 E0.91168
G1 X126.121 Y86.771 E1.32845
G1 X126.769 Y87.05 E1.35192
G1 X127.614 Y87.457 E1.38311
G1 X128.178 Y87.781 E1.40475
G1 X128.427 Y87.934 E1.41447
G1 X128.736 Y88.131 E1.42666
G1 X129.501 Y88.674 E1.45786
G1 X130.217 Y89.28 E1.48906
G1 X130.878 Y89.945 E1.52024
G1 X131.48 Y90.663 E1.55141
G1 X132.019 Y91.431 E1.58261
G1 X132.491 Y92.242 E1.61382
G1 X132.772 Y92.815 E1.63505
G1 X132.861 Y93.011 E1.64221
G1 X132.966 Y93.251 E1.65092
G1 X133.131 Y93.638 E1.66492
G1 X137.76 Y104.813 E2.06722
G1 X138.078 Y105.609 E2.09573
G1 X138.389 Y106.494 E2.12693
G1 X138.57 Y107.166 E2.15008
G1 X138.644 Y107.48 E2.16081
G1 X138.725 Y107.852 E2.17347
G1 X138.876 Y108.778 E2.20468
G1 X138.948 Y109.713 E2.23587
G1 X138.939 Y110.651 E2.26707
G1 X138.851 Y111.584 E2.29824
G1 X138.684 Y112.507 E2.32944
G1 X138.439 Y113.412 E2.36062
G1 X138.26 Y113.929 E2.37882
G1 X138.166 Y114.181 E2.38776
G1 X138.023 Y114.545 E2.40077
G1 X133.231 Y126.116 E2.81732
G1 X132.947 Y126.775 E2.84119
G1 X132.539 Y127.62 E2.8724
G1 X132.22 Y128.176 E2.89372
G1 X132.069 Y128.422 E2.90332
G1 X131.852 Y128.763 E2.91676
G1 X131.307 Y129.526 E2.94795
G1 X130.699 Y130.24 E2.97914
G1 X130.032 Y130.9 E3.01035
G1 X129.311 Y131.5 E3.04155
G1 X128.542 Y132.037 E3.07274
G1 X127.73 Y132.506 E3.10393
G1 X127.16 Y132.784 E3.12502
G1 X126.719 Y132.98 E3.14107
G1 X126.352 Y133.135 E3.15432
G1 X115.052 Y137.814 E3.56111
G1 X114.385 Y138.08 E3.58499
G1 X113.5 Y138.39 E3.61618
G1 X112.841 Y138.568 E3.63889
G1 X112.528 Y138.642 E3.64958
G1 X112.069 Y138.74 E3.66519
G1 X111.143 Y138.885 E3.69637
G1 X110.207 Y138.95 E3.72757
G1 X109.269 Y138.935 E3.75878
G1 X108.336 Y138.841 E3.78997
G1 X107.415 Y138.667 E3.82114
G1 X106.511 Y138.415 E3.85235
G1 X106.05 Y138.254 E3.86859
G1 X105.802 Y138.161 E3.8774
G1 X105.456 Y138.024 E3.88978
G1 X93.877 Y133.229 E4.30662
G1 X93.227 Y132.949 E4.33016
G1 X92.382 Y132.541 E4.36137
G1 X91.814 Y132.214 E4.38316
G1 X91.567 Y132.062 E4.39281
G1 X91.237 Y131.852 E4.40582
G1 X90.474 Y131.307 E4.43701
G1 X89.76 Y130.699 E4.4682
G1 X89.1 Y130.032 E4.49941
G1 X88.5 Y129.311 E4.53061
G1 X87.963 Y128.542 E4.5618
G1 X87.494 Y127.73 E4.59299
G1 X87.216 Y127.16 E4.61408
G1 X87.119 Y126.945 E4.62193
G1 X87.014 Y126.704 E4.63067
G1 X86.86 Y126.339 E4.64385
G1 X82.166 Y115.003 E5.05193
G1 X81.917 Y114.378 E5.07431
G1 X81.607 Y113.493 E5.1055
G1 X81.429 Y112.828 E5.12839
G1 X81.356 Y112.518 E5.13898
G1 X81.223 Y111.866 E5.16112
G1 X81.208 Y111.779 E5.16405
G1 X81.088 Y110.849 E5.19524
G1 X81.048 Y109.912 E5.22643
G1 X81.088 Y108.975 E5.25763
G1 X81.207 Y108.045 E5.28881
G1 X81.406 Y107.128 E5.32002
G1 X81.74 Y106.071 E5.35689
G1 X81.832 Y105.824 E5.36566
G1 X81.977 Y105.454 E5.37887
G1 X86.797 Y93.818 E5.79778
G1 X87.056 Y93.218 E5.81952
G1 X87.464 Y92.374 E5.85069
G1 X87.78 Y91.824 E5.87179
G1 X87.931 Y91.578 E5.88139
G1 X88.131 Y91.264 E5.89377
G1 X88.674 Y90.499 E5.92498
G1 X89.28 Y89.783 E5.95618
G0 F6000 X89.597 Y90.03
G1 F1200 X90.252 Y89.383 E5.9868
G1 X90.961 Y88.796 E6.01741
G1 X91.718 Y88.272 E6.04803
G1 X92.518 Y87.816 E6.07866
G1 X92.983 Y87.591 E6.09584
G1 X93.199 Y87.493 E6.10373
G1 X93.437 Y87.389 E6.11237
G1 X93.801 Y87.235 E6.12552
G1 X105.091 Y82.559 E6.53195
G1 X105.757 Y82.293 E6.55581
G1 X106.626 Y81.989 E6.58643
G1 X107.302 Y81.809 E6.6097
G1 X107.7 Y81.717 E6.62328
G1 X108.605 Y81.549 E6.6539
G1 X109.521 Y81.46 E6.68451
G1 X110.442 Y81.451 E6.71514
G1 X111.36 Y81.522 E6.74576
G1 X112.268 Y81.672 E6.77637
G1 X113.16 Y81.9 E6.807
G1 X113.831 Y82.128 E6.83057
G1 X114.08 Y82.222 E6.83942
G1 X114.391 Y82.345 E6.85054
G1 X125.963 Y87.138 E7.26714
G1 X126.611 Y87.417 E7.2906
G1 X127.44 Y87.818 E7.32123
G1 X127.968 Y88.122 E7.3415
G1 X128.431 Y88.409 E7.35961
G1 X128.519 Y88.466 E7.3631
G1 X129.269 Y89 E7.39372
G1 X129.97 Y89.597 E7.42435
G1 X130.617 Y90.252 E7.45497
G1 X131.204 Y90.961 E7.48558
G1 X131.728 Y91.718 E7.51621
G1 X132.184 Y92.518 E7.54683
G1 X132.408 Y92.98 E7.56391
G1 X132.497 Y93.176 E7.57107
G1 X132.761 Y93.791 E7.59333
G1 X137.441 Y105.091 E8.00013
G1 X137.707 Y105.757 E8.02398
G1 X138.011 Y106.626 E8.0546
G1 X138.18 Y107.258 E8.07636
G1 X138.254 Y107.572 E8.08709
G1 X138.333 Y107.933 E8.09938
G1 X138.481 Y108.842 E8.13001
G1 X138.549 Y109.76 E8.16063
G1 X138.537 Y110.681 E8.19126
G1 X138.446 Y111.597 E8.22188
G1 X138.275 Y112.501 E8.25248
G1 X137.886 Y113.79 E8.29726
G1 X137.792 Y114.042 E8.30621
G1 X137.654 Y114.392 E8.31872
G1 X132.864 Y125.958 E8.73509
G1 X132.58 Y126.617 E8.75896
G1 X132.179 Y127.446 E8.78959
G1 X131.879 Y127.967 E8.80958
G1 X131.728 Y128.213 E8.81919
G1 X131.517 Y128.544 E8.83224
G1 X130.981 Y129.293 E8.86287
G1 X130.382 Y129.993 E8.89352
G1 X129.725 Y130.637 E8.92412
G1 X129.015 Y131.223 E8.95474
G1 X128.256 Y131.744 E8.98535
G1 X127.455 Y132.198 E9.01598
G1 X126.995 Y132.419 E9.03295
G1 X126.563 Y132.611 E9.04868
G1 X126.199 Y132.765 E9.06182
G1 X114.904 Y137.443 E9.46844
G1 X114.237 Y137.709 E9.49232
G1 X113.367 Y138.012 E9.52296
G1 X112.749 Y138.179 E9.54426
G1 X112.436 Y138.253 E9.55495
G1 X111.991 Y138.348 E9.57009
G1 X111.081 Y138.489 E9.60072
G1 X110.162 Y138.551 E9.63135
G1 X109.242 Y138.533 E9.66196
G1 X108.327 Y138.435 E9.69256
G1 X107.423 Y138.258 E9.7232
G1 X106.19 Y137.879 E9.76611
G1 X105.942 Y137.786 E9.77491
G1 X105.609 Y137.655 E9.78682
G1 X94.035 Y132.861 E10.20349
G1 X93.385 Y132.581 E10.22702
G1 X92.556 Y132.181 E10.25764
G1 X92.024 Y131.874 E10.27807
G1 X91.777 Y131.722 E10.28771
G1 X91.456 Y131.517 E10.30038
G1 X90.707 Y130.981 E10.33102
G1 X90.007 Y130.382 E10.36166
G1 X89.363 Y129.725 E10.39226
G1 X88.777 Y129.015 E10.42288
G1 X88.256 Y128.256 E10.4535
G1 X87.802 Y127.455 E10.48412
G1 X87.581 Y126.995 E10.50109
G1 X87.382 Y126.548 E10.51737
G1 X87.23 Y126.186 E10.53043
G1 X82.538 Y114.855 E10.93833
G1 X82.289 Y114.23 E10.96071
G1 X81.985 Y113.361 E10.99133
G1 X81.818 Y112.737 E11.01281
G1 X81.745 Y112.427 E11.0234
G1 X81.617 Y111.798 E11.04475
G1 X81.602 Y111.711 E11.04769
G1 X81.485 Y110.798 E11.0783
G1 X81.448 Y109.878 E11.10893
G1 X81.491 Y108.958 E11.13956
G1 X81.613 Y108.046 E11.17016
G1 X81.814 Y107.147 E11.2008
G1 X82.115 Y106.21 E11.23354
G1 X82.207 Y105.963 E11.2423
G1 X82.347 Y105.607 E11.25503
G1 X87.164 Y93.977 E11.67371
G1 X87.423 Y93.377 E11.69545
G1 X87.824 Y92.548 E11.72607
G1 X88.121 Y92.033 E11.74585
G1 X88.272 Y91.787 E11.75545
G1 X88.466 Y91.481 E11.7675
G1 X89 Y90.731 E11.79812
G1 X89.597 Y90.03 E11.82875
G0 F6000 X89.913 Y90.277
G1 F1200 X90.559 Y89.645 E11.8588
G1 X91.257 Y89.073 E11.88882
G1 X92.004 Y88.565 E11.91886
G1 X93.149 Y87.955 E11.96202
G1 X93.594 Y87.757 E11.97821
G1 X93.954 Y87.604 E11.99122
G1 X105.12 Y82.979 E12.39321
G1 X105.906 Y82.665 E12.42136
G1 X106.758 Y82.367 E12.45138
G1 X107.392 Y82.199 E12.47319
G1 X107.79 Y82.107 E12.48678
G1 X108.678 Y81.943 E12.51681
G1 X109.577 Y81.858 E12.54685
G1 X110.48 Y81.853 E12.57688
G1 X111.38 Y81.927 E12.60692
G1 X112.27 Y82.081 E12.63696
G1 X113.143 Y82.313 E12.667
G1 X113.689 Y82.502 E12.68622
G1 X113.938 Y82.596 E12.69507
G1 X114.238 Y82.715 E12.70581
G1 X125.805 Y87.505 E13.12221
G1 X126.453 Y87.784 E13.14567
G1 X127.266 Y88.178 E13.17572
G1 X127.759 Y88.462 E13.19465
G1 X128.008 Y88.615 E13.20437
G1 X128.301 Y88.802 E13.21593
G1 X129.037 Y89.326 E13.24598
G1 X129.723 Y89.913 E13.27601
G1 X130.355 Y90.559 E13.30606
G1 X130.927 Y91.257 E13.33608
G1 X131.435 Y92.004 E13.36613
G1 X132.043 Y93.146 E13.40916
G1 X132.23 Y93.565 E13.42442
G1 X132.392 Y93.945 E13.43816
G1 X137.021 Y105.12 E13.84046
G1 X137.335 Y105.906 E13.86862
G1 X137.633 Y106.758 E13.89864
G1 X137.791 Y107.349 E13.91898
G1 X137.865 Y107.663 E13.92971
G1 X137.942 Y108.014 E13.94167
G1 X138.086 Y108.906 E13.97172
G1 X138.15 Y109.807 E14.00176
G1 X138.135 Y110.71 E14.0318
G1 X138.04 Y111.608 E14.06183
G1 X137.865 Y112.494 E14.09187
G1 X137.511 Y113.65 E14.13208
G1 X137.417 Y113.902 E14.14103
G1 X137.284 Y114.239 E14.15308
G1 X132.496 Y125.8 E14.56927
G1 X132.212 Y126.459 E14.59314
G1 X131.818 Y127.272 E14.62319
G1 X131.538 Y127.758 E14.64184
G1 X131.387 Y128.004 E14.65144
G1 X131.182 Y128.326 E14.66414
G1 X130.655 Y129.06 E14.69419
G1 X130.066 Y129.745 E14.72424
G1 X129.419 Y130.375 E14.75428
G1 X128.719 Y130.945 E14.7843
G1 X127.971 Y131.451 E14.81434
G1 X126.831 Y132.055 E14.85725
G1 X126.406 Y132.243 E14.8727
G1 X126.046 Y132.396 E14.88571
G1 X114.88 Y137.021 E15.28769
G1 X114.088 Y137.337 E15.31605
G1 X113.236 Y137.634 E15.34606
G1 X112.657 Y137.789 E15.366
G1 X112.344 Y137.863 E15.3767
G1 X111.912 Y137.956 E15.39139
G1 X111.02 Y138.094 E15.42142
G1 X110.119 Y138.152 E15.45145
G1 X109.216 Y138.13 E15.48149
G1 X108.318 Y138.029 E15.51154
G1 X107.433 Y137.848 E15.54159
G1 X106.331 Y137.505 E15.57998
G1 X106.083 Y137.412 E15.58879
G1 X105.762 Y137.285 E15.60027
G1 X94.194 Y132.494 E16.01671
G1 X93.544 Y132.214 E16.04025
G1 X92.731 Y131.82 E16.0703
G1 X92.233 Y131.533 E16.08942
G1 X91.986 Y131.381 E16.09906
G1 X91.674 Y131.182 E16.11137
G1 X90.94 Y130.655 E16.14143
G1 X90.255 Y130.066 E16.17147
G1 X89.625 Y129.419 E16.20151
G1 X89.055 Y128.719 E16.23153
G1 X88.549 Y127.971 E16.26157
G1 X87.945 Y126.831 E16.30448
G1 X87.751 Y126.392 E16.32044
G1 X87.599 Y126.033 E16.33341
G1 X82.909 Y114.707 E16.74113
G1 X82.66 Y114.082 E16.76351
G1 X82.364 Y113.229 E16.79354
G1 X82.208 Y112.645 E16.81365
G1 X82.135 Y112.335 E16.82424
G1 X82.011 Y111.73 E16.84478
G1 X81.996 Y111.643 E16.84772
G1 X81.882 Y110.747 E16.87776
G1 X81.848 Y109.845 E16.90778
G1 X81.894 Y108.943 E16.93782
G1 X82.019 Y108.048 E16.96788
G1 X82.223 Y107.169 E16.99789
G1 X82.49 Y106.35 E17.02654
G1 X82.582 Y106.103 E17.03531
G1 X82.716 Y105.76 E17.04755
G1 X87.531 Y94.136 E17.46603
G1 X87.79 Y93.536 E17.48776
G1 X88.185 Y92.723 E17.51783
G1 X88.462 Y92.242 E17.53629
G1 X88.613 Y91.996 E17.54589
G1 X88.802 Y91.699 E17.5576
G1 X89.326 Y90.963 E17.58765
G1 X89.913 Y90.277 E17.61767
G1 F1500 E11.11767
;MESH:Low-poly_Rose_Vase.stl
G0 F6000 X96.605 Y97.182
G0 X97.436 Y97.709
G0 X92.424 Y109.948
G0 X97.534 Y122.39
G0 X109.943 Y127.636
G0 X109.932 Y127.756
;TYPE:WALL-OUTER
G1 F1500 E17.61767
G1 F1200 X97.65 Y122.669 E18.05983
G1 X97.396 Y122.507 E18.06985
G1 X92.308 Y110.224 E18.51205
G1 X92.244 Y109.932 E18.52199
G1 X97.331 Y97.65 E18.96414
G1 X97.493 Y97.396 E18.97416
G1 X109.776 Y92.308 E19.41636
G1 X110.068 Y92.244 E19.4263
G1 X122.35 Y97.331 E19.86845
G1 X122.604 Y97.493 E19.87847
G1 X127.692 Y109.776 E20.32067
G1 X127.756 Y110.068 E20.33061
G1 X122.669 Y122.35 E20.77277
G1 X122.507 Y122.604 E20.78279
G1 X110.224 Y127.692 E21.22498
G1 X109.932 Y127.756 E21.23493
G1 F1500 E14.73493
G0 F6000 X109.943 Y127.636
G0 X116.225 Y125.001
G0 X110.022 Y110.022
;TYPE:SKIN
G1 F1500 E21.23493
G1 F1200 X109.969 Y109.999 E21.23685
G1 X110 Y109.969 E21.23828
G1 X110.022 Y110.022 E21.24019
G0 F6000 X110.327 Y110.329
G1 F1200 X110.001 Y110.464 E21.25193
G1 X109.671 Y110.327 E21.26381
G1 X109.536 Y110.001 E21.27555
G1 X109.673 Y109.671 E21.28743
G1 X109.999 Y109.536 E21.29917
G1 X110.329 Y109.673 E21.31105
G1 X110.464 Y109.999 E21.32279
G1 X110.327 Y110.329 E21.33467
G0 F6000 X110.634 Y110.635
G1 F1200 X110.001 Y110.897 E21.35746
G1 X109.365 Y110.634 E21.38035
G1 X109.103 Y110.001 E21.40313
G1 X109.366 Y109.365 E21.42603
G1 X109.999 Y109.103 E21.44881
G1 X110.635 Y109.366 E21.4717
G1 X110.897 Y109.999 E21.49449
G1 X110.634 Y110.635 E21.51738
G0 F6000 X110.94 Y110.941
G1 F1200 X110.001 Y111.33 E21.55118
G1 X109.059 Y110.94 E21.58509
G1 X108.67 Y110.001 E21.6189
G1 X109.06 Y109.059 E21.65281
G1 X109.999 Y108.67 E21.68661
G1 X110.941 Y109.06 E21.72052
G1 X111.33 Y109.999 E21.75433
G1 X110.94 Y110.941 E21.78824
G0 F6000 X111.246 Y111.248
G1 F1200 X110.001 Y111.763 E21.83305
G1 X108.752 Y111.246 E21.87801
G1 X108.237 Y110.001 E21.92282
G1 X108.754 Y108.752 E21.96778
G1 X109.999 Y108.237 E22.01259
G1 X111.248 Y108.754 E22.05755
G1 X111.763 Y109.999 E22.10237
G1 X111.246 Y111.248 E22.14733
G0 F6000 X111.552 Y111.554
G1 F1200 X110.001 Y112.196 E22.20316
G1 X108.446 Y111.552 E22.25914
G1 X107.804 Y110.001 E22.31497
G1 X108.448 Y108.446 E22.37095
G1 X109.999 Y107.804 E22.42678
G1 X111.554 Y108.448 E22.48276
G1 X112.196 Y109.999 E22.53859
G1 X111.552 Y111.554 E22.59457
G0 F6000 X111.859 Y111.86
G1 F1200 X110.001 Y112.629 E22.66145
G1 X108.14 Y111.859 E22.72844
G1 X107.371 Y110.001 E22.79532
G1 X108.141 Y108.14 E22.8623
G1 X109.999 Y107.371 E22.92919
G1 X111.86 Y108.141 E22.99617
G1 X112.629 Y109.999 E23.06305
G1 X111.859 Y111.86 E23.13004
G0 F6000 X112.165 Y112.166
G1 F1200 X110.001 Y113.062 E23.20794
G1 X107.834 Y112.165 E23.28594
G1 X106.938 Y110.001 E23.36385
G1 X107.835 Y107.834 E23.44185
G1 X109.999 Y106.938 E23.51975
G1 X112.166 Y107.835 E23.59776
G1 X113.062 Y109.999 E23.67566
G1 X112.165 Y112.166 E23.75366
G0 F6000 X112.471 Y112.473
G1 F1200 X110.001 Y113.495 E23.84257
G1 X107.527 Y112.471 E23.93163
G1 X106.505 Y110.001 E24.02053
G1 X107.529 Y107.527 E24.10959
G1 X109.999 Y106.505 E24.1985
G1 X112.473 Y107.529 E24.28755
G1 X113.495 Y109.999 E24.37646
G1 X112.471 Y112.473 E24.46551
G0 F6000 X112.778 Y112.779
G1 F1200 X110.001 Y113.928 E24.56547
G1 X107.221 Y112.778 E24.66553
G1 X106.072 Y110.001 E24.76549
G1 X107.222 Y107.221 E24.86555
G1 X109.999 Y106.072 E24.96551
G1 X112.779 Y107.222 E25.06557
G1 X113.928 Y109.999 E25.16553
G1 X112.778 Y112.779 E25.26559
G0 F6000 X113.084 Y113.085
G1 F1200 X110.001 Y114.361 E25.37657
G1 X106.915 Y113.084 E25.48765
G1 X105.639 Y110.001 E25.59863
G1 X106.916 Y106.915 E25.70971
G1 X109.999 Y105.639 E25.82068
G1 X113.085 Y106.916 E25.93177
G1 X114.361 Y109.999 E26.04274
G1 X113.084 Y113.085 E26.15382
G0 F6000 X113.39 Y113.392
G1 F1200 X110.001 Y114.794 E26.27581
G1 X106.608 Y113.39 E26.39794
G1 X105.206 Y110.001 E26.51992
G1 X106.61 Y106.608 E26.64205
G1 X109.999 Y105.206 E26.76404
G1 X113.392 Y106.61 E26.88617
G1 X114.794 Y109.999 E27.00815
G1 X113.39 Y113.392 E27.13028
G0 F6000 X113.697 Y113.698
G1 F1200 X110.001 Y115.227 E27.26332
G1 X106.302 Y113.697 E27.39645
G1 X104.773 Y110.001 E27.52949
G1 X106.303 Y106.302 E27.66263
G1 X109.999 Y104.773 E27.79566
G1 X113.698 Y106.303 E27.9288
G1 X115.227 Y109.999 E28.06183
G1 X113.697 Y113.698 E28.19497
G0 F6000 X114.003 Y114.004
G1 F1200 X110.001 Y115.66 E28.33902
G1 X105.996 Y114.003 E28.48318
G1 X104.34 Y110.001 E28.62723
G1 X105.997 Y105.996 E28.77139
G1 X109.999 Y104.34 E28.91544
G1 X114.004 Y105.997 E29.0596
