;FLAVOR:Marlin
;TIME:13974
;Filament used: 6.84869m
;Layer height: 0.2
;MINX:66.5
;MINY:66.5
;MINZ:0.2
;MAXX:153.5
;MAXY:153.5
;MAXZ:59
;Generated with Cura_SteamEngine 4.9.0
M82 ;absolute extrusion mode
; Ender 3 Custom Start G-code
M117 Warming Print Bed
M140 S80 ; Set Heat Bed temperature
M190 S80 ; Wait for Heat Bed temperature
M104 S160; start warming extruder to 160
M117 Homing all axes
G28 ; Home all axes
M117 Beginning Bed Leveling
G29 ; Auto bed-level (BL-Touch)
G92 E0 ; Reset Extruder
M117 Warming Extruder
M104 S240.0 ; Set Extruder temperature
G1 X0.1 Y20 Z0.3 F5000.0 ; Move to start position
M109 S240.0 ; Wait for Extruder temperature
; G1 Z2.0 F3000 ; Move Z Axis up little to prevent scratching of Heat Bed
G1 X0.1 Y200.0 Z0.3 F1500.0 E15 ; Draw the first line
G1 X0.4 Y200.0 Z0.3 F5000.0 ; Move to side a little
G1 X0.4 Y20 Z0.3 F1500.0 E30 ; Draw the second line
G92 E0 ; Reset Extruder
G1 Z2.0 F3000 ; Move Z Axis up little to prevent scratching of Heat Bed
; End of custom start GCode
G92 E0
G92 E0
G1 F1500 E-6.5
;LAYER_COUNT:295
;LAYER:0
M107
G0 F6000 X69.698 Y69.764 Z0.2
;TYPE:SKIRT
G1 F1500 E0
G1 F1200 X70.386 Y69.127 E0.03119
G1 X71.126 Y68.551 E0.06237
G1 X71.912 Y68.039 E0.09357
G1 X72.739 Y67.597 E0.12476
G1 X73.601 Y67.227 E0.15596
G1 X74.491 Y66.931 E0.18716
G1 X75.403 Y66.713 E0.21835
G1 X76.33 Y66.572 E0.24953
G1 X77.201 Y66.513 E0.27857
G1 X77.522 Y66.504 E0.28925
G1 X77.83 Y66.5 E0.29949
G1 X141.793 Y66.5 E2.42691
G1 X142.649 Y66.511 E2.45539
G1 X143.585 Y66.565 E2.48657
G1 X144.513 Y66.697 E2.51774
G1 X145.427 Y66.909 E2.54895
G1 X146.319 Y67.198 E2.58014
G1 X147.184 Y67.561 E2.61134
G1 X148.014 Y67.997 E2.64252
G1 X148.805 Y68.502 E2.67373
G1 X149.549 Y69.073 E2.70493
G1 X150.242 Y69.705 E2.73612
G1 X150.879 Y70.393 E2.76731
G1 X151.454 Y71.134 E2.7985
G1 X151.965 Y71.92 E2.82969
G1 X152.407 Y72.748 E2.8609
G1 X152.776 Y73.61 E2.89209
G1 X153.071 Y74.5 E2.92327
G1 X153.289 Y75.412 E2.95446
G1 X153.429 Y76.34 E2.98568
G1 X153.487 Y77.201 E3.01438
G1 X153.496 Y77.521 E3.02503
G1 X153.5 Y77.83 E3.0353
G1 X153.499 Y141.9 E5.16628
G1 X153.49 Y142.627 E5.19046
G1 X153.439 Y143.564 E5.22167
G1 X153.307 Y144.492 E5.25285
G1 X153.098 Y145.406 E5.28403
G1 X152.811 Y146.299 E5.31523
G1 X152.449 Y147.165 E5.34645
G1 X152.015 Y147.996 E5.37763
G1 X151.511 Y148.787 E5.40883
G1 X150.942 Y149.532 E5.44001
G1 X150.311 Y150.227 E5.47123
G1 X149.624 Y150.865 E5.50241
G1 X148.885 Y151.442 E5.5336
G1 X148.099 Y151.954 E5.5648
G1 X147.273 Y152.397 E5.59597
G1 X146.411 Y152.769 E5.6272
G1 X145.522 Y153.065 E5.65836
G1 X144.61 Y153.285 E5.68956
G1 X143.683 Y153.426 E5.72075
G1 X142.799 Y153.487 E5.75022
G1 X142.478 Y153.496 E5.7609
G1 X142.17 Y153.5 E5.77115
G1 X78.065 Y153.499 E7.90329
G1 X77.367 Y153.49 E7.92651
G1 X76.431 Y153.438 E7.95769
G1 X75.502 Y153.306 E7.9889
G1 X74.588 Y153.096 E8.02009
G1 X73.695 Y152.809 E8.05128
G1 X72.83 Y152.446 E8.08249
G1 X71.999 Y152.012 E8.11367
G1 X71.208 Y151.508 E8.14486
G1 X70.463 Y150.938 E8.17606
G1 X69.769 Y150.307 E8.20726
G1 X69.132 Y149.62 E8.23842
G1 X68.555 Y148.88 E8.26963
G1 X68.043 Y148.094 E8.30083
G1 X67.6 Y147.267 E8.33203
G1 X67.229 Y146.406 E8.36322
G1 X66.933 Y145.516 E8.39441
G1 X66.714 Y144.604 E8.42561
G1 X66.573 Y143.677 E8.45679
G1 X66.513 Y142.788 E8.48643
G1 X66.504 Y142.455 E8.49751
G1 X66.5 Y142.158 E8.50739
G1 X66.501 Y78.025 E10.64046
G1 X66.51 Y77.36 E10.66258
G1 X66.563 Y76.424 E10.69376
G1 X66.695 Y75.495 E10.72497
G1 X66.906 Y74.581 E10.75617
G1 X67.194 Y73.689 E10.78735
G1 X67.557 Y72.824 E10.81855
G1 X67.992 Y71.993 E10.84974
G1 X68.496 Y71.203 E10.88091
G1 X69.066 Y70.458 E10.91211
G1 X69.698 Y69.764 E10.94333
G0 F6000 X70.089 Y69.939
G1 F1200 X70.774 Y69.323 E10.97397
G1 X71.51 Y68.77 E11.00459
G1 X72.291 Y68.282 E11.03522
G1 X73.111 Y67.864 E11.06583
G1 X73.965 Y67.519 E11.09647
G1 X74.845 Y67.249 E11.12708
G1 X75.745 Y67.057 E11.15769
G1 X76.659 Y66.943 E11.18833
G1 X77.212 Y66.913 E11.20675
G1 X77.533 Y66.904 E11.21743
G1 X77.83 Y66.9 E11.22731
G1 X141.793 Y66.9 E13.35472
G1 X142.643 Y66.911 E13.383
G1 X143.562 Y66.964 E13.41361
G1 X144.473 Y67.097 E13.44423
G1 X145.369 Y67.308 E13.47485
G1 X146.243 Y67.596 E13.50546
G1 X147.09 Y67.959 E13.53611
G1 X147.901 Y68.394 E13.56672
G1 X148.671 Y68.898 E13.59733
G1 X149.395 Y69.467 E13.62795
G1 X150.067 Y70.097 E13.65859
G1 X150.682 Y70.782 E13.68921
G1 X151.235 Y71.518 E13.71983
G1 X151.722 Y72.299 E13.75044
G1 X152.139 Y73.12 E13.78107
G1 X152.484 Y73.974 E13.8117
G1 X152.753 Y74.854 E13.84231
G1 X152.945 Y75.755 E13.87295
G1 X153.058 Y76.668 E13.90355
G1 X153.087 Y77.212 E13.92166
G1 X153.096 Y77.532 E13.93231
G1 X153.1 Y77.83 E13.94222
G1 X153.099 Y141.895 E16.07303
G1 X153.09 Y142.622 E16.09722
G1 X153.039 Y143.541 E16.12783
G1 X152.908 Y144.453 E16.15847
G1 X152.698 Y145.349 E16.18908
G1 X152.412 Y146.224 E16.2197
G1 X152.051 Y147.071 E16.25032
G1 X151.617 Y147.883 E16.28095
G1 X151.115 Y148.655 E16.31158
G1 X150.547 Y149.38 E16.34221
G1 X149.919 Y150.053 E16.37282
G1 X149.235 Y150.669 E16.40344
G1 X148.5 Y151.223 E16.43405
G1 X147.72 Y151.712 E16.46467
G1 X146.9 Y152.131 E16.4953
G1 X146.047 Y152.477 E16.52592
G1 X145.167 Y152.748 E16.55654
G1 X144.267 Y152.941 E16.58716
G1 X143.353 Y153.056 E16.61779
G1 X142.788 Y153.087 E16.63662
G1 X142.467 Y153.096 E16.6473
G1 X142.17 Y153.1 E16.65717
G1 X78.07 Y153.099 E18.78915
G1 X77.372 Y153.09 E18.81237
G1 X76.453 Y153.038 E18.84298
G1 X75.542 Y152.907 E18.87359
G1 X74.646 Y152.697 E18.9042
G1 X73.771 Y152.41 E18.93483
G1 X72.924 Y152.048 E18.96547
G1 X72.112 Y151.614 E18.99609
G1 X71.341 Y151.112 E19.02669
G1 X70.616 Y150.544 E19.05732
G1 X69.943 Y149.915 E19.08796
G1 X69.328 Y149.231 E19.11855
G1 X68.774 Y148.496 E19.14917
G1 X68.286 Y147.715 E19.1798
G1 X67.867 Y146.895 E19.21043
G1 X67.521 Y146.042 E19.24104
G1 X67.251 Y145.162 E19.27166
G1 X67.058 Y144.261 E19.3023
G1 X66.944 Y143.348 E19.33291
G1 X66.913 Y142.777 E19.35193
G1 X66.904 Y142.444 E19.36301
G1 X66.9 Y142.158 E19.37252
G1 X66.901 Y78.031 E21.50539
G1 X66.91 Y77.366 E21.52751
G1 X66.962 Y76.446 E21.55816
G1 X67.094 Y75.535 E21.58878
G1 X67.305 Y74.639 E21.61939
G1 X67.592 Y73.764 E21.65002
G1 X67.955 Y72.918 E21.68064
G1 X68.389 Y72.106 E21.71126
G1 X68.892 Y71.335 E21.74188
G1 X69.461 Y70.611 E21.77251
G1 X70.089 Y69.939 E21.8031
G0 F6000 X70.481 Y70.117
G1 F1200 X71.162 Y69.524 E21.83313
G1 X71.894 Y68.994 E21.86319
G1 X72.669 Y68.531 E21.89322
G1 X73.482 Y68.138 E21.92325
G1 X74.327 Y67.818 E21.9533
G1 X75.196 Y67.575 E21.98332
G1 X76.084 Y67.409 E22.01336
G1 X77.223 Y67.313 E22.05138
G1 X77.544 Y67.304 E22.06206
G1 X77.83 Y67.3 E22.07157
G1 X141.793 Y67.3 E24.19899
G1 X142.637 Y67.311 E24.22707
G1 X143.539 Y67.364 E24.25712
G1 X144.432 Y67.496 E24.28714
G1 X145.31 Y67.707 E24.31718
G1 X146.166 Y67.995 E24.34722
G1 X146.993 Y68.357 E24.37724
G1 X147.785 Y68.792 E24.40729
G1 X148.536 Y69.294 E24.43734
G1 X149.239 Y69.861 E24.46738
G1 X149.889 Y70.488 E24.49742
G1 X150.481 Y71.17 E24.52745
G1 X151.011 Y71.901 E24.55749
G1 X151.473 Y72.677 E24.58752
G1 X151.866 Y73.49 E24.61756
G1 X152.184 Y74.335 E24.64759
G1 X152.427 Y75.205 E24.67763
G1 X152.592 Y76.093 E24.70767
G1 X152.687 Y77.223 E24.74539
G1 X152.696 Y77.543 E24.75603
G1 X152.7 Y77.83 E24.76558
G1 X152.699 Y141.89 E26.89623
G1 X152.69 Y142.617 E26.92041
G1 X152.639 Y143.519 E26.95046
G1 X152.508 Y144.413 E26.98051
G1 X152.299 Y145.291 E27.01053
G1 X152.013 Y146.148 E27.04058
G1 X151.652 Y146.976 E27.07062
G1 X151.22 Y147.768 E27.10062
G1 X150.719 Y148.52 E27.13068
G1 X150.153 Y149.224 E27.16072
G1 X149.528 Y149.875 E27.19074
G1 X148.847 Y150.469 E27.22079
G1 X148.116 Y151 E27.25085
G1 X147.342 Y151.464 E27.28086
G1 X146.529 Y151.858 E27.31091
G1 X145.685 Y152.178 E27.34093
G1 X144.815 Y152.423 E27.37099
G1 X143.928 Y152.589 E27.40101
G1 X142.777 Y152.687 E27.43943
G1 X142.456 Y152.696 E27.45011
G1 X142.17 Y152.7 E27.45962
G1 X78.075 Y152.699 E29.59143
G1 X77.377 Y152.69 E29.61465
G1 X76.476 Y152.639 E29.64466
G1 X75.582 Y152.507 E29.67472
G1 X74.704 Y152.298 E29.70474
G1 X73.847 Y152.011 E29.7348
G1 X73.02 Y151.65 E29.76481
G1 X72.227 Y151.217 E29.79486
G1 X71.476 Y150.716 E29.82489
G1 X70.772 Y150.15 E29.85493
G1 X70.121 Y149.524 E29.88497
G1 X69.528 Y148.843 E29.915
G1 X68.998 Y148.112 E29.94504
G1 X68.534 Y147.337 E29.97508
G1 X68.14 Y146.524 E30.00513
G1 X67.82 Y145.68 E30.03515
G1 X67.576 Y144.81 E30.0652
G1 X67.41 Y143.922 E30.09525
G1 X67.313 Y142.767 E30.1338
G1 X67.304 Y142.434 E30.14488
G1 X67.3 Y142.158 E30.15406
G1 X67.301 Y78.036 E32.28677
G1 X67.31 Y77.371 E32.30889
G1 X67.362 Y76.469 E32.33894
G1 X67.494 Y75.576 E32.36896
G1 X67.704 Y74.698 E32.39899
G1 X67.991 Y73.841 E32.42905
G1 X68.353 Y73.014 E32.45907
G1 X68.786 Y72.222 E32.48909
G1 X69.288 Y71.471 E32.51914
G1 X69.855 Y70.767 E32.5492
G1 X70.481 Y70.117 E32.57922
G1 F1500 E26.07922
;MESH:3D_printer_test_mini.STL
G0 F6000 X77.92 Y76.835
G0 X77.92 Y77.92
G0 X141.718 Y78.282
G0 X141.9 Y141.9
;TYPE:WALL-INNER
G1 F1500 E32.57922
G1 F1200 X78.1 Y141.9 E34.70122
G1 X78.1 Y78.1 E36.82321
G1 X141.9 Y78.1 E38.94521
G1 X141.9 Y141.9 E41.0672
G0 F6000 X142.3 Y142.3
;TYPE:WALL-OUTER
G1 F1200 X77.7 Y142.3 E43.21581
G1 X77.7 Y77.7 E45.36441
G1 X142.3 Y77.7 E47.51302
G1 X142.3 Y142.3 E49.66162
G0 F6000 X142.03 Y142.03
G0 X141.79 Y141.51
G0 X141.51 Y141.51
;TYPE:SKIN
G1 F1200 X78.49 Y141.51 E51.75768
G1 X78.49 Y78.49 E53.85373
G1 X141.51 Y78.49 E55.94978
G1 X141.51 Y141.51 E58.04584
G1 F1500 E51.54584
G0 F6000 X141.79 Y141.51
G0 X141.79 Y79.124
G0 X141.349 Y79.124
G1 F1500 E58.04584
G1 F1200 X140.875 Y78.65 E58.06813
G0 F6000 X140.309 Y78.65
G1 F1200 X141.349 Y79.69 E58.11705
G0 F6000 X141.349 Y80.255
G1 F1200 X139.744 Y78.65 E58.19255
G0 F6000 X139.178 Y78.65
G1 F1200 X141.349 Y80.821 E58.29466
G0 F6000 X141.349 Y81.387
G1 F1200 X138.612 Y78.65 E58.4234
G0 F6000 X138.047 Y78.65
G1 F1200 X141.349 Y81.952 E58.57872
G0 F6000 X141.349 Y82.518
G1 F1200 X137.481 Y78.65 E58.76066
G0 F6000 X136.915 Y78.65
G1 F1200 X141.349 Y83.084 E58.96922
G0 F6000 X141.349 Y83.65
G1 F1200 X136.349 Y78.65 E59.20441
G0 F6000 X135.784 Y78.65
G1 F1200 X141.349 Y84.215 E59.46617
G0 F6000 X141.349 Y84.781
G1 F1200 X135.218 Y78.65 E59.75455
G0 F6000 X134.652 Y78.65
G1 F1200 X141.349 Y85.347 E60.06956
G0 F6000 X141.349 Y85.912
G1 F1200 X134.087 Y78.65 E60.41114
G0 F6000 X133.521 Y78.65
G1 F1200 X141.349 Y86.478 E60.77934
G0 F6000 X141.349 Y87.044
G1 F1200 X132.955 Y78.65 E61.17417
G0 F6000 X132.39 Y78.65
G1 F1200 X141.349 Y87.609 E61.59557
G0 F6000 X141.349 Y88.175
G1 F1200 X131.824 Y78.65 E62.0436
G0 F6000 X131.258 Y78.65
G1 F1200 X141.349 Y88.741 E62.51825
G0 F6000 X141.349 Y89.306
G1 F1200 X130.693 Y78.65 E63.01948
G0 F6000 X130.127 Y78.65
G1 F1200 X141.349 Y89.872 E63.54733
G0 F6000 X141.349 Y90.438
G1 F1200 X129.561 Y78.65 E64.1018
G0 F6000 X128.996 Y78.65
G1 F1200 X141.349 Y91.003 E64.68284
G0 F6000 X141.349 Y91.569
G1 F1200 X128.43 Y78.65 E65.29051
G0 F6000 X127.864 Y78.65
G1 F1200 X141.349 Y92.135 E65.92481
G0 F6000 X141.349 Y92.7
G1 F1200 X127.299 Y78.65 E66.58568
G0 F6000 X126.733 Y78.65
G1 F1200 X141.349 Y93.266 E67.27317
G0 F6000 X141.349 Y93.832
G1 F1200 X126.167 Y78.65 E67.98728
G0 F6000 X125.601 Y78.65
G1 F1200 X141.349 Y94.398 E68.72802
G0 F6000 X141.349 Y94.963
G1 F1200 X125.036 Y78.65 E69.49533
G0 F6000 X124.47 Y78.65
G1 F1200 X141.349 Y95.529 E70.28927
G0 F6000 X141.349 Y96.095
G1 F1200 X123.904 Y78.65 E71.10983
G0 F6000 X123.339 Y78.65
G1 F1200 X141.349 Y96.66 E71.95696
G0 F6000 X141.349 Y97.226
G1 F1200 X122.773 Y78.65 E72.83072
G0 F6000 X122.207 Y78.65
G1 F1200 X141.349 Y97.792 E73.7311
G0 F6000 X141.349 Y98.357
G1 F1200 X121.642 Y78.65 E74.65806
G0 F6000 X121.076 Y78.65
G1 F1200 X141.349 Y98.923 E75.61164
G0 F6000 X141.349 Y99.489
G1 F1200 X120.51 Y78.65 E76.59184
G0 F6000 X119.945 Y78.65
G1 F1200 X141.349 Y100.054 E77.59862
G0 F6000 X141.349 Y100.62
G1 F1200 X119.379 Y78.65 E78.63202
G0 F6000 X118.813 Y78.65
G1 F1200 X141.349 Y101.186 E79.69205
G0 F6000 X141.349 Y101.751
G1 F1200 X118.248 Y78.65 E80.77865
G0 F6000 X117.682 Y78.65
G1 F1200 X141.349 Y102.317 E81.89187
G0 F6000 X141.349 Y102.883
G1 F1200 X117.116 Y78.65 E83.03172
G0 F6000 X116.55 Y78.65
G1 F1200 X141.349 Y103.449 E84.19819
G0 F6000 X141.349 Y104.014
G1 F1200 X115.985 Y78.65 E85.39123
G0 F6000 X115.419 Y78.65
G1 F1200 X141.349 Y104.58 E86.6109
G0 F6000 X141.349 Y105.146
G1 F1200 X114.853 Y78.65 E87.85719
G0 F6000 X114.288 Y78.65
G1 F1200 X141.349 Y105.711 E89.13006
G0 F6000 X141.349 Y106.277
G1 F1200 X113.722 Y78.65 E90.42954
G0 F6000 X113.156 Y78.65
G1 F1200 X141.349 Y106.843 E91.75566
G0 F6000 X141.349 Y107.408
G1 F1200 X112.591 Y78.65 E93.10835
G0 F6000 X112.025 Y78.65
G1 F1200 X141.349 Y107.974 E94.48766
G0 F6000 X141.349 Y108.54
G1 F1200 X111.459 Y78.65 E95.89359
G0 F6000 X110.894 Y78.65
G1 F1200 X141.349 Y109.105 E97.3261
G0 F6000 X141.349 Y109.671
G1 F1200 X110.328 Y78.65 E98.78523
G0 F6000 X109.762 Y78.65
G1 F1200 X141.349 Y110.237 E100.27099
G0 F6000 X141.349 Y110.802
G1 F1200 X109.197 Y78.65 E101.78332
G0 F6000 X108.631 Y78.65
G1 F1200 X141.349 Y111.368 E103.32227
G0 F6000 X141.349 Y111.934
G1 F1200 X108.065 Y78.65 E104.88785
G0 F6000 X107.5 Y78.65
G1 F1200 X141.349 Y112.499 E106.48
G0 F6000 X141.349 Y113.065
G1 F1200 X106.934 Y78.65 E108.09878
G0 F6000 X106.368 Y78.65
G1 F1200 X141.349 Y113.631 E109.74418
G0 F6000 X141.349 Y114.197
G1 F1200 X105.802 Y78.65 E111.4162
G0 F6000 X105.237 Y78.65
G1 F1200 X141.349 Y114.762 E113.1148
G0 F6000 X141.349 Y115.328
G1 F1200 X104.671 Y78.65 E114.84002
G0 F6000 X104.105 Y78.65
G1 F1200 X141.349 Y115.894 E116.59186
G0 F6000 X141.349 Y116.459
G1 F1200 X103.54 Y78.65 E118.37028
G0 F6000 X102.974 Y78.65
G1 F1200 X141.349 Y117.025 E120.17533
G0 F6000 X141.349 Y117.591
G1 F1200 X102.408 Y78.65 E122.00699
G0 F6000 X101.843 Y78.65
G1 F1200 X141.349 Y118.156 E123.86523
G0 F6000 X141.349 Y118.722
G1 F1200 X101.277 Y78.65 E125.7501
G0 F6000 X100.711 Y78.65
G1 F1200 X141.349 Y119.288 E127.66158
G0 F6000 X141.349 Y119.853
G1 F1200 X100.146 Y78.65 E129.59965
G0 F6000 X99.58 Y78.65
G1 F1200 X141.349 Y120.419 E131.56433
G0 F6000 X141.349 Y120.985
G1 F1200 X99.014 Y78.65 E133.55564
G0 F6000 X98.449 Y78.65
G1 F1200 X141.349 Y121.55 E135.57352
G0 F6000 X141.349 Y122.116
G1 F1200 X97.883 Y78.65 E137.61803
G0 F6000 X97.317 Y78.65
G1 F1200 X141.349 Y122.682 E139.68916
G0 F6000 X141.349 Y123.248
G1 F1200 X96.752 Y78.65 E141.78689
G0 F6000 X96.186 Y78.65
G1 F1200 X141.349 Y123.813 E143.91122
G0 F6000 X141.349 Y124.379
G1 F1200 X95.62 Y78.65 E146.06217
G0 F6000 X95.054 Y78.65
G1 F1200 X141.349 Y124.945 E148.23975
G0 F6000 X141.349 Y125.51
G1 F1200 X94.489 Y78.65 E150.4439
G0 F6000 X93.923 Y78.65
G1 F1200 X141.349 Y126.076 E152.67467
G0 F6000 X141.349 Y126.642
G1 F1200 X93.357 Y78.65 E154.93207
G0 F6000 X92.792 Y78.65
G1 F1200 X141.349 Y127.207 E157.21604
G0 F6000 X141.349 Y127.773
G1 F1200 X92.226 Y78.65 E159.52664
G0 F6000 X91.66 Y78.65
G1 F1200 X141.349 Y128.339 E161.86385
G0 F6000 X141.349 Y128.904
G1 F1200 X91.095 Y78.65 E164.22765
G0 F6000 X90.529 Y78.65
G1 F1200 X141.349 Y129.47 E166.61807
G0 F6000 X141.349 Y130.036
G1 F1200 X89.963 Y78.65 E169.03511
G0 F6000 X89.398 Y78.65
G1 F1200 X141.349 Y130.601 E171.47872
G0 F6000 X141.349 Y131.167
G1 F1200 X88.832 Y78.65 E173.94896
G0 F6000 X88.266 Y78.65
G1 F1200 X141.349 Y131.733 E176.44582
G0 F6000 X141.349 Y132.298
G1 F1200 X87.701 Y78.65 E178.96926
G0 F6000 X87.135 Y78.65
G1 F1200 X141.349 Y132.864 E181.51932
G0 F6000 X141.349 Y133.43
G1 F1200 X86.569 Y78.65 E184.096
G0 F6000 X86.003 Y78.65
G1 F1200 X141.349 Y133.996 E186.69931
G0 F6000 X141.349 Y134.561
G1 F1200 X85.438 Y78.65 E189.32919
G0 F6000 X84.872 Y78.65
G1 F1200 X141.349 Y135.127 E191.9857
G0 F6000 X141.349 Y135.693
G1 F1200 X84.306 Y78.65 E194.66882
G0 F6000 X83.741 Y78.65
G1 F1200 X141.349 Y136.258 E197.37853
G0 F6000 X141.349 Y136.824
G1 F1200 X83.175 Y78.65 E200.11485
G0 F6000 X82.609 Y78.65
G1 F1200 X141.349 Y137.39 E202.8778
G0 F6000 X141.349 Y137.955
G1 F1200 X82.044 Y78.65 E205.66733
G0 F6000 X81.478 Y78.65
