;FLAVOR:Marlin
;TIME:6258
;Filament used: 4.36721m
;Layer height: 0.2
;MINX:92.829
;MINY:77.911
;MINZ:0.2
;MAXX:157.007
;MAXY:142.088
;MAXZ:32
;Generated with Cura_SteamEngine 4.9.0
M82 ;absolute extrusion mode
; Ender 3 Custom Start G-code
M117 Warming Print Bed
M140 S80 ; Set Heat Bed temperature
M190 S80 ; Wait for Heat Bed temperature
M104 S160; start warming extruder to 160
M117 Homing all axes
G28 ; Home all axes
M117 Beginning Bed Leveling
G29 ; Auto bed-level (BL-Touch)
G92 E0 ; Reset Extruder
M117 Warming Extruder
M104 S200 ; Set Extruder temperature
G1 X0.1 Y20 Z0.3 F5000.0 ; Move to start position
M109 S200 ; Wait for Extruder temperature
; G1 Z2.0 F3000 ; Move Z Axis up little to prevent scratching of Heat Bed
G1 X0.1 Y200.0 Z0.3 F1500.0 E15 ; Draw the first line
G1 X0.4 Y200.0 Z0.3 F5000.0 ; Move to side a little
G1 X0.4 Y20 Z0.3 F1500.0 E30 ; Draw the second line
G92 E0 ; Reset Extruder
G1 Z2.0 F3000 ; Move Z Axis up little to prevent scratching of Heat Bed
; End of custom start GCode
G92 E0
G92 E0
G1 F2100 E-5
;LAYER_COUNT:160
;LAYER:0
M107
G0 F6000 X100.874 Y88.76 Z0.2
;TYPE:SKIRT
G1 F2100 E0
G1 F2400 X101.46 Y88.112 E0.02296
G1 X101.744 Y87.81 E0.03386
G1 X102.372 Y87.166 E0.05749
G1 X102.706 Y86.838 E0.0698
G1 X102.912 Y86.644 E0.07723
G1 X103.128 Y86.446 E0.08493
G1 X103.957 Y85.706 E0.11414
G1 X104.212 Y85.485 E0.12301
G1 X104.541 Y85.209 E0.13429
G1 X104.916 Y84.908 E0.14693
G1 X105.637 Y84.355 E0.17081
G1 X105.969 Y84.11 E0.18165
G1 X106.691 Y83.598 E0.20491
G1 X107.03 Y83.367 E0.21569
G1 X107.684 Y82.939 E0.23623
G1 X108.037 Y82.717 E0.24719
G1 X108.78 Y82.27 E0.26998
G1 X109.113 Y82.078 E0.28008
G1 X109.677 Y81.765 E0.29703
G1 X110.021 Y81.582 E0.30727
G1 X110.812 Y81.179 E0.3306
G1 X111.089 Y81.043 E0.33871
G1 X111.445 Y80.874 E0.34907
G1 X111.911 Y80.665 E0.36249
G1 X112.849 Y80.272 E0.38922
G1 X113.221 Y80.125 E0.39973
G1 X114.033 Y79.819 E0.42254
G1 X114.424 Y79.68 E0.43344
G1 X115.097 Y79.455 E0.45209
G1 X115.47 Y79.337 E0.46237
G1 X116.161 Y79.133 E0.48131
G1 X116.595 Y79.015 E0.49313
G1 X117.55 Y78.775 E0.519
G1 X117.919 Y78.689 E0.52896
G1 X118.575 Y78.548 E0.54659
G1 X118.964 Y78.471 E0.55702
G1 X119.91 Y78.303 E0.58227
G1 X120.199 Y78.256 E0.58996
G1 X120.432 Y78.221 E0.59615
G1 X120.935 Y78.157 E0.60948
G1 X121.97 Y78.05 E0.63682
G1 X122.364 Y78.017 E0.64721
G1 X123.406 Y77.947 E0.67466
G1 X123.737 Y77.929 E0.68337
G1 X124.035 Y77.918 E0.69121
G1 X124.523 Y77.911 E0.70403
G1 X125.459 Y77.918 E0.72863
G1 X125.896 Y77.93 E0.74012
G1 X126.912 Y77.978 E0.76685
G1 X127.311 Y78.004 E0.77736
G1 X127.956 Y78.058 E0.79437
G1 X128.353 Y78.099 E0.80486
G1 X129.15 Y78.195 E0.82596
G1 X129.547 Y78.25 E0.83649
G1 X130.353 Y78.377 E0.85793
G1 X130.726 Y78.443 E0.86789
G1 X131.363 Y78.566 E0.88494
G1 X131.772 Y78.652 E0.89592
G1 X132.528 Y78.828 E0.91632
G1 X132.913 Y78.926 E0.92676
G1 X133.691 Y79.137 E0.94795
G1 X134.076 Y79.249 E0.95848
G1 X134.755 Y79.46 E0.97717
G1 X135.153 Y79.592 E0.98819
G1 X136.031 Y79.902 E1.01266
G1 X136.411 Y80.044 E1.02332
G1 X137.064 Y80.302 E1.04177
G1 X137.449 Y80.462 E1.05273
G1 X138.211 Y80.797 E1.0746
G1 X138.564 Y80.96 E1.08482
G1 X139.449 Y81.387 E1.11065
G1 X139.77 Y81.548 E1.12008
G1 X140.261 Y81.813 E1.13475
G1 X141.307 Y82.414 E1.16645
G1 X141.678 Y82.637 E1.17783
G1 X142.302 Y83.029 E1.19719
G1 X142.62 Y83.237 E1.20718
G1 X143.209 Y83.636 E1.22587
G1 X143.532 Y83.863 E1.23625
G1 X144.142 Y84.309 E1.25611
G1 X144.496 Y84.579 E1.26781
G1 X145.321 Y85.235 E1.29551
G1 X145.637 Y85.496 E1.30628
G1 X146.27 Y86.039 E1.3282
G1 X146.598 Y86.332 E1.33976
G1 X146.797 Y86.517 E1.3469
G1 X147.036 Y86.746 E1.35559
G1 X147.674 Y87.376 E1.37916
G1 X147.928 Y87.635 E1.38869
G1 X148.476 Y88.213 E1.40962
G1 X148.771 Y88.537 E1.42114
G1 X149.325 Y89.17 E1.44325
G1 X149.59 Y89.484 E1.45404
G1 X150.097 Y90.109 E1.47519
G1 X150.354 Y90.439 E1.48619
G1 X150.888 Y91.151 E1.50958
G1 X151.133 Y91.49 E1.52057
G1 X151.666 Y92.26 E1.54518
G1 X151.89 Y92.597 E1.55581
G1 X151.975 Y92.73 E1.55996
G1 X152.168 Y93.044 E1.56965
G1 X152.857 Y94.206 E1.60515
G1 X153.053 Y94.552 E1.6156
G1 X153.18 Y94.785 E1.62257
G1 X153.373 Y95.154 E1.63352
G1 X153.77 Y95.953 E1.65697
G1 X153.948 Y96.33 E1.66792
G1 X154.376 Y97.28 E1.6953
G1 X154.531 Y97.641 E1.70563
G1 X154.751 Y98.18 E1.72093
G1 X154.894 Y98.549 E1.73133
G1 X155.245 Y99.506 E1.75812
G1 X155.368 Y99.859 E1.76794
G1 X155.463 Y100.148 E1.77594
G1 X155.597 Y100.587 E1.788
G1 X155.948 Y101.827 E1.82187
G1 X156.056 Y102.238 E1.83303
G1 X156.255 Y103.061 E1.85529
G1 X156.347 Y103.479 E1.86653
G1 X156.39 Y103.693 E1.87227
G1 X156.454 Y104.036 E1.88144
G1 X156.659 Y105.255 E1.91393
G1 X156.706 Y105.565 E1.92217
G1 X156.747 Y105.86 E1.92999
G1 X156.803 Y106.342 E1.94275
G1 X156.893 Y107.297 E1.96795
G1 X156.925 Y107.721 E1.97913
G1 X156.979 Y108.696 E2.00479
G1 X156.994 Y109.102 E2.01547
G1 X157.007 Y109.81 E2.03408
G1 X157.007 Y110.204 E2.04443
G1 X156.99 Y111.178 E2.07003
G1 X156.973 Y111.641 E2.08221
G1 X156.933 Y112.312 E2.09987
G1 X156.907 Y112.657 E2.10897
G1 X156.855 Y113.193 E2.12312
G1 X156.821 Y113.498 E2.13118
G1 X156.699 Y114.449 E2.15638
G1 X156.641 Y114.839 E2.16674
G1 X156.53 Y115.512 E2.18467
G1 X156.455 Y115.921 E2.1956
G1 X156.25 Y116.926 E2.22255
G1 X156.163 Y117.316 E2.23305
G1 X156.047 Y117.795 E2.24601
G1 X155.942 Y118.195 E2.25687
G1 X155.676 Y119.137 E2.2826
G1 X155.554 Y119.541 E2.29369
G1 X155.305 Y120.309 E2.31491
G1 X155.179 Y120.675 E2.32508
G1 X154.959 Y121.28 E2.342
G1 X154.818 Y121.646 E2.35231
G1 X154.39 Y122.704 E2.3823
G1 X154.187 Y123.174 E2.39575
G1 X154.016 Y123.537 E2.4063
G1 X153.45 Y124.683 E2.43989
G1 X153.271 Y125.028 E2.4501
G1 X153.034 Y125.468 E2.46324
G1 X152.839 Y125.816 E2.47372
G1 X152.428 Y126.517 E2.49508
G1 X152.202 Y126.886 E2.50645
G1 X151.632 Y127.776 E2.53422
G1 X151.397 Y128.128 E2.54535
G1 X151.083 Y128.579 E2.55979
G1 X150.881 Y128.86 E2.56888
G1 X150.268 Y129.684 E2.59587
G1 X149.959 Y130.079 E2.60905
G1 X149.78 Y130.298 E2.61649
G1 X149.57 Y130.548 E2.62507
G1 X148.761 Y131.48 E2.6575
G1 X148.537 Y131.73 E2.66632
G1 X148.321 Y131.964 E2.67469
G1 X147.989 Y132.308 E2.68725
G1 X147.257 Y133.035 E2.71437
G1 X146.98 Y133.301 E2.72446
G1 X146.426 Y133.814 E2.7443
G1 X146.096 Y134.108 E2.75592
G1 X145.459 Y134.652 E2.77793
G1 X145.154 Y134.902 E2.7883
G1 X144.339 Y135.549 E2.81564
G1 X143.959 Y135.838 E2.82819
G1 X143.817 Y135.941 E2.8328
G1 X143.567 Y136.117 E2.84083
G1 X142.517 Y136.835 E2.87426
G1 X142.262 Y137.004 E2.8823
G1 X142.029 Y137.154 E2.88959
G1 X141.591 Y137.422 E2.90308
G1 X140.687 Y137.946 E2.93054
G1 X140.335 Y138.142 E2.94113
G1 X139.656 Y138.503 E2.96134
G1 X139.304 Y138.682 E2.97172
G1 X138.64 Y139.005 E2.99112
G1 X138.253 Y139.184 E3.00233
G1 X137.338 Y139.586 E3.02859
G1 X136.975 Y139.737 E3.03892
G1 X136.517 Y139.919 E3.05188
G1 X136.153 Y140.057 E3.06211
G1 X135.052 Y140.45 E3.09283
G1 X134.6 Y140.6 E3.10534
G1 X134.111 Y140.751 E3.11879
G1 X133.832 Y140.833 E3.12644
G1 X133.375 Y140.961 E3.13891
G1 X132.92 Y141.078 E3.15126
G1 X131.897 Y141.318 E3.17887
G1 X131.536 Y141.397 E3.18858
G1 X130.859 Y141.532 E3.20672
G1 X130.434 Y141.608 E3.21807
G1 X129.603 Y141.74 E3.24018
G1 X129.202 Y141.796 E3.25082
G1 X128.279 Y141.908 E3.27526
G1 X127.859 Y141.951 E3.28635
G1 X127.229 Y142.003 E3.30297
G1 X126.823 Y142.029 E3.31366
G1 X125.876 Y142.072 E3.33857
G1 X125.47 Y142.083 E3.34924
G1 X124.876 Y142.088 E3.36486
G1 X124.516 Y142.085 E3.37432
G1 X123.815 Y142.068 E3.39274
G1 X123.408 Y142.05 E3.40345
G1 X122.594 Y142 E3.42488
G1 X122.189 Y141.968 E3.43556
G1 X121.367 Y141.887 E3.45727
G1 X120.939 Y141.836 E3.46859
G1 X120.129 Y141.724 E3.49008
G1 X119.714 Y141.659 E3.50112
G1 X118.925 Y141.519 E3.52218
G1 X118.553 Y141.446 E3.53215
G1 X117.798 Y141.285 E3.55243
G1 X117.389 Y141.19 E3.56347
G1 X116.391 Y140.937 E3.59053
G1 X115.949 Y140.815 E3.60258
G1 X115.768 Y140.761 E3.60754
G1 X115.443 Y140.658 E3.6165
G1 X114.393 Y140.309 E3.64558
G1 X114.036 Y140.184 E3.65552
G1 X113.462 Y139.971 E3.67161
G1 X113.069 Y139.816 E3.68271
G1 X112.212 Y139.46 E3.7071
G1 X111.842 Y139.299 E3.7177
G1 X111.267 Y139.035 E3.73433
G1 X110.917 Y138.866 E3.74455
G1 X109.954 Y138.382 E3.77287
G1 X109.642 Y138.219 E3.78212
G1 X109.239 Y138 E3.79417
G1 X108.879 Y137.796 E3.80505
G1 X108.294 Y137.449 E3.82292
G1 X107.901 Y137.204 E3.83509
G1 X106.842 Y136.514 E3.86831
G1 X106.445 Y136.243 E3.88094
G1 X106.248 Y136.102 E3.88731
G1 X105.996 Y135.916 E3.89554
G1 X105.268 Y135.363 E3.91957
G1 X104.951 Y135.113 E3.93018
G1 X104.304 Y134.583 E3.95216
G1 X104.004 Y134.328 E3.96251
G1 X103.391 Y133.788 E3.98397
G1 X103.072 Y133.496 E3.99534
G1 X102.515 Y132.965 E4.01556
G1 X102.22 Y132.673 E4.02647
G1 X101.579 Y132.014 E4.05063
G1 X101.308 Y131.725 E4.06104
G1 X100.717 Y131.072 E4.08419
G1 X100.458 Y130.775 E4.09455
G1 X100.293 Y130.579 E4.10128
G1 X100.047 Y130.276 E4.11154
G1 X99.459 Y129.525 E4.1366
G1 X99.227 Y129.218 E4.14671
G1 X98.764 Y128.582 E4.16739
G1 X98.519 Y128.231 E4.17864
G1 X98.052 Y127.534 E4.20069
G1 X97.832 Y127.193 E4.21135
G1 X97.418 Y126.523 E4.23205
G1 X97.199 Y126.152 E4.24337
G1 X96.777 Y125.405 E4.26592
G1 X96.594 Y125.067 E4.27602
G1 X96.133 Y124.18 E4.30229
G1 X95.964 Y123.843 E4.3122
G1 X95.759 Y123.394 E4.32517
G1 X95.174 Y122.038 E4.36398
G1 X94.995 Y121.597 E4.37649
G1 X94.939 Y121.45 E4.38062
G1 X94.826 Y121.141 E4.38927
G1 X94.482 Y120.15 E4.41684
G1 X94.35 Y119.743 E4.42808
G1 X94.128 Y119.013 E4.44813
G1 X94.018 Y118.626 E4.45871
G1 X93.808 Y117.832 E4.48029
G1 X93.717 Y117.462 E4.49031
G1 X93.553 Y116.742 E4.50971
G1 X93.466 Y116.324 E4.52093
G1 X93.313 Y115.507 E4.54278
G1 X93.243 Y115.089 E4.55391
G1 X93.108 Y114.175 E4.5782
G1 X93.056 Y113.767 E4.589
G1 X92.964 Y112.928 E4.61119
G1 X92.931 Y112.582 E4.62032
G1 X92.91 Y112.312 E4.62744
G1 X92.885 Y111.89 E4.63855
G1 X92.842 Y110.793 E4.6674
G1 X92.834 Y110.464 E4.67605
G1 X92.829 Y109.925 E4.69021
G1 X92.836 Y109.429 E4.70325
G1 X92.868 Y108.537 E4.72671
G1 X92.89 Y108.136 E4.73726
G1 X92.95 Y107.308 E4.75908
G1 X92.986 Y106.905 E4.76971
G1 X93.075 Y106.093 E4.79118
G1 X93.13 Y105.669 E4.80241
G1 X93.246 Y104.891 E4.82309
G1 X93.313 Y104.495 E4.83364
G1 X93.458 Y103.718 E4.85441
G1 X93.538 Y103.328 E4.86488
G1 X93.702 Y102.597 E4.88456
G1 X93.793 Y102.221 E4.89473
G1 X94.03 Y101.315 E4.91934
G1 X94.108 Y101.033 E4.92703
G1 X94.191 Y100.747 E4.93486
G1 X94.346 Y100.255 E4.94841
G1 X94.682 Y99.272 E4.97572
G1 X94.811 Y98.915 E4.98569
G1 X95.07 Y98.235 E5.00481
G1 X95.234 Y97.83 E5.0163
G1 X95.579 Y97.022 E5.03939
G1 X95.745 Y96.653 E5.05002
G1 X96.073 Y95.957 E5.07024
G1 X96.26 Y95.577 E5.08137
G1 X96.652 Y94.822 E5.10373
G1 X96.841 Y94.475 E5.11411
G1 X97.332 Y93.607 E5.14032
G1 X97.613 Y93.137 E5.15471
G1 X97.784 Y92.871 E5.16302
G1 X98.489 Y91.812 E5.19645
G1 X98.718 Y91.483 E5.20699
G1 X99.175 Y90.848 E5.22755
G1 X99.363 Y90.594 E5.23585
G1 X99.593 Y90.293 E5.24581
G1 X99.949 Y89.851 E5.26072
G1 X100.135 Y89.632 E5.26828
G1 X100.593 Y89.084 E5.28704
G1 X100.874 Y88.76 E5.29832
G0 F6000 X101.171 Y89.028
G1 F2400 X101.757 Y88.38 E5.32128
G1 X102.03 Y88.09 E5.33174
G1 X102.658 Y87.446 E5.35538
G1 X102.98 Y87.129 E5.36726
G1 X103.186 Y86.935 E5.37469
G1 X103.394 Y86.744 E5.38212
G1 X104.223 Y86.004 E5.41132
G1 X104.469 Y85.791 E5.41987
G1 X104.798 Y85.515 E5.43116
G1 X105.16 Y85.225 E5.44335
G1 X105.881 Y84.672 E5.46723
G1 X106.2 Y84.436 E5.47765
G1 X106.922 Y83.924 E5.50091
G1 X107.25 Y83.702 E5.51132
G1 X107.904 Y83.274 E5.53186
G1 X108.244 Y83.06 E5.54242
G1 X108.987 Y82.613 E5.56521
G1 X109.307 Y82.428 E5.57492
G1 X109.871 Y82.115 E5.59188
G1 X110.203 Y81.938 E5.60176
G1 X110.994 Y81.535 E5.62509
G1 X111.26 Y81.404 E5.63289
G1 X111.616 Y81.235 E5.64324
G1 X112.066 Y81.034 E5.65619
G1 X113.004 Y80.641 E5.68292
G1 X113.362 Y80.499 E5.69304
G1 X114.174 Y80.193 E5.71585
G1 X114.551 Y80.059 E5.72636
G1 X115.224 Y79.834 E5.74501
G1 X115.584 Y79.721 E5.75493
G1 X116.275 Y79.517 E5.77386
G1 X116.692 Y79.403 E5.78522
G1 X117.647 Y79.163 E5.8111
G1 X118.004 Y79.08 E5.82073
G1 X118.66 Y78.939 E5.83837
G1 X119.034 Y78.865 E5.84839
G1 X119.98 Y78.697 E5.87364
G1 X120.258 Y78.652 E5.88104
G1 X120.491 Y78.617 E5.88723
G1 X120.976 Y78.555 E5.90008
G1 X122.011 Y78.448 E5.92742
G1 X122.391 Y78.416 E5.93745
G1 X123.433 Y78.346 E5.96489
G1 X123.752 Y78.329 E5.97329
G1 X124.05 Y78.318 E5.98112
G1 X124.52 Y78.311 E5.99348
G1 X125.456 Y78.318 E6.01808
G1 X125.877 Y78.33 E6.02914
G1 X126.893 Y78.378 E6.05587
G1 X127.277 Y78.403 E6.06599
G1 X127.922 Y78.457 E6.083
G1 X128.306 Y78.496 E6.09314
G1 X129.103 Y78.592 E6.11424
G1 X129.485 Y78.645 E6.12437
G1 X130.291 Y78.772 E6.14582
G1 X130.651 Y78.835 E6.15542
G1 X131.288 Y78.958 E6.17247
G1 X131.681 Y79.042 E6.18303
G1 X132.437 Y79.218 E6.20343
G1 X132.809 Y79.312 E6.21351
G1 X133.587 Y79.523 E6.2347
G1 X133.958 Y79.63 E6.24485
G1 X134.637 Y79.841 E6.26353
G1 X135.02 Y79.969 E6.27415
G1 X135.898 Y80.279 E6.29862
G1 X136.264 Y80.416 E6.30889
G1 X136.917 Y80.674 E6.32734
G1 X137.288 Y80.828 E6.33789
G1 X138.05 Y81.163 E6.35977
G1 X138.39 Y81.32 E6.36961
G1 X139.275 Y81.747 E6.39544
G1 X139.589 Y81.904 E6.40466
G1 X140.062 Y82.16 E6.4188
G1 X141.108 Y82.761 E6.4505
G1 X141.466 Y82.976 E6.46147
G1 X142.09 Y83.368 E6.48084
G1 X142.396 Y83.568 E6.49045
G1 X142.985 Y83.967 E6.50914
G1 X143.296 Y84.186 E6.51914
G1 X143.906 Y84.632 E6.539
G1 X144.247 Y84.892 E6.55027
G1 X145.072 Y85.548 E6.57797
G1 X145.377 Y85.8 E6.58837
G1 X146.01 Y86.343 E6.61028
G1 X146.325 Y86.625 E6.62139
G1 X146.524 Y86.81 E6.62853
G1 X146.755 Y87.031 E6.63694
G1 X147.393 Y87.661 E6.6605
G1 X147.637 Y87.91 E6.66966
G1 X148.185 Y88.488 E6.69059
G1 X148.47 Y88.8 E6.7017
G1 X149.024 Y89.433 E6.72381
G1 X149.279 Y89.736 E6.73421
G1 X149.786 Y90.361 E6.75536
G1 X150.034 Y90.679 E6.76596
G1 X150.568 Y91.391 E6.78935
G1 X150.804 Y91.718 E6.79995
G1 X151.337 Y92.488 E6.82456
G1 X151.553 Y92.813 E6.83481
G1 X151.638 Y92.946 E6.83896
G1 X151.824 Y93.248 E6.84828
G1 X152.513 Y94.41 E6.88379
G1 X152.702 Y94.743 E6.89385
G1 X152.829 Y94.976 E6.90082
G1 X153.015 Y95.332 E6.91138
G1 X153.412 Y96.131 E6.93483
G1 X153.583 Y96.494 E6.94537
G1 X154.011 Y97.444 E6.97275
G1 X154.161 Y97.792 E6.98271
G1 X154.381 Y98.331 E6.99801
G1 X154.519 Y98.687 E7.00805
G1 X154.87 Y99.644 E7.03484
G1 X154.988 Y99.984 E7.04429
G1 X155.083 Y100.273 E7.05229
G1 X155.212 Y100.696 E7.06391
G1 X155.563 Y101.936 E7.09778
G1 X155.667 Y102.332 E7.10854
G1 X155.866 Y103.155 E7.13079
G1 X155.955 Y103.558 E7.14164
G1 X155.998 Y103.772 E7.14737
G1 X156.059 Y104.102 E7.15619
G1 X156.264 Y105.321 E7.18868
G1 X156.31 Y105.62 E7.19663
G1 X156.351 Y105.915 E7.20445
G1 X156.405 Y106.379 E7.21673
G1 X156.495 Y107.334 E7.24194
G1 X156.526 Y107.743 E7.25272
G1 X156.58 Y108.718 E7.27838
G1 X156.594 Y109.109 E7.28866
G1 X156.607 Y109.817 E7.30727
G1 X156.607 Y110.197 E7.31726
G1 X156.59 Y111.171 E7.34286
G1 X156.573 Y111.617 E7.35459
G1 X156.533 Y112.288 E7.37226
G1 X156.508 Y112.625 E7.38114
G1 X156.457 Y113.153 E7.39508
G1 X156.424 Y113.447 E7.40285
G1 X156.302 Y114.398 E7.42805
G1 X156.247 Y114.774 E7.43804
G1 X156.136 Y115.447 E7.45596
G1 X156.063 Y115.841 E7.46649
G1 X155.858 Y116.846 E7.49345
G1 X155.774 Y117.222 E7.50357
G1 X155.658 Y117.701 E7.51653
G1 X155.557 Y118.087 E7.52701
G1 X155.291 Y119.029 E7.55273
G1 X155.173 Y119.417 E7.56339
G1 X154.924 Y120.185 E7.58461
G1 X154.803 Y120.538 E7.59442
G1 X154.583 Y121.143 E7.61134
G1 X154.447 Y121.496 E7.62128
G1 X154.019 Y122.554 E7.65127
G1 X153.824 Y123.007 E7.66423
G1 X153.657 Y123.36 E7.67449
G1 X153.091 Y124.506 E7.70808
G1 X152.919 Y124.839 E7.71793
G1 X152.682 Y125.279 E7.73107
G1 X152.494 Y125.613 E7.74114
G1 X152.083 Y126.314 E7.7625
G1 X151.865 Y126.67 E7.77347
G1 X151.295 Y127.56 E7.80124
G1 X151.068 Y127.9 E7.81199
G1 X150.754 Y128.351 E7.82643
G1 X150.56 Y128.621 E7.83517
G1 X149.947 Y129.445 E7.86216
G1 X149.649 Y129.826 E7.87487
G1 X149.47 Y130.045 E7.8823
G1 X149.268 Y130.285 E7.89054
G1 X148.459 Y131.217 E7.92298
G1 X148.243 Y131.459 E7.9315
G1 X148.027 Y131.693 E7.93987
