;FLAVOR:Marlin
;TIME:11770
;Filament used: 6.15633m
;Layer height: 0.2
;MINX:79.506
;MINY:84.94
;MINZ:0.2
;MAXX:144.326
;MAXY:135.061
;MAXZ:101.4
;POSTPROCESSED
;Generated with Cura_SteamEngine 4.9.0
M82 ;absolute extrusion mode
; Ender 3 Custom Start G-code
M117 Warming Print Bed
M301 P24.63 I2.05 D74.05
M304 P134.53 I26.22 D460.11
M140 S80 ; Set Heat Bed temperature
M190 S80 ; Wait for Heat Bed temperature
M104 S160; start warming extruder to 160
M117 Homing all axes
G28 ; Home all axes
M117 Beginning Bed Leveling
G29 ; Auto bed-level (BL-Touch)
G92 E0 ; Reset Extruder
M117 Warming Extruder
M104 S225 ; Set Extruder temperature
G1 X0.1 Y20 Z0.3 F5000.0 ; Move to start position
M109 S225 ; Wait for Extruder temperature
; G1 Z2.0 F3000 ; Move Z Axis up little to prevent scratching of Heat Bed
G1 X0.1 Y200.0 Z0.3 F1500.0 E15 ; Draw the first line
G1 X0.4 Y200.0 Z0.3 F5000.0 ; Move to side a little
G1 X0.4 Y20 Z0.3 F1500.0 E30 ; Draw the second line
G92 E0 ; Reset Extruder
G1 Z2.0 F3000 ; Move Z Axis up little to prevent scratching of Heat Bed
; End of custom start GCode
G92 E0
G92 E0
G1 F2400 E-6.5
;LAYER_COUNT:507
;LAYER:0
M107
G0 F6000 X82.659 Y88.556 Z0.2
;TYPE:SKIRT
G1 F2400 E0
G1 X83.557 Y87.728 E0.03611
G1 X83.739 Y87.578 E0.04309
G1 X84.487 Y87.013 E0.0708
G1 X85.281 Y86.514 E0.09853
G1 X86.115 Y86.084 E0.12627
G1 X87.16 Y85.664 E0.15956
G1 X87.387 Y85.586 E0.16666
G1 X88.287 Y85.319 E0.19442
G1 X89.205 Y85.13 E0.22213
G1 X89.817 Y85.049 E0.24038
G1 X90.094 Y85.02 E0.24861
G1 X91.292 Y84.96 E0.28407
G1 X91.498 Y84.961 E0.29016
G1 X92.457 Y85.008 E0.31855
G1 X92.706 Y85.031 E0.32594
G1 X93.482 Y85.13 E0.34907
G1 X94.01 Y85.217 E0.36489
G1 X94.334 Y85.276 E0.37463
G1 X94.497 Y85.308 E0.37954
G1 X97.05 Y85.775 E0.45627
G1 X99.558 Y86.161 E0.53129
G1 X102.032 Y86.469 E0.605
G1 X104.546 Y86.712 E0.67968
G1 X107.078 Y86.884 E0.75471
G1 X109.576 Y86.983 E0.82862
G1 X112.095 Y87.011 E0.9031
G1 X114.587 Y86.968 E0.97678
G1 X117.144 Y86.852 E1.05246
G1 X119.622 Y86.669 E1.12592
G1 X122.148 Y86.411 E1.20099
G1 X124.629 Y86.086 E1.27497
G1 X127.129 Y85.686 E1.34982
G1 X129.23 Y85.296 E1.413
G1 X129.368 Y85.268 E1.41716
G1 X129.747 Y85.199 E1.42855
G1 X130.217 Y85.122 E1.44263
G1 X130.994 Y85.023 E1.46579
G1 X131.355 Y84.99 E1.4765
G1 X132.114 Y84.947 E1.49898
G1 X132.432 Y84.94 E1.50838
G1 X133.37 Y84.959 E1.53612
G1 X134.54 Y85.096 E1.57095
G1 X134.813 Y85.143 E1.57914
G1 X135.73 Y85.342 E1.60688
G1 X136.626 Y85.618 E1.6346
G1 X137.445 Y85.946 E1.66068
G1 X137.657 Y86.041 E1.66755
G1 X138.496 Y86.46 E1.69528
G1 X139.296 Y86.95 E1.72301
G1 X140.051 Y87.506 E1.75073
G1 X140.756 Y88.124 E1.77845
G1 X141.406 Y88.8 E1.80618
G1 X141.997 Y89.529 E1.83392
G1 X142.722 Y90.644 E1.87324
G1 X142.88 Y90.922 E1.8827
G1 X143.309 Y91.756 E1.91043
G1 X143.664 Y92.624 E1.93815
G1 X143.945 Y93.519 E1.96589
G1 X144.148 Y94.435 E1.99363
G1 X144.272 Y95.364 E2.02133
G1 X144.309 Y95.95 E2.03869
G1 X144.312 Y96.031 E2.04109
G1 X144.307 Y96.969 E2.06882
G1 X144.247 Y97.701 E2.09054
G1 X144.098 Y98.985 E2.12875
G1 X144.011 Y99.648 E2.14852
G1 X143.759 Y102.104 E2.22152
G1 X143.573 Y104.617 E2.29602
G1 X143.456 Y107.174 E2.37169
G1 X143.413 Y109.666 E2.44538
G1 X143.439 Y112.151 E2.51885
G1 X143.539 Y114.707 E2.59448
G1 X143.708 Y117.202 E2.66841
G1 X143.95 Y119.726 E2.74337
G1 X144.236 Y122.033 E2.8121
G1 X144.265 Y122.3 E2.82004
G1 X144.326 Y123.236 E2.84778
G1 X144.316 Y124.016 E2.87084
G1 X144.306 Y124.224 E2.87699
G1 X144.221 Y125.158 E2.90472
G1 X144.057 Y126.082 E2.93247
G1 X143.815 Y126.988 E2.96019
G1 X143.496 Y127.87 E2.98792
G1 X143.104 Y128.722 E3.01565
G1 X142.813 Y129.252 E3.03352
G1 X142.71 Y129.428 E3.03955
G1 X142.202 Y130.217 E3.0673
G1 X141.629 Y130.959 E3.09501
G1 X140.995 Y131.65 E3.12274
G1 X140.304 Y132.284 E3.15047
G1 X139.561 Y132.857 E3.17821
G1 X138.773 Y133.365 E3.20592
G1 X137.962 Y133.795 E3.23306
G1 X137.663 Y133.938 E3.24286
G1 X136.8 Y134.307 E3.27061
G1 X135.91 Y134.6 E3.29831
G1 X134.568 Y134.89 E3.33891
G1 X134.344 Y134.924 E3.3456
G1 X133.425 Y135.025 E3.37294
G1 X133.38 Y135.028 E3.37427
G1 X132.153 Y135.041 E3.41055
G1 X131.598 Y135.016 E3.42697
G1 X130.304 Y134.88 E3.46544
G1 X130.025 Y134.834 E3.4738
G1 X129.714 Y134.779 E3.48314
G1 X129.045 Y134.649 E3.50329
G1 X126.492 Y134.189 E3.57998
G1 X124.037 Y133.818 E3.65339
G1 X121.518 Y133.511 E3.72841
G1 X119.02 Y133.276 E3.80259
G1 X116.508 Y133.113 E3.87702
G1 X113.985 Y133.02 E3.95166
G1 X111.456 Y132.998 E4.02643
G1 X108.939 Y133.047 E4.10086
G1 X106.454 Y133.167 E4.17442
G1 X103.926 Y133.36 E4.24937
G1 X101.425 Y133.623 E4.32372
G1 X98.918 Y133.958 E4.3985
G1 X96.48 Y134.355 E4.47153
G1 X94.997 Y134.642 E4.51619
G1 X94.022 Y134.819 E4.54548
G1 X93.578 Y134.886 E4.55876
G1 X93.004 Y134.961 E4.57587
G1 X91.83 Y135.051 E4.61069
G1 X91.391 Y135.061 E4.62367
G1 X90.453 Y135.043 E4.65141
G1 X89.339 Y134.916 E4.68455
G1 X89.092 Y134.875 E4.69196
G1 X88.174 Y134.682 E4.71969
G1 X87.276 Y134.411 E4.74742
G1 X86.404 Y134.065 E4.77516
G1 X85.942 Y133.846 E4.79027
G1 X85.696 Y133.722 E4.79842
G1 X84.877 Y133.264 E4.82616
G1 X84.1 Y132.739 E4.85389
G1 X83.371 Y132.149 E4.88161
G1 X82.695 Y131.499 E4.90934
G1 X82.076 Y130.794 E4.93708
G1 X81.689 Y130.283 E4.95603
G1 X81.565 Y130.109 E4.96234
G1 X81.054 Y129.323 E4.99006
G1 X80.611 Y128.496 E5.0178
G1 X80.241 Y127.634 E5.04553
G1 X79.945 Y126.744 E5.07326
G1 X79.756 Y125.975 E5.09667
G1 X79.742 Y125.908 E5.0987
G1 X79.589 Y124.983 E5.12642
G1 X79.516 Y124.048 E5.15414
G1 X79.539 Y122.845 E5.18972
G1 X79.565 Y122.494 E5.20012
G1 X79.616 Y121.978 E5.21545
G1 X79.904 Y119.61 E5.28598
G1 X80.142 Y117.053 E5.3619
G1 X80.301 Y114.581 E5.43514
G1 X80.392 Y112.059 E5.50975
G1 X80.412 Y109.536 E5.58434
G1 X80.36 Y107.012 E5.65898
G1 X80.238 Y104.514 E5.73292
G1 X80.044 Y101.99 E5.80777
G1 X79.714 Y98.947 E5.89826
G1 X79.583 Y97.897 E5.92954
G1 X79.506 Y96.962 E5.95728
G1 X79.51 Y96.024 E5.98501
G1 X79.663 Y94.633 E6.02638
G1 X79.718 Y94.319 E6.03581
G1 X79.919 Y93.403 E6.06354
G1 X80.197 Y92.507 E6.09127
G1 X80.551 Y91.639 E6.11899
G1 X80.977 Y90.803 E6.14673
G1 X81.473 Y90.007 E6.17445
G1 X82.035 Y89.257 E6.20216
G1 X82.659 Y88.556 E6.22991
G0 F6000 X83.029 Y88.75
G1 F2400 X83.811 Y88.037 E6.2612
G1 X83.993 Y87.887 E6.26817
G1 X84.729 Y87.333 E6.2954
G1 X85.509 Y86.845 E6.32261
G1 X86.329 Y86.426 E6.34983
G1 X87.29 Y86.042 E6.38043
G1 X87.517 Y85.964 E6.38752
G1 X88.4 Y85.703 E6.41475
G1 X89.302 Y85.52 E6.44196
G1 X89.858 Y85.447 E6.45854
G1 X90.135 Y85.418 E6.46677
G1 X91.29 Y85.36 E6.50096
G1 X91.496 Y85.361 E6.50705
G1 X92.42 Y85.406 E6.5344
G1 X92.669 Y85.429 E6.54179
G1 X93.417 Y85.525 E6.56409
G1 X93.945 Y85.612 E6.57991
G1 X94.257 Y85.668 E6.58928
G1 X94.427 Y85.701 E6.5944
G1 X96.989 Y86.17 E6.67141
G1 X99.518 Y86.559 E6.74706
G1 X101.979 Y86.866 E6.82038
G1 X104.514 Y87.111 E6.89568
G1 X107.036 Y87.282 E6.97041
G1 X109.591 Y87.383 E7.04601
G1 X112.098 Y87.411 E7.12013
G1 X114.613 Y87.368 E7.1945
G1 X117.153 Y87.253 E7.26967
G1 X119.659 Y87.068 E7.34396
G1 X122.204 Y86.807 E7.4196
G1 X124.672 Y86.484 E7.49319
G1 X127.232 Y86.075 E7.56983
G1 X129.219 Y85.705 E7.62959
G1 X129.446 Y85.66 E7.63643
G1 X129.811 Y85.593 E7.6474
G1 X130.281 Y85.516 E7.66148
G1 X131.03 Y85.421 E7.6838
G1 X131.391 Y85.388 E7.69452
G1 X132.123 Y85.347 E7.7162
G1 X132.441 Y85.34 E7.7256
G1 X133.361 Y85.359 E7.75281
G1 X134.472 Y85.491 E7.78588
G1 X134.745 Y85.538 E7.79407
G1 X135.645 Y85.733 E7.8213
G1 X136.524 Y86.006 E7.84851
G1 X137.282 Y86.311 E7.87267
G1 X137.494 Y86.406 E7.87954
G1 X138.317 Y86.818 E7.90675
G1 X139.101 Y87.301 E7.93397
G1 X139.84 Y87.85 E7.96119
G1 X140.529 Y88.46 E7.9884
G1 X141.162 Y89.129 E8.01563
G1 X141.735 Y89.849 E8.04283
G1 X142.375 Y90.841 E8.07773
G1 X142.533 Y91.119 E8.08719
G1 X142.952 Y91.939 E8.11441
G1 X143.299 Y92.792 E8.14164
G1 X143.571 Y93.671 E8.16884
G1 X143.765 Y94.571 E8.19606
G1 X143.881 Y95.484 E8.22327
G1 X143.91 Y95.965 E8.23752
G1 X143.913 Y96.046 E8.23991
G1 X143.907 Y96.966 E8.26711
G1 X143.85 Y97.655 E8.28755
G1 X143.701 Y98.933 E8.32559
G1 X143.619 Y99.557 E8.3442
G1 X143.358 Y102.104 E8.4199
G1 X143.172 Y104.605 E8.49404
G1 X143.056 Y107.147 E8.56927
G1 X143.013 Y109.664 E8.6437
G1 X143.039 Y112.171 E8.71782
G1 X143.139 Y114.714 E8.79307
G1 X143.309 Y117.231 E8.86765
G1 X143.554 Y119.782 E8.94342
G1 X143.838 Y122.076 E9.01176
G1 X143.867 Y122.343 E9.0197
G1 X143.927 Y123.262 E9.04693
G1 X143.917 Y123.997 E9.06866
G1 X143.907 Y124.205 E9.07481
G1 X143.823 Y125.122 E9.10204
G1 X143.659 Y126.028 E9.12926
G1 X143.418 Y126.916 E9.15646
G1 X143.1 Y127.78 E9.18368
G1 X142.709 Y128.614 E9.21091
G1 X142.468 Y129.05 E9.22564
G1 X142.365 Y129.226 E9.23167
G1 X141.865 Y130 E9.25891
G1 X141.301 Y130.727 E9.28612
G1 X140.676 Y131.403 E9.31334
G1 X139.994 Y132.022 E9.34057
G1 X139.261 Y132.579 E9.36779
G1 X138.483 Y133.071 E9.395
G1 X137.789 Y133.435 E9.41817
G1 X137.49 Y133.578 E9.42797
G1 X136.643 Y133.938 E9.45518
G1 X135.768 Y134.224 E9.48239
G1 X134.508 Y134.495 E9.5205
G1 X134.284 Y134.529 E9.5272
G1 X133.398 Y134.626 E9.55355
G1 X133.353 Y134.629 E9.55488
G1 X132.171 Y134.641 E9.58983
G1 X131.616 Y134.616 E9.60625
G1 X130.369 Y134.486 E9.64332
G1 X130.09 Y134.44 E9.65168
G1 X129.79 Y134.386 E9.66069
G1 X129.115 Y134.255 E9.68102
G1 X126.586 Y133.799 E9.757
G1 X124.078 Y133.42 E9.83199
G1 X121.567 Y133.114 E9.90677
G1 X119.047 Y132.877 E9.98161
G1 X116.513 Y132.712 E10.05668
G1 X114.003 Y132.62 E10.13094
G1 X111.452 Y132.598 E10.20636
G1 X108.948 Y132.647 E10.28041
G1 X106.403 Y132.769 E10.35574
G1 X103.89 Y132.962 E10.43025
G1 X101.366 Y133.226 E10.50528
G1 X98.872 Y133.56 E10.57967
G1 X96.399 Y133.962 E10.65375
G1 X94.925 Y134.248 E10.69814
G1 X93.954 Y134.425 E10.72732
G1 X93.526 Y134.49 E10.74012
G1 X92.952 Y134.565 E10.75723
G1 X91.82 Y134.651 E10.7908
G1 X91.381 Y134.661 E10.80378
G1 X90.461 Y134.642 E10.83099
G1 X89.404 Y134.521 E10.86244
G1 X89.157 Y134.48 E10.86984
G1 X88.256 Y134.29 E10.89707
G1 X87.375 Y134.022 E10.92429
G1 X86.122 Y133.488 E10.96456
G1 X85.876 Y133.364 E10.97271
G1 X85.072 Y132.915 E10.99993
G1 X84.311 Y132.397 E11.02715
G1 X83.598 Y131.815 E11.05436
G1 X82.937 Y131.174 E11.08158
G1 X82.335 Y130.477 E11.10881
G1 X82.015 Y130.051 E11.12456
G1 X81.891 Y129.877 E11.13088
G1 X81.389 Y129.104 E11.15813
G1 X80.957 Y128.292 E11.18532
G1 X80.597 Y127.444 E11.21256
G1 X80.312 Y126.569 E11.23977
G1 X80.147 Y125.893 E11.26034
G1 X80.133 Y125.826 E11.26236
G1 X79.984 Y124.918 E11.28957
G1 X79.915 Y124 E11.31678
G1 X79.938 Y122.875 E11.35005
G1 X79.964 Y122.524 E11.36046
G1 X80.013 Y122.027 E11.37522
G1 X80.305 Y119.628 E11.44667
G1 X80.538 Y117.124 E11.52102
G1 X80.702 Y114.586 E11.59621
G1 X80.792 Y112.077 E11.67044
G1 X80.812 Y109.516 E11.74616
G1 X80.76 Y106.983 E11.82106
G1 X80.638 Y104.5 E11.89456
G1 X80.441 Y101.936 E11.97059
G1 X80.113 Y98.912 E12.06052
G1 X79.98 Y97.847 E12.09225
G1 X79.905 Y96.929 E12.11948
G1 X79.911 Y96.009 E12.14668
G1 X80.057 Y94.702 E12.18556
G1 X80.112 Y94.388 E12.19499
G1 X80.31 Y93.489 E12.2222
G1 X80.585 Y92.611 E12.2494
G1 X80.936 Y91.759 E12.27665
G1 X81.359 Y90.942 E12.30385
G1 X81.851 Y90.164 E12.33106
G1 X82.41 Y89.431 E12.35831
G1 X83.029 Y88.75 E12.38552
G0 F6000 X83.398 Y88.947
G1 F2400 X84.066 Y88.346 E12.41209
G1 X84.248 Y88.196 E12.41906
G1 X84.969 Y87.653 E12.44575
G1 X85.736 Y87.176 E12.47245
G1 X86.542 Y86.769 E12.49915
G1 X87.42 Y86.421 E12.52707
G1 X87.647 Y86.343 E12.53416
G1 X88.514 Y86.087 E12.56089
G1 X89.399 Y85.909 E12.58758
G1 X89.9 Y85.844 E12.60252
G1 X90.177 Y85.815 E12.61075
G1 X91.289 Y85.76 E12.64367
G1 X91.495 Y85.761 E12.64976
G1 X92.383 Y85.804 E12.67604
G1 X92.632 Y85.827 E12.68344
G1 X93.352 Y85.92 E12.7049
G1 X93.88 Y86.007 E12.72072
G1 X94.181 Y86.061 E12.72976
G1 X94.372 Y86.098 E12.73551
G1 X96.927 Y86.566 E12.81231
G1 X99.406 Y86.947 E12.88646
G1 X101.964 Y87.266 E12.96267
G1 X104.484 Y87.51 E13.03752
G1 X107.029 Y87.682 E13.11294
G1 X109.57 Y87.783 E13.18812
G1 X112.1 Y87.811 E13.26293
G1 X114.602 Y87.768 E13.33691
G1 X117.203 Y87.65 E13.41389
G1 X119.693 Y87.467 E13.4877
G1 X122.225 Y87.207 E13.56295
G1 X124.75 Y86.877 E13.63824
G1 X127.29 Y86.471 E13.71429
G1 X129.306 Y86.096 E13.77491
G1 X129.525 Y86.052 E13.78152
G1 X129.876 Y85.988 E13.79207
G1 X130.346 Y85.911 E13.80615
G1 X131.066 Y85.819 E13.82761
G1 X131.427 Y85.786 E13.83832
G1 X132.132 Y85.746 E13.8592
G1 X132.45 Y85.739 E13.86861
G1 X133.352 Y85.76 E13.89528
G1 X134.405 Y85.885 E13.92663
G1 X134.678 Y85.932 E13.93482
G1 X135.56 Y86.124 E13.96151
G1 X136.422 Y86.394 E13.98821
G1 X137.118 Y86.676 E14.01042
G1 X137.33 Y86.771 E14.01728
G1 X138.137 Y87.176 E14.04398
G1 X138.905 Y87.651 E14.07068
G1 X139.628 Y88.193 E14.09739
G1 X140.3 Y88.796 E14.12408
G1 X140.916 Y89.456 E14.15078
G1 X141.472 Y90.168 E14.17748
G1 X142.027 Y91.039 E14.20802
G1 X142.185 Y91.317 E14.21747
G1 X142.596 Y92.121 E14.24417
G1 X142.934 Y92.958 E14.27086
G1 X143.197 Y93.822 E14.29756
G1 X143.383 Y94.706 E14.32426
G1 X143.51 Y95.979 E14.36209
G1 X143.513 Y96.06 E14.36448
G1 X143.506 Y96.964 E14.39121
G1 X143.453 Y97.609 E14.41035
G1 X143.324 Y98.725 E14.44356
G1 X143.223 Y99.5 E14.46667
G1 X142.959 Y102.067 E14.54296
G1 X142.772 Y104.593 E14.61785
G1 X142.656 Y107.122 E14.69269
G1 X142.612 Y109.661 E14.76777
G1 X142.639 Y112.191 E14.84257
G1 X142.739 Y114.721 E14.91743
G1 X142.912 Y117.287 E14.99347
G1 X143.153 Y119.797 E15.06802
G1 X143.44 Y122.12 E15.13722
G1 X143.469 Y122.387 E15.14516
G1 X143.527 Y123.288 E15.17185
G1 X143.517 Y123.978 E15.19225
G1 X143.507 Y124.186 E15.19841
G1 X143.424 Y125.085 E15.2251
G1 X143.261 Y125.973 E15.25179
G1 X143.021 Y126.844 E15.2785
G1 X142.705 Y127.69 E15.3052
G1 X142.122 Y128.848 E15.34353
G1 X142.019 Y129.024 E15.34956
G1 X141.529 Y129.782 E15.37625
G1 X140.974 Y130.495 E15.40296
G1 X140.358 Y131.155 E15.42965
G1 X139.685 Y131.758 E15.45637
G1 X138.962 Y132.299 E15.48307
G1 X138.194 Y132.775 E15.50978
G1 X137.617 Y133.074 E15.52899
G1 X137.318 Y133.217 E15.53879
G1 X136.487 Y133.57 E15.56548
G1 X135.628 Y133.848 E15.59218
G1 X134.448 Y134.099 E15.62785
G1 X134.224 Y134.133 E15.63454
G1 X133.371 Y134.226 E15.65991
G1 X133.326 Y134.229 E15.66125
G1 X132.189 Y134.242 E15.69486
G1 X131.634 Y134.217 E15.71129
G1 X130.434 Y134.091 E15.74696
G1 X130.155 Y134.045 E15.75532
G1 X129.867 Y133.993 E15.76397
G1 X129.266 Y133.876 E15.78208
G1 X126.616 Y133.399 E15.86168
G1 X124.145 Y133.025 E15.93557
G1 X121.582 Y132.713 E16.0119
G1 X119.078 Y132.478 E16.08626
G1 X116.553 Y132.313 E16.16107
G1 X114.022 Y132.22 E16.23595
G1 X111.447 Y132.198 E16.31208
G1 X108.921 Y132.247 E16.38678
G1 X106.387 Y132.369 E16.46178
G1 X103.853 Y132.563 E16.53692
G1 X101.343 Y132.827 E16.61153
G1 X98.826 Y133.163 E16.68661
G1 X96.293 Y133.575 E16.76248
G1 X94.853 Y133.855 E16.80585
G1 X93.886 Y134.031 E16.83491
G1 X93.475 Y134.093 E16.8472
G1 X92.901 Y134.168 E16.86432
G1 X91.811 Y134.251 E16.89663
G1 X91.372 Y134.261 E16.90962
G1 X90.469 Y134.242 E16.93632
G1 X89.47 Y134.126 E16.96605
G1 X89.223 Y134.085 E16.97346
G1 X88.339 Y133.898 E17.00017
G1 X87.476 Y133.634 E17.02685
G1 X86.302 Y133.131 E17.06461
G1 X86.056 Y133.007 E17.07276
G1 X85.268 Y132.565 E17.09947
G1 X84.523 Y132.056 E17.12614
G1 X83.825 Y131.482 E17.15286
G1 X83.181 Y130.849 E17.17956
G1 X82.34 Y129.819 E17.21887
G1 X82.216 Y129.645 E17.22519
G1 X81.725 Y128.887 E17.25189
G1 X81.303 Y128.088 E17.27861
G1 X80.954 Y127.256 E17.30528
G1 X80.679 Y126.395 E17.332
G1 X80.539 Y125.811 E17.34976
G1 X80.525 Y125.744 E17.35178
G1 X80.379 Y124.853 E17.37848
G1 X80.313 Y123.952 E17.40518
G1 X80.337 Y122.905 E17.43615
G1 X80.363 Y122.554 E17.44655
G1 X80.41 Y122.075 E17.46078
G1 X80.702 Y119.677 E17.5322
G1 X80.937 Y117.151 E17.60721
G1 X81.102 Y114.592 E17.68302
G1 X81.192 Y112.094 E17.75692
G1 X81.212 Y109.52 E17.83302
G1 X81.16 Y106.992 E17.90778
G1 X81.035 Y104.438 E17.98338
G1 X80.843 Y101.94 E18.05745
G1 X80.505 Y98.817 E18.15032
G1 X80.377 Y97.797 E18.18071
G1 X80.305 Y96.897 E18.20741
G1 X80.312 Y95.994 E18.2341
G1 X80.451 Y94.771 E18.2705
G1 X80.506 Y94.457 E18.27992
