;FLAVOR:Marlin
;TIME:3856
;Filament used: 2.63194m
;Layer height: 0.2
;MINX:88.499
;MINY:88.499
;MINZ:0.2
;MAXX:131.499
;MAXY:131.499
;MAXZ:12.5
;Generated with Cura_SteamEngine 4.9.0
M82 ;absolute extrusion mode
; Ender 3 Custom Start G-code
M117 Warming Print Bed
M301 P24.63 I2.05 D74.05
M304 P134.53 I26.22 D460.11
M140 S80 ; Set Heat Bed temperature
M190 S80 ; Wait for Heat Bed temperature
M104 S160; start warming extruder to 160
M117 Homing all axes
G28 ; Home all axes
M117 Beginning Bed Leveling
G29 ; Auto bed-level (BL-Touch)
G92 E0 ; Reset Extruder
M117 Warming Extruder
M104 S225 ; Set Extruder temperature
G1 X0.1 Y20 Z0.3 F5000.0 ; Move to start position
M109 S225 ; Wait for Extruder temperature
; G1 Z2.0 F3000 ; Move Z Axis up little to prevent scratching of Heat Bed
G1 X0.1 Y200.0 Z0.3 F1500.0 E15 ; Draw the first line
G1 X0.4 Y200.0 Z0.3 F5000.0 ; Move to side a little
G1 X0.4 Y20 Z0.3 F1500.0 E30 ; Draw the second line
G92 E0 ; Reset Extruder
G1 Z2.0 F3000 ; Move Z Axis up little to prevent scratching of Heat Bed
; End of custom start GCode
G92 E0
G92 E0
G1 F2400 E-6.5
;LAYER_COUNT:60
;LAYER:0
M106 S127.5
G1 F300 Z0.7
;MESH:QR Code.stl
G0 F6000 X92.401 Y130.603 Z0.7
;TYPE:WALL-INNER
G1 F300 Z0.2
G1 F2400 E0
G1 F1200 X127.599 Y130.603 E1.04063
G1 X128.005 Y130.571 E1.05267
G1 X128.295 Y130.502 E1.06148
G1 X128.477 Y130.459 E1.06701
G1 X128.924 Y130.273 E1.08132
G1 X129.337 Y130.019 E1.09566
G1 X129.705 Y129.706 E1.10994
G1 X130.02 Y129.337 E1.12428
G1 X130.273 Y128.924 E1.1386
G1 X130.458 Y128.477 E1.15291
G1 X130.503 Y128.292 E1.15854
G1 X130.57 Y128.007 E1.16719
G1 X130.602 Y127.611 E1.17894
G1 X130.602 Y92.389 E2.22027
G1 X130.57 Y91.993 E2.23202
G1 X130.503 Y91.708 E2.24068
G1 X130.458 Y91.523 E2.2463
G1 X130.273 Y91.076 E2.26061
G1 X130.02 Y90.663 E2.27493
G1 X129.705 Y90.294 E2.28927
G1 X129.337 Y89.981 E2.30355
G1 X128.924 Y89.727 E2.31789
G1 X128.477 Y89.541 E2.3322
G1 X128.295 Y89.498 E2.33773
G1 X128.005 Y89.429 E2.34654
G1 X127.599 Y89.397 E2.35858
G1 X92.401 Y89.397 E3.39921
G1 X91.995 Y89.429 E3.41125
G1 X91.705 Y89.498 E3.42006
G1 X91.523 Y89.541 E3.42559
G1 X91.076 Y89.727 E3.43991
G1 X90.663 Y89.981 E3.45424
G1 X90.295 Y90.294 E3.46853
G1 X89.98 Y90.663 E3.48287
G1 X89.727 Y91.076 E3.49719
G1 X89.542 Y91.523 E3.51149
G1 X89.497 Y91.708 E3.51712
G1 X89.43 Y91.993 E3.52578
G1 X89.398 Y92.389 E3.53752
G1 X89.398 Y127.611 E4.57886
G1 X89.43 Y128.007 E4.5906
G1 X89.497 Y128.292 E4.59926
G1 X89.542 Y128.477 E4.60489
G1 X89.727 Y128.924 E4.61919
G1 X89.98 Y129.337 E4.63351
G1 X90.295 Y129.706 E4.64785
G1 X90.663 Y130.019 E4.66214
G1 X91.076 Y130.273 E4.67647
G1 X91.523 Y130.459 E4.69079
G1 X91.705 Y130.502 E4.69632
G1 X91.995 Y130.571 E4.70513
G1 X92.401 Y130.603 E4.71717
G0 F6000 X92.417 Y130.203
;TYPE:WALL-OUTER
G1 F1200 X127.583 Y130.203 E5.75685
G1 X127.943 Y130.175 E5.76752
G1 X128.353 Y130.077 E5.77999
G1 X128.742 Y129.916 E5.79243
G1 X129.101 Y129.695 E5.8049
G1 X129.421 Y129.422 E5.81733
G1 X129.695 Y129.101 E5.82981
G1 X129.915 Y128.742 E5.84226
G1 X130.076 Y128.353 E5.85471
G1 X130.174 Y127.944 E5.86714
G1 X130.202 Y127.595 E5.87749
G1 X130.202 Y92.405 E6.91788
G1 X130.174 Y92.056 E6.92823
G1 X130.076 Y91.647 E6.94067
G1 X129.915 Y91.258 E6.95312
G1 X129.695 Y90.899 E6.96556
G1 X129.421 Y90.578 E6.97804
G1 X129.101 Y90.305 E6.99048
G1 X128.742 Y90.084 E7.00294
G1 X128.353 Y89.923 E7.01539
G1 X127.943 Y89.825 E7.02785
G1 X127.583 Y89.797 E7.03853
G1 X92.417 Y89.797 E8.07821
G1 X92.057 Y89.825 E8.08888
G1 X91.647 Y89.923 E8.10135
G1 X91.258 Y90.084 E8.11379
G1 X90.899 Y90.305 E8.12626
G1 X90.579 Y90.578 E8.13869
G1 X90.305 Y90.899 E8.15117
G1 X90.085 Y91.258 E8.16362
G1 X89.924 Y91.647 E8.17606
G1 X89.826 Y92.056 E8.1885
G1 X89.798 Y92.405 E8.19885
G1 X89.798 Y127.595 E9.23924
G1 X89.826 Y127.944 E9.24959
G1 X89.924 Y128.353 E9.26203
G1 X90.085 Y128.742 E9.27447
G1 X90.305 Y129.101 E9.28692
G1 X90.579 Y129.422 E9.2994
G1 X90.899 Y129.695 E9.31183
G1 X91.258 Y129.916 E9.3243
G1 X91.647 Y130.077 E9.33674
G1 X92.057 Y130.175 E9.34921
G1 X92.417 Y130.203 E9.35988
G0 F6000 X92.4 Y130.642
G1 F2400 E2.85988
G1 F300 Z0.7
G0 F6000 X130.9 Y130.9 Z0.7
;TYPE:WALL-INNER
G1 F300 Z0.2
G1 F2400 E9.35988
G1 F1200 X128.304 Y130.9 E9.43663
G1 X128.005 Y130.9 E9.4447
G1 X127.599 Y130.9 E9.45412
G1 X92.401 Y130.9 E10.22872
G1 X91.995 Y130.9 E10.23814
G1 X91.696 Y130.9 E10.24621
G1 X89.1 Y130.9 E10.32296
G1 X89.1 Y128.3 E10.39983
G1 X89.1 Y128.007 E10.40775
G1 X89.1 Y127.611 E10.41696
G1 X89.1 Y92.389 E11.1947
G1 X89.1 Y91.993 E11.20392
G1 X89.1 Y91.7 E11.21184
G1 X89.1 Y89.1 E11.2887
G1 X91.696 Y89.1 E11.36546
G1 X91.995 Y89.1 E11.37353
G1 X92.401 Y89.1 E11.38294
G1 X127.599 Y89.1 E12.15754
G1 X128.005 Y89.1 E12.16696
G1 X128.304 Y89.1 E12.17503
G1 X130.9 Y89.1 E12.25178
G1 X130.9 Y91.7 E12.32865
G1 X130.9 Y91.993 E12.33657
G1 X130.9 Y92.389 E12.34578
G1 X130.9 Y127.611 E13.12352
G1 X130.9 Y128.007 E13.13274
G1 X130.9 Y128.3 E13.14066
G1 X130.9 Y130.9 E13.21753
G0 F6000 X131.3 Y131.3
;TYPE:WALL-OUTER
G1 F1200 X88.7 Y131.3 E14.47699
G1 X88.7 Y88.7 E15.73646
G1 X131.3 Y88.7 E16.99593
G1 X131.3 Y131.3 E18.25539
G0 F6000 X130.51 Y130.51
;TYPE:SKIN
G1 F1200 X129.283 Y130.51 E18.29167
G1 X129.567 Y130.335 E18.30153
G1 X129.982 Y129.983 E18.31762
G1 X130.336 Y129.567 E18.33377
G1 X130.51 Y129.284 E18.34359
G1 X130.51 Y130.51 E18.37984
G0 F6000 X130.518 Y129.104
;TYPE:SKIN
G1 F1200 X130.413 Y128.998 E18.38204
G0 F6000 X130.496 Y128.799
G1 F1200 X130.739 Y129.042 E18.38712
G0 F6000 X130.739 Y128.759
G1 F1200 X130.579 Y128.6 E18.39046
G0 F6000 X130.739 Y128.477
G1 F1200 X130.644 Y128.381 E18.39245
G1 F2400 E11.89245
G1 F300 Z0.7
G0 F6000 X128.998 Y130.413 Z0.7
G1 F300 Z0.2
G1 F2400 E18.39245
G1 F1200 X129.104 Y130.518 E18.39466
G0 F6000 X129.042 Y130.739
G1 F1200 X128.8 Y130.497 E18.39972
G0 F6000 X128.6 Y130.58
G1 F1200 X128.759 Y130.739 E18.40304
G0 F6000 X128.476 Y130.739
G1 F1200 X128.383 Y130.645 E18.405
G1 F2400 E11.905
G1 F300 Z0.7
G0 F6000 X130.51 Y90.716 Z0.7
;TYPE:SKIN
G1 F300 Z0.2
G1 F2400 E18.405
G1 F1200 X130.336 Y90.433 E18.41482
G1 X129.982 Y90.017 E18.43097
G1 X129.567 Y89.665 E18.44706
G1 X129.283 Y89.49 E18.45692
G1 X130.51 Y89.49 E18.49319
G1 X130.51 Y90.716 E18.52944
G0 F6000 X130.499 Y90.901
;TYPE:SKIN
G1 F1200 X130.739 Y91.141 E18.53446
G0 F6000 X130.484 Y91.169
G1 F1200 X130.739 Y91.423 E18.53978
G0 F6000 X130.642 Y91.609
G1 F1200 X130.739 Y91.706 E18.54181
G1 F2400 E12.04181
G1 F300 Z0.7
G0 F6000 X129.097 Y89.499 Z0.7
G1 F300 Z0.2
G1 F2400 E18.54181
G1 F1200 X128.858 Y89.26 E18.5468
G0 F6000 X128.829 Y89.514
G1 F1200 X128.575 Y89.26 E18.55211
G0 F6000 X128.387 Y89.355
G1 F1200 X128.292 Y89.26 E18.5541
G1 F2400 E12.0541
G1 F300 Z0.7
G0 F6000 X90.717 Y89.49 Z0.7
;TYPE:SKIN
G1 F300 Z0.2
G1 F2400 E18.5541
G1 F1200 X90.433 Y89.665 E18.56396
G1 X90.018 Y90.017 E18.58005
G1 X89.664 Y90.433 E18.5962
G1 X89.49 Y90.716 E18.60602
G1 X89.49 Y89.49 E18.64227
G1 X90.717 Y89.49 E18.67854
G0 F6000 X90.895 Y89.48
;TYPE:SKIN
G1 F1200 X90.999 Y89.585 E18.68073
G0 F6000 X91.198 Y89.501
G1 F1200 X90.957 Y89.26 E18.68577
G0 F6000 X91.24 Y89.26
G1 F1200 X91.398 Y89.418 E18.68907
G0 F6000 X91.522 Y89.26
G1 F1200 X91.616 Y89.353 E18.69103
G1 F2400 E12.19103
G1 F300 Z0.7
G0 F6000 X89.586 Y91 Z0.7
G1 F300 Z0.2
G1 F2400 E18.69103
G1 F1200 X89.48 Y90.895 E18.69323
G0 F6000 X89.259 Y90.956
G1 F1200 X89.502 Y91.199 E18.69831
G0 F6000 X89.42 Y91.399
G1 F1200 X89.259 Y91.239 E18.70167
G0 F6000 X89.259 Y91.522
G1 F1200 X89.355 Y91.618 E18.70367
G1 F2400 E12.20367
G1 F300 Z0.7
G0 F6000 X89.49 Y129.284 Z0.7
;TYPE:SKIN
G1 F300 Z0.2
G1 F2400 E18.70367
G1 F1200 X89.664 Y129.567 E18.7135
G1 X90.018 Y129.983 E18.72964
G1 X90.433 Y130.335 E18.74573
G1 X90.717 Y130.51 E18.7556
G1 X89.49 Y130.51 E18.79187
G1 X89.49 Y129.284 E18.82812
G0 F6000 X89.499 Y129.097
;TYPE:SKIN
G1 F1200 X89.26 Y128.858 E18.83311
G0 F6000 X89.515 Y128.83
G1 F1200 X89.26 Y128.575 E18.83845
G0 F6000 X89.357 Y128.389
G1 F1200 X89.26 Y128.292 E18.84047
G1 F2400 E12.34047
G1 F300 Z0.7
G0 F6000 X90.901 Y130.499 Z0.7
G1 F300 Z0.2
G1 F2400 E18.84047
G1 F1200 X91.141 Y130.739 E18.84549
G0 F6000 X91.169 Y130.484
G1 F1200 X91.423 Y130.739 E18.85081
G0 F6000 X91.611 Y130.643
G1 F1200 X91.706 Y130.739 E18.85281
G0 F6000 X91.302 Y130.617
G1 F1200 X90.992 Y130.59 E18.8601
G1 X90.819 Y130.7 E18.86491
G1 F2400 E12.36491
G1 F300 Z0.7
G0 F6000 X89.408 Y129.006 Z0.7
G1 F300 Z0.2
G1 F2400 E18.86491
G1 F1200 X89.381 Y128.696 E18.87013
G1 X89.298 Y129.178 E18.87832
G1 F2400 E12.37832
G1 F300 Z0.7
G0 F6000 X89.327 Y91.59 Z0.7
G1 F300 Z0.2
G1 F2400 E18.87832
G1 F1200 X89.275 Y91.537 E18.87942
G0 F6000 X89.341 Y91.321
G1 F1200 X89.383 Y91.08 E18.88549
G1 X89.49 Y90.904 E18.8906
G1 F2400 E12.3906
G1 F300 Z0.7
G0 F6000 X90.904 Y89.49 Z0.7
G1 F300 Z0.2
G1 F2400 E18.8906
G1 F1200 X91.079 Y89.382 E18.89414
G1 X91.561 Y89.299 E18.90254
G1 F2400 E12.40254
G1 F300 Z0.7
G0 F6000 X128.696 Y89.381 Z0.7
G1 F300 Z0.2
G1 F2400 E18.90254
G1 F1200 X129.006 Y89.408 E18.90981
G1 X129.178 Y89.298 E18.91459
G1 F2400 E12.41459
G1 F300 Z0.7
G0 F6000 X130.59 Y90.992 Z0.7
G1 F300 Z0.2
G1 F2400 E18.91459
G1 F1200 X130.617 Y91.302 E18.91981
G1 X130.7 Y90.819 E18.92805
G1 F2400 E12.42805
G1 F300 Z0.7
G0 F6000 X130.697 Y128.435 Z0.7
G1 F300 Z0.2
G1 F2400 E18.92805
G1 F1200 X130.657 Y128.677 E18.93225
G1 X130.507 Y129.093 E18.93984
G1 F2400 E12.43984
G1 F300 Z0.7
G0 F6000 X129.094 Y130.508 Z0.7
G1 F300 Z0.2
G1 F2400 E18.93984
G1 F1200 X128.919 Y130.616 E18.94336
G1 X128.436 Y130.699 E18.95176
G1 F2400 E12.45176
G1 F300 Z0.7
G0 F6000 X118.356 Y118.913 Z0.7
;TYPE:WALL-INNER
G1 F300 Z0.2
G1 F2400 E18.95176
G1 F1200 X118.356 Y118.556 E18.96232
G1 X118.357 Y118.364 E18.968
G1 X118.621 Y118.364 E18.9758
G1 X118.959 Y118.364 E18.98579
G1 X118.621 Y118.556 E18.98939
G1 X118.356 Y118.913 E18.99501
G1 F2400 E12.49501
G1 F300 Z0.7
G0 F6000 X118.352 Y122.288 Z0.7
G1 F300 Z0.2
G1 F2400 E18.99501
G1 F1200 X118.433 Y122.694 E19.00725
G1 X118.594 Y122.843 E19.01374
G1 X118.835 Y123.065 E19.02342
G1 X119.218 Y123.107 E19.03482
G1 X118.835 Y123.107 E19.0354
G1 X118.352 Y123.106 E19.04408
G1 X118.352 Y122.694 E19.05238
G1 X118.352 Y122.288 E19.05354
G1 F2400 E12.55354
G1 F300 Z0.7
G0 F6000 X122.352 Y123.107 Z0.7
G1 F300 Z0.2
G1 F2400 E19.05354
G1 F1200 X122.695 Y123.019 E19.06401
G1 X122.869 Y122.858 E19.07102
G1 X122.975 Y122.759 E19.07531
G1 X123.101 Y122.408 E19.08633
G1 X123.1 Y122.759 E19.08782
G1 X123.099 Y123.105 E19.09521
G1 X122.976 Y123.105 E19.09779
G1 X122.696 Y123.106 E19.10213
G1 X122.352 Y123.107 E19.10318
G1 F2400 E12.60318
G1 F300 Z0.7
G0 F6000 X122.358 Y118.362 Z0.7
G1 F300 Z0.2
G1 F2400 E19.10318
G1 F1200 X122.543 Y118.362 E19.10865
G1 X122.871 Y118.362 E19.11835
G1 X123.108 Y118.361 E19.12536
G1 X123.108 Y118.592 E19.12932
G1 X123.108 Y118.957 E19.14011
G1 X123.107 Y119.219 E19.14785
G1 X123.09 Y118.957 E19.14803
G1 X122.872 Y118.592 E19.15293
G1 X122.543 Y118.373 E19.15847
G1 X122.358 Y118.362 E19.15854
G1 F2400 E12.65854
G1 F300 Z0.7
G0 F6000 X119.363 Y122.721 Z0.7
;TYPE:WALL-OUTER
G1 F300 Z0.2
G1 F2400 E19.15854
G1 F1200 X120.724 Y122.724 E19.19878
G1 X122.009 Y122.72 E19.23677
G1 X122.272 Y122.715 E19.24455
G1 X122.497 Y122.657 E19.25142
G1 X122.632 Y122.532 E19.25686
G1 X122.707 Y122.323 E19.26342
G1 X122.716 Y122.103 E19.26993
G1 X122.72 Y120.737 E19.31032
G1 X122.716 Y119.37 E19.35073
G1 X122.697 Y119.079 E19.35936
G1 X122.575 Y118.875 E19.36638
G1 X122.411 Y118.766 E19.37221
G1 X122.25 Y118.756 E19.37697
G1 X121.941 Y118.752 E19.38611
G1 X120.729 Y118.748 E19.42194
G1 X119.092 Y118.748 E19.47034
G1 X118.892 Y118.862 E19.47715
G1 X118.748 Y119.056 E19.48429
G1 X118.744 Y121.921 E19.56899
G1 X118.748 Y122.229 E19.5781
G1 X118.8 Y122.488 E19.58591
G1 X119.01 Y122.682 E19.59436
G1 X119.363 Y122.721 E19.60486
G1 F2400 E13.10486
G1 F300 Z0.7
G0 F6000 X117.952 Y123.506 Z0.7
G1 F300 Z0.2
G1 F2400 E19.60486
G1 F1200 X117.953 Y120.188 E19.70296
G1 X117.958 Y118.137 E19.7636
G1 X117.962 Y117.971 E19.76851
G1 X118.266 Y117.964 E19.7775
G1 X123.508 Y117.961 E19.93248
G1 X123.506 Y120.741 E20.01467
G1 X123.499 Y123.259 E20.08911
G1 X123.492 Y123.502 E20.0963
G1 X122.754 Y123.507 E20.11812
G1 X120.713 Y123.509 E20.17846
G1 X117.952 Y123.506 E20.26009
G0 F6000 X118.154 Y122.114
;TYPE:SKIN
G1 F1200 X118.284 Y121.961 E20.26554
G1 X118.348 Y121.742 E20.27174
G1 X118.371 Y119.22 E20.34025
G1 X119.256 Y118.407 E20.37289
G1 X120.334 Y118.354 E20.4022
G1 X122.003 Y118.326 E20.44754
G1 X122.149 Y118.189 E20.45298
G0 F6000 X123.194 Y119.517
G1 F1200 X123.11 Y119.716 E20.46026
G1 X123.109 Y121.977 E20.53642
G1 X122.901 Y122.336 E20.55039
G0 F6000 X122.18 Y123.028
G1 F1200 X122.045 Y122.894 E20.5532
G0 F6000 X121.981 Y123.113
G1 F1200 X121.699 Y123.114 E20.56298
G1 X119.72 Y123.114 E20.63159
G1 X119.517 Y123.194 E20.63915
G1 F2400 E14.13915
G1 F300 Z0.7
G0 F6000 X123.113 Y113.589 Z0.7
;TYPE:WALL-INNER
G1 F300 Z0.2
G1 F2400 E20.63915
G1 F1200 X121.925 Y113.589 E20.67427
G1 X121.925 Y115.967 E20.74458
G1 X124.899 Y115.967 E20.83251
G1 X125.279 Y115.967 E20.84374
G1 X125.492 Y115.967 E20.85004
G1 X125.492 Y104.06 E21.20207
G1 X125.341 Y104.06 E21.20653
G1 X124.968 Y104.06 E21.21756
G1 X124.594 Y104.06 E21.22862
G1 X124.121 Y104.06 E21.2426
G1 X123.16 Y104.06 E21.27101
G1 X120.723 Y104.06 E21.34306
G1 X120.723 Y104.253 E21.34877
G1 X120.723 Y105.248 E21.37819
G1 X119.536 Y105.248 E21.41328
G1 X119.536 Y104.061 E21.44837
G1 X116.56 Y104.057 E21.53636
G1 X116.202 Y104.056 E21.54694
G1 X115.962 Y104.055 E21.55404
G1 X115.962 Y103.808 E21.56134
G1 X115.961 Y103.452 E21.57187
G1 X115.955 Y101.671 E21.62452
G1 X114.965 Y101.671 E21.65379
G1 X114.765 Y101.671 E21.6597
G1 X114.766 Y101.471 E21.66352
G1 X114.771 Y100.479 E21.69285
G1 X115.759 Y100.47 E21.72206
G1 X115.95 Y100.469 E21.72771
G1 X115.95 Y98.107 E21.79754
G1 X113.588 Y98.108 E21.86738
G1 X113.583 Y99.195 E21.89951
G1 X113.577 Y98.109 E21.89994
G1 X113.577 Y98.098 E21.90011
G1 X113.57 Y96.914 E21.93512
G1 X113.578 Y96.909 E21.93539
G1 X113.578 Y98.097 E21.93594
G1 X115.957 Y98.097 E21.93803
G1 X115.957 Y95.129 E22.02578
G1 X115.957 Y94.772 E22.03634
G1 X115.957 Y94.531 E22.04346
G1 X111.188 Y94.531 E22.18446
G1 X111.188 Y96.907 E22.2547
G1 X110.001 Y96.907 E22.2898
G1 X110.001 Y94.531 E22.36004
G1 X104.043 Y94.531 E22.53619
G1 X104.043 Y95.719 E22.57131
G1 X102.852 Y95.729 E22.60653
G1 X102.854 Y96.713 E22.63562
G1 X102.854 Y96.906 E22.64132
G1 X102.857 Y98.097 E22.67654
G1 X102.926 Y98.097 E22.67858
G1 X105.229 Y98.097 E22.74666
G1 X105.228 Y98.103 E22.74684
G1 X102.926 Y98.11 E22.74845
G1 X102.852 Y98.822 E22.76961
G1 X102.852 Y99.293 E22.78354
G1 X102.847 Y99.292 E22.78369
G1 X102.847 Y98.823 E22.78383
G1 X102.845 Y98.111 E22.78618
G1 X102.844 Y98.098
G1 X102.841 Y96.907 E22.78736
G1 X102.648 Y96.907 E22.79306
G1 X101.654 Y96.907 E22.82245
G1 X101.654 Y94.531 E22.8927
G1 X98.089 Y94.531 E22.9981
G1 X98.082 Y96.903 E23.06822
G1 X98.075 Y96.904 E23.06843
G1 X98.075 Y94.531 E23.07029
G1 X94.508 Y94.531 E23.17575
G1 X94.508 Y99.285 E23.3163
G1 X95.697 Y99.285 E23.35146
G1 X96.887 Y99.285 E23.38664
G1 X99.269 Y99.289 E23.45706
G1 X99.269 Y99.296 E23.45727
G1 X96.887 Y99.296 E23.45886
G1 X95.697 Y99.296 E23.45983
G1 X95.697 Y100.484 E23.49495
G1 X94.508 Y100.484 E23.5301
G1 X94.508 Y104.049 E23.6355
G1 X96.887 Y104.049 E23.70584
G1 X98.072 Y104.049 E23.74087
G1 X98.079 Y102.868 E23.77579
G1 X98.09 Y104.046 E23.77653
G1 X99.271 Y104.053 E23.81145
G1 X99.278 Y106.236 E23.87599
G1 X99.278 Y106.436 E23.8819
G1 X99.078 Y106.436 E23.88573
G1 X98.09 Y106.436 E23.91494
G1 X98.083 Y107.63 E23.95024
G1 X96.89 Y107.63 E23.98551
G1 X96.884 Y106.438 E24.02075
G1 X96.887 Y104.259 E24.08518
G1 X96.887 Y104.06 E24.09106
G1 X96.688 Y104.06 E24.09487
G1 X94.508 Y104.06 E24.15932
G1 X94.508 Y112.39 E24.40559
G1 X95.697 Y112.39 E24.44075
G1 X96.887 Y112.39 E24.47593
G1 X96.887 Y111.201 E24.51108
G1 X99.268 Y111.195 E24.58148
G1 X99.276 Y111.201 E24.58177
G1 X96.895 Y111.209 E24.5835
G1 X96.889 Y112.39 E24.58396
G1 X96.888 Y112.401 E24.58412
G1 X95.697 Y112.401 E24.58511
