;FLAVOR:Marlin
;TIME:374
;Filament used: 0.113312m
;Layer height: 0.2
;MINX:89.2
;MINY:89.2
;MINZ:0.2
;MAXX:130.8
;MAXY:130.8
;MAXZ:0.9
;Generated with Cura_SteamEngine 4.9.0
M82 ;absolute extrusion mode
; Ender 3 Custom Start G-code
M117 Warming Print Bed
M301 P24.63 I2.05 D74.05
M304 P134.53 I26.22 D460.11
M140 S80 ; Set Heat Bed temperature
M190 S80 ; Wait for Heat Bed temperature
M104 S160; start warming extruder to 160
M117 Homing all axes
G28 ; Home all axes
M117 Beginning Bed Leveling
G29 ; Auto bed-level (BL-Touch)
G92 E0 ; Reset Extruder
M117 Warming Extruder
M104 S200 ; Set Extruder temperature
G1 X0.1 Y20 Z0.3 F5000.0 ; Move to start position
M109 S200 ; Wait for Extruder temperature
; G1 Z2.0 F3000 ; Move Z Axis up little to prevent scratching of Heat Bed
G1 X0.1 Y200.0 Z0.3 F1500.0 E15 ; Draw the first line
G1 X0.4 Y200.0 Z0.3 F5000.0 ; Move to side a little
G1 X0.4 Y20 Z0.3 F1500.0 E30 ; Draw the second line
G92 E0 ; Reset Extruder
G1 Z2.0 F3000 ; Move Z Axis up little to prevent scratching of Heat Bed
; End of custom start GCode
G92 E0
G92 E0
G1 F1380 E-5
;LAYER_COUNT:2
;LAYER:0
M106 S127.5
G1 F300 Z0.7
;MESH:QR Code (1).stl
G0 F6000 X110.006 Y130.012 Z0.7
;TYPE:WALL-INNER
G1 F300 Z0.2
G1 F1380 E0
G1 F1200 X125.039 Y130.007 E0.44445
G1 X128.24 Y129.999 E0.53909
G1 X128.53 Y129.991 E0.54766
G1 X128.658 Y129.988 E0.55145
G1 X128.74 Y129.96 E0.55401
G1 X129.067 Y129.845 E0.56426
G1 X129.385 Y129.64 E0.57545
G1 X129.694 Y129.312 E0.58877
G1 X129.89 Y128.961 E0.60065
G1 X129.977 Y128.669 E0.60966
G1 X129.997 Y128.599 E0.61181
G1 X130.003 Y128.409 E0.61743
G1 X130.006 Y128.316 E0.62019
G1 X130.01 Y127.69 E0.63869
G1 X130.015 Y124.832 E0.72319
G1 X130.017 Y91.579 E1.70631
G1 X130.018 Y91.492 E1.70889
G1 X129.993 Y91.399 E1.71173
G1 X129.987 Y91.374 E1.71249
G1 X129.926 Y91.157 E1.71916
G1 X129.754 Y90.802 E1.73082
G1 X129.498 Y90.482 E1.74294
G1 X129.091 Y90.197 E1.75762
G1 X128.713 Y90.044 E1.76968
G1 X128.507 Y90.025 E1.7758
G1 X128.124 Y90.02 E1.78712
G1 X125.883 Y90.012 E1.85338
G1 X110.058 Y90.005 E2.32124
G1 X94.647 Y90.005 E2.77687
G1 X92.132 Y90.011 E2.85122
G1 X91.623 Y90.016 E2.86627
G1 X91.179 Y90.08 E2.87954
G1 X90.759 Y90.28 E2.89329
G1 X90.412 Y90.578 E2.90681
G1 X90.156 Y90.961 E2.92043
G1 X90.021 Y91.362 E2.93294
G1 X90.014 Y91.41 E2.93437
G1 X89.988 Y91.602 E2.9401
G1 X89.982 Y93.587 E2.99879
G1 X89.978 Y96.147 E3.07448
G1 X89.977 Y110.133 E3.48797
G1 X89.985 Y125.794 E3.95099
G1 X89.993 Y128.074 E4.0184
G1 X89.998 Y128.414 E4.02845
G1 X90 Y128.501 E4.03102
G1 X90.011 Y128.552 E4.03256
G1 X90.091 Y128.924 E4.04381
G1 X90.323 Y129.341 E4.05792
G1 X90.652 Y129.672 E4.07172
G1 X91.062 Y129.901 E4.0856
G1 X91.431 Y129.989 E4.09682
G1 X91.449 Y129.993 E4.09736
G1 X91.808 Y130.001 E4.10798
G1 X93.919 Y130.009 E4.17039
G1 X110.006 Y130.012 E4.646
G1 F1380 E-0.354
G1 F300 Z0.7
G0 F6000 X110.006 Y129.612 Z0.7
;TYPE:WALL-OUTER
G1 F300 Z0.2
G1 F1380 E4.646
G1 F1200 X125.039 Y129.607 E5.09045
G1 X128.234 Y129.599 E5.18491
G1 X128.585 Y129.59 E5.1953
G1 X128.89 Y129.483 E5.20485
G1 X129.127 Y129.33 E5.21319
G1 X129.369 Y129.074 E5.22361
G1 X129.519 Y128.805 E5.23271
G1 X129.599 Y128.535 E5.24104
G1 X129.606 Y128.309 E5.24772
G1 X129.61 Y127.688 E5.26608
G1 X129.615 Y124.831 E5.35055
G1 X129.618 Y91.546 E6.33462
G1 X129.55 Y91.298 E6.34222
G1 X129.414 Y91.017 E6.35145
G1 X129.222 Y90.777 E6.36054
G1 X128.899 Y90.551 E6.37219
G1 X128.618 Y90.437 E6.38116
G1 X128.486 Y90.425 E6.38508
G1 X128.121 Y90.42 E6.39587
G1 X125.882 Y90.412 E6.46207
G1 X110.058 Y90.405 E6.9299
G1 X94.647 Y90.405 E7.38553
G1 X92.134 Y90.411 E7.45982
G1 X91.653 Y90.416 E7.47404
G1 X91.296 Y90.467 E7.48471
G1 X90.979 Y90.618 E7.49509
G1 X90.714 Y90.846 E7.50542
G1 X90.518 Y91.139 E7.51585
G1 X90.412 Y91.454 E7.52567
G1 X90.388 Y91.63 E7.53092
G1 X90.382 Y93.588 E7.58881
G1 X90.378 Y96.148 E7.6645
G1 X90.377 Y110.133 E8.07796
G1 X90.385 Y125.793 E8.54095
G1 X90.393 Y128.07 E8.60827
G1 X90.399 Y128.455 E8.61965
G1 X90.469 Y128.781 E8.62951
G1 X90.646 Y129.098 E8.64025
G1 X90.896 Y129.35 E8.65074
G1 X91.209 Y129.525 E8.66134
G1 X91.5 Y129.594 E8.67018
G1 X91.813 Y129.601 E8.67944
G1 X93.92 Y129.609 E8.74173
G1 X110.006 Y129.612 E9.21732
G0 F6000 X110.006 Y130.052
G1 F1380 E4.21732
G1 F300 Z0.7
G0 F6000 X128.429 Y130.4 Z0.7
;TYPE:WALL-INNER
G1 F300 Z0.2
G1 F1380 E9.21732
G1 F1200 X128.24 Y130.4 E9.2229
G1 X125.039 Y130.4 E9.31683
G1 X110.006 Y130.4 E9.75181
G1 X93.919 Y130.4 E10.2161
G1 X91.808 Y130.4 E10.27788
G1 X91.571 Y130.4 E10.28489
G1 X91.418 Y130.388 E10.28943
G1 X91.399 Y130.387 E10.28999
G1 X91.293 Y130.378 E10.29313
G1 X90.986 Y130.305 E10.30246
G1 X90.693 Y130.182 E10.31186
G1 X90.422 Y130.017 E10.32124
G1 X90.183 Y129.813 E10.33053
G1 X89.985 Y129.58 E10.33957
G1 X89.815 Y129.304 E10.34915
G1 X89.697 Y129.019 E10.35827
G1 X89.623 Y128.707 E10.36775
G1 X89.613 Y128.586 E10.37134
G1 X89.609 Y128.533 E10.3729
G1 X89.6 Y128.421 E10.37619
G1 X89.6 Y128.074 E10.38636
G1 X89.6 Y125.794 E10.45208
G1 X89.6 Y110.133 E10.89421
G1 X89.6 Y96.147 E11.28542
G1 X89.6 Y93.587 E11.3575
G1 X89.6 Y91.602 E11.41413
G1 X89.6 Y91.579 E11.4148
G1 X89.615 Y91.385 E11.42048
G1 X89.623 Y91.293 E11.42321
G1 X89.697 Y90.981 E11.43269
G1 X89.815 Y90.696 E11.44181
G1 X89.985 Y90.42 E11.4514
G1 X90.184 Y90.186 E11.46048
G1 X90.422 Y89.983 E11.46973
G1 X90.693 Y89.818 E11.47911
G1 X90.986 Y89.695 E11.4885
G1 X91.293 Y89.622 E11.49783
G1 X91.571 Y89.6 E11.50608
G1 X128.429 Y89.6 E12.59578
G1 X128.707 Y89.622 E12.60403
G1 X129.014 Y89.695 E12.61335
G1 X129.307 Y89.818 E12.62275
G1 X129.578 Y89.983 E12.63213
G1 X129.816 Y90.186 E12.64138
G1 X130.015 Y90.42 E12.65046
G1 X130.185 Y90.696 E12.66004
G1 X130.303 Y90.981 E12.66916
G1 X130.371 Y91.268 E12.67788
G1 X130.377 Y91.293 E12.67864
G1 X130.39 Y91.462 E12.68352
G1 X130.4 Y91.579 E12.68683
G1 X130.4 Y124.832 E13.633
G1 X130.4 Y127.69 E13.71506
G1 X130.4 Y128.316 E13.73324
G1 X130.4 Y128.421 E13.73632
G1 X130.384 Y128.63 E13.74242
G1 X130.377 Y128.707 E13.74469
G1 X130.361 Y128.778 E13.74683
G1 X130.303 Y129.019 E13.75416
G1 X130.185 Y129.304 E13.76327
G1 X130.015 Y129.58 E13.77286
G1 X129.817 Y129.813 E13.7819
G1 X129.578 Y130.017 E13.79119
G1 X129.307 Y130.182 E13.80057
G1 X129.014 Y130.305 E13.80996
G1 X128.833 Y130.348 E13.81546
G1 X128.749 Y130.368 E13.81799
G1 X128.707 Y130.378 E13.81925
G1 X128.689 Y130.379 E13.81979
G1 X128.561 Y130.389 E13.82355
G1 X128.429 Y130.4 E13.82746
G1 F1380 E8.82746
G1 F300 Z0.7
G0 F6000 X128.447 Y130.8 Z0.7
;TYPE:WALL-OUTER
G1 F300 Z0.2
G1 F1380 E13.82746
G1 F1200 X91.553 Y130.8 E14.91823
G1 X91.232 Y130.775 E14.92775
G1 X90.86 Y130.686 E14.93906
G1 X90.51 Y130.539 E14.95028
G1 X90.188 Y130.343 E14.96143
G1 X89.899 Y130.097 E14.97265
G1 X89.659 Y129.814 E14.98362
G1 X89.461 Y129.492 E14.9948
G1 X89.315 Y129.14 E15.00606
G1 X89.226 Y128.768 E15.01737
G1 X89.2 Y128.44 E15.0271
G1 X89.2 Y91.56 E16.11745
G1 X89.226 Y91.232 E16.12718
G1 X89.315 Y90.86 E16.13849
G1 X89.461 Y90.508 E16.14976
G1 X89.659 Y90.186 E16.16093
G1 X89.899 Y89.903 E16.1719
G1 X90.188 Y89.657 E16.18312
G1 X90.51 Y89.461 E16.19427
G1 X90.86 Y89.314 E16.20549
G1 X91.232 Y89.225 E16.2168
G1 X91.553 Y89.2 E16.22632
G1 X128.447 Y89.2 E17.31709
G1 X128.768 Y89.225 E17.32661
G1 X129.14 Y89.314 E17.33791
G1 X129.49 Y89.461 E17.34914
G1 X129.812 Y89.657 E17.36028
G1 X130.101 Y89.903 E17.3715
G1 X130.341 Y90.186 E17.38247
G1 X130.539 Y90.508 E17.39365
G1 X130.685 Y90.86 E17.40492
G1 X130.774 Y91.232 E17.41622
G1 X130.8 Y91.56 E17.42595
G1 X130.8 Y128.44 E18.51631
G1 X130.774 Y128.768 E18.52603
G1 X130.685 Y129.14 E18.53734
G1 X130.539 Y129.492 E18.54861
G1 X130.341 Y129.814 E18.55979
G1 X130.101 Y130.097 E18.57076
G1 X129.812 Y130.343 E18.58198
G1 X129.49 Y130.539 E18.59312
G1 X129.14 Y130.686 E18.60434
G1 X128.768 Y130.775 E18.61565
G1 X128.447 Y130.8 E18.62517
G0 F6000 X128.43 Y130.361
G1 F1380 E13.62517
G1 F300 Z0.7
G0 F6000 X129.631 Y129.631 Z0.7
;TYPE:SKIN
G1 F300 Z0.2
G1 F1380 E18.62517
G1 F1200 X129.689 Y129.689 E18.62638
G1 F1380 E13.62638
G1 F300 Z0.7
G0 F6000 X129.657 Y90.342 Z0.7
G1 F300 Z0.2
G1 F1380 E18.62638
G1 F1200 X128.94 Y89.908 E18.64042
G1 F1380 E13.64042
G1 F300 Z0.7
G0 F6000 X91.265 Y89.851 Z0.7
G1 F300 Z0.2
G1 F1380 E18.64042
G1 F1200 X91.037 Y89.906 E18.64202
G1 X90.342 Y90.342 E18.64763
G1 X89.97 Y90.818 E18.65176
G1 F1380 E13.65176
G1 F300 Z0.7
G0 F6000 X90.296 Y129.611 Z0.7
G1 F300 Z0.2
G1 F1380 E18.65176
G1 F1200 X90.378 Y129.693 E18.65348
G1 F1380 E13.65348
G1 F300 Z0.7
G0 F6000 X119.99 Y122.546 Z0.7
;TYPE:WALL-INNER
G1 F300 Z0.2
G1 F1380 E18.65348
G1 F1200 X119.993 Y119.995 E18.7289
G1 X121.565 Y119.995 E18.77537
G1 X122.54 Y119.998 E18.8042
G1 X122.544 Y121.27 E18.8418
G1 X122.54 Y122.545 E18.8795
G1 X121.258 Y122.549 E18.9174
G1 X119.99 Y122.546 E18.95489
G1 F1380 E13.95489
G1 F300 Z0.7
G0 F6000 X119.843 Y122.946 Z0.7
;TYPE:WALL-OUTER
G1 F300 Z0.2
G1 F1380 E18.95489
G1 F1200 X119.609 Y122.922 E18.96185
G1 X119.594 Y122.821 E18.96486
G1 X119.59 Y122.514 E18.97394
G1 X119.594 Y119.632 E19.05915
G1 X119.64 Y119.595 E19.06089
G1 X121.566 Y119.595 E19.11784
G1 X122.532 Y119.598 E19.1464
G1 X122.838 Y119.603 E19.15544
G1 X122.932 Y119.639 E19.15842
G1 X122.94 Y119.842 E19.16443
G1 X122.944 Y121.271 E19.20667
G1 X122.94 Y122.694 E19.24875
G1 X122.912 Y122.932 E19.25583
G1 X122.857 Y122.938 E19.25747
G1 X122.601 Y122.945 E19.26504
G1 X121.258 Y122.949 E19.30474
G1 X119.843 Y122.946 E19.34658
G0 F6000 X120.03 Y122.507
G1 F1380 E14.34658
G1 F300 Z0.7
G0 F6000 X120.38 Y122.157 Z0.7
;TYPE:SKIN
G1 F300 Z0.2
G1 F1380 E19.34658
G1 F1200 X120.383 Y120.385 E19.39897
G1 X122.152 Y120.387 E19.45127
G1 X122.154 Y121.268 E19.47731
G1 X122.152 Y122.157 E19.5036
G1 X121.257 Y122.159 E19.53006
G1 X120.38 Y122.157 E19.55599
G1 F1380 E14.55599
G1 F300 Z0.7
G0 F6000 X120.78 Y121.757 Z0.7
;TYPE:SKIN
G1 F300 Z0.2
G1 F1380 E19.55599
G1 F1200 X121.191 Y121.757 E19.56814
G1 X121.257 Y121.758 E19.57009
G1 X121.753 Y121.757 E19.58475
G0 F6000 X121.753 Y121.753
G1 F1200 X120.785 Y120.785 E19.62523
G1 X121.351 Y120.785 E19.64196
G1 X121.752 Y120.786 E19.65382
G1 F1380 E14.65382
G1 F300 Z0.7
G0 F6000 X121.753 Y121.187 Z0.7
G1 F300 Z0.2
G1 F1380 E19.65382
G1 F1200 X121.351 Y120.785 E19.67062
G1 F1380 E14.67062
G1 F300 Z0.7
G0 F6000 X120.78 Y121.346 Z0.7
G1 F300 Z0.2
G1 F1380 E19.67062
G1 F1200 X121.191 Y121.757 E19.68781
G1 F1380 E14.68781
G1 F300 Z0.7
G0 F6000 X117.874 Y124.903 Z0.7
;TYPE:WALL-INNER
G1 F300 Z0.2
G1 F1380 E19.68781
G1 F1200 X117.951 Y124.99 E19.69124
G1 X121.247 Y124.993 E19.78869
G1 X121.267 Y124.993 E19.78928
G1 X123.61 Y124.99 E19.85855
G1 X124.496 Y124.982 E19.88475
G1 X124.707 Y124.822 E19.89258
G1 X124.809 Y124.745 E19.89635
G1 X124.86 Y124.706 E19.89825
G1 X124.971 Y124.355 E19.90914
G1 X124.982 Y123.934 E19.92159
G1 X124.992 Y117.995 E20.09717
G1 X124.77 Y117.774 E20.10643
G1 X124.542 Y117.548 E20.11593
G1 X120.647 Y117.548 E20.23108
G1 X118.667 Y117.551 E20.28962
G1 X118.234 Y117.56 E20.30242
G1 X117.878 Y117.632 E20.31316
G1 X117.783 Y117.746 E20.31755
G1 X117.561 Y118.01 E20.32775
G1 X117.547 Y118.392 E20.33905
G1 X117.542 Y118.935 E20.3551
G1 X117.54 Y124.214 E20.51118
G1 X117.539 Y124.526 E20.5204
G1 X117.773 Y124.79 E20.53083
G1 X117.874 Y124.903 E20.53531
G1 F1380 E15.53531
G1 F300 Z0.7
G0 F6000 X118.131 Y124.59 Z0.7
;TYPE:WALL-OUTER
G1 F300 Z0.2
G1 F1380 E20.53531
G1 F1200 X121.247 Y124.593 E20.62744
G1 X123.608 Y124.59 E20.69724
G1 X124.36 Y124.583 E20.71947
G1 X124.517 Y124.464 E20.7253
G1 X124.573 Y124.288 E20.73076
G1 X124.582 Y123.929 E20.74138
G1 X124.592 Y118.161 E20.91191
G1 X124.377 Y117.948 E20.92085
G1 X120.647 Y117.948 E21.03113
G1 X118.671 Y117.951 E21.08955
G1 X118.278 Y117.959 E21.10117
G1 X118.095 Y117.996 E21.10669
G1 X117.956 Y118.162 E21.11309
G1 X117.947 Y118.401 E21.12016
G1 X117.942 Y118.937 E21.13601
G1 X117.939 Y124.374 E21.29676
G1 X118.131 Y124.59 E21.3053
G0 F6000 X117.951 Y124.991
G1 F1380 E16.3053
G1 F300 Z0.7
G0 F6000 X117.497 Y125.036 Z0.7
;TYPE:WALL-INNER
G1 F300 Z0.2
G1 F1380 E21.3053
G1 F1200 X117.496 Y124.527 E21.31458
G1 X117.494 Y124.214 E21.31562
G1 X117.494 Y118.935 E21.33401
G1 X117.494 Y118.392 E21.33604
G1 X117.495 Y118.01 E21.33776
G1 X117.496 Y117.632 E21.34361
G1 X117.497 Y117.507 E21.34694
G1 X117.723 Y117.504 E21.3522
G1 X117.878 Y117.504 E21.35465
G1 X118.234 Y117.504 E21.35704
G1 X118.666 Y117.504 E21.35868
G1 X120.646 Y117.503 E21.36545
G1 X124.541 Y117.502 E21.37861
G1 X125.04 Y117.501 E21.38816
G1 X125.04 Y117.995 E21.39768
G1 X125.035 Y123.934 E21.41993
G1 X125.034 Y124.355 E21.42178
G1 X125.033 Y124.706 E21.42522
G1 X125.032 Y125.037 E21.43323
G1 X124.873 Y125.04 E21.43714
G1 X124.86 Y125.04
G1 X124.497 Y125.04 E21.44264
G1 X123.611 Y125.041 E21.44625
G1 X121.268 Y125.043 E21.45504
G1 X121.247 Y125.043 E21.45513
G1 X117.951 Y125.04 E21.46737
G1 X117.722 Y125.039 E21.47093
G1 X117.497 Y125.036 E21.47613
G1 F1380 E16.47613
G1 F300 Z0.7
G0 F6000 X117.098 Y125.415 Z0.7
;TYPE:WALL-OUTER
G1 F300 Z0.2
G1 F1380 E21.47613
G1 F1200 X117.094 Y124.214 E21.51164
G1 X117.096 Y118.047 E21.69397
G1 X117.098 Y117.118 E21.72143
G1 X117.175 Y117.111 E21.72372
G1 X117.718 Y117.104 E21.73977
G1 X125.406 Y117.101 E21.96707
G1 X125.44 Y117.141 E21.96862
G1 X125.432 Y125.414 E22.21321
G1 X125.383 Y125.432 E22.21476
G1 X124.879 Y125.44 E22.22966
G1 X121.268 Y125.443 E22.33642
G1 X117.717 Y125.439 E22.4414
G1 X117.204 Y125.433 E22.45657
G1 X117.098 Y125.415 E22.45975
G1 F1380 E17.45975
G1 F300 Z0.7
G0 F6000 X112.472 Y125.042 Z0.7
;TYPE:WALL-INNER
G1 F300 Z0.2
G1 F1380 E22.45975
G1 F1200 X112.472 Y123.797 E22.49656
G1 X112.472 Y123.75 E22.49795
G1 X112.535 Y123.75 E22.49902
G1 X114.982 Y123.75 E22.57137
G1 X114.982 Y122.489 E22.60865
G1 X115.029 Y122.489 E22.61004
G1 X115.029 Y123.75 E22.61443
G1 X115.029 Y123.797 E22.61523
G1 X114.982 Y123.797 E22.61602
G1 X112.535 Y123.797 E22.62454
G1 X112.532 Y125.042 E22.63021
G1 X112.472 Y125.042 E22.63199
G1 F1380 E17.63199
G1 F300 Z0.7
G0 F6000 X112.072 Y125.443 Z0.7
;TYPE:WALL-OUTER
G1 F300 Z0.2
G1 F1380 E22.63199
G1 F1200 X112.072 Y123.35 E22.69387
G1 X114.582 Y123.35 E22.76808
G1 X114.582 Y122.089 E22.80536
G1 X115.429 Y122.089 E22.8304
G1 X115.429 Y124.197 E22.89272
G1 X112.934 Y124.197 E22.96649
G1 X112.931 Y125.441 E23.00326
G1 X112.072 Y125.443 E23.02866
G1 F1380 E18.02866
G1 F300 Z0.7
G0 F6000 X116.282 Y111.289 Z0.7
;TYPE:WALL-INNER
G1 F300 Z0.2
G1 F1380 E23.02866
G1 F1200 X116.229 Y111.288 E23.03023
G1 X116.229 Y110.048 E23.06689
G1 X116.229 Y109.912 E23.07091
G1 X116.229 Y109.196 E23.09208
G1 X116.229 Y108.791 E23.10405
G1 X115.039 Y108.791 E23.13923
G1 X114.97 Y108.791 E23.14127
G1 X113.734 Y108.791 E23.17782
G1 X113.734 Y108.741 E23.17929
G1 X114.97 Y108.734 E23.18419
G1 X114.978 Y107.483 E23.22118
G1 X115.032 Y107.483 E23.22278
G1 X115.039 Y108.734 E23.22848
G1 X116.229 Y108.74 E23.23324
G1 X116.278 Y108.741 E23.23407
G1 X116.278 Y108.79 E23.23552
G1 X116.28 Y109.196 E23.23704
G1 X116.323 Y109.912 E23.24092
G1 X116.96 Y109.987 E23.25988
G1 X117.539 Y109.989 E23.277
G1 X117.539 Y110.041 E23.27854
G1 X116.961 Y110.043 E23.28084
G1 X116.324 Y110.047 E23.28549
G1 X116.287 Y110.048
G1 X116.282 Y111.289 E23.29061
G1 F1380 E18.29061
G1 F300 Z0.7
G0 F6000 X116.683 Y111.691 Z0.7
;TYPE:WALL-OUTER
G1 F300 Z0.2
G1 F1380 E23.29061
G1 F1200 X115.829 Y111.686 E23.31586
G1 X115.829 Y109.191 E23.38962
G1 X113.334 Y109.191 E23.46338
G1 X113.334 Y108.343 E23.48846
G1 X114.573 Y108.336 E23.52509
G1 X114.581 Y107.083 E23.56213
G1 X115.43 Y107.083 E23.58723
G1 X115.437 Y108.336 E23.62428
G1 X116.677 Y108.343 E23.66094
G1 X116.68 Y109.183 E23.68577
G1 X116.702 Y109.554 E23.69676
G1 X116.984 Y109.587 E23.70516
G1 X117.939 Y109.591 E23.73339
G1 X117.939 Y110.439 E23.75846
G1 X116.685 Y110.446 E23.79554
G1 X116.681 Y111.414 E23.82416
G1 X116.683 Y111.691 E23.83235
G1 F1380 E18.83235
G1 F300 Z0.7
G0 F6000 X113.731 Y121.289 Z0.7
;TYPE:WALL-INNER
G1 F300 Z0.2
G1 F1380 E23.83235
G1 F1200 X113.724 Y120.054 E23.86886
G1 X112.535 Y120.045 E23.90401
G1 X112.472 Y120.044 E23.90588
G1 X112.472 Y119.995 E23.90733
