;FLAVOR:Marlin
;TIME:354
;Filament used: 0.104661m
;Layer height: 0.2
;MINX:90.2
;MINY:90.2
;MINZ:0.2
;MAXX:129.8
;MAXY:129.8
;MAXZ:0.4
;Generated with Cura_SteamEngine 4.9.0
M82 ;absolute extrusion mode
; Ender 3 Custom Start G-code
M117 Warming Print Bed
M301 P24.63 I2.05 D74.05
M304 P134.53 I26.22 D460.11
M140 S80 ; Set Heat Bed temperature
M190 S80 ; Wait for Heat Bed temperature
M104 S160; start warming extruder to 160
M117 Homing all axes
G28 ; Home all axes
M117 Beginning Bed Leveling
G29 ; Auto bed-level (BL-Touch)
G92 E0 ; Reset Extruder
M117 Warming Extruder
M104 S225 ; Set Extruder temperature
G1 X0.1 Y20 Z0.3 F5000.0 ; Move to start position
M109 S225 ; Wait for Extruder temperature
; G1 Z2.0 F3000 ; Move Z Axis up little to prevent scratching of Heat Bed
G1 X0.1 Y200.0 Z0.3 F1500.0 E15 ; Draw the first line
G1 X0.4 Y200.0 Z0.3 F5000.0 ; Move to side a little
G1 X0.4 Y20 Z0.3 F1500.0 E30 ; Draw the second line
G92 E0 ; Reset Extruder
G1 Z2.0 F3000 ; Move Z Axis up little to prevent scratching of Heat Bed
; End of custom start GCode
G92 E0
G92 E0
G1 F2400 E-6.5
;LAYER_COUNT:2
;LAYER:0
M106 S127.5
;MESH:QR Code (1).stl
G0 F6000 X110.006 Y129.087 Z0.2
;TYPE:WALL-INNER
G1 F2400 E0
G1 F1200 X124.323 Y129.083 E0.42328
G1 X126.292 Y129.08 E0.48149
G1 X127.525 Y129.074 E0.51795
G1 X127.77 Y129.044 E0.52525
G1 X127.934 Y129.024 E0.53013
G1 X127.962 Y129.012 E0.53103
G1 X128.233 Y128.888 E0.53984
G1 X128.28 Y128.866 E0.54138
G1 X128.419 Y128.762 E0.54651
G1 X128.572 Y128.647 E0.55217
G1 X128.58 Y128.637 E0.55255
G1 X128.766 Y128.404 E0.56136
G1 X128.86 Y128.286 E0.56582
G1 X128.883 Y128.235 E0.56748
G1 X129.01 Y127.96 E0.57643
G1 X129.021 Y127.937 E0.57718
G1 X129.042 Y127.774 E0.58204
G1 X129.077 Y127.502 E0.59015
G1 X129.082 Y127.465 E0.59126
G1 X129.086 Y126.848 E0.6095
G1 X129.09 Y124.125 E0.69
G1 X129.094 Y109.995 E1.10775
G1 X129.094 Y92.457 E1.62626
G1 X129.094 Y92.367 E1.62893
G1 X129.067 Y92.274 E1.63179
G1 X128.993 Y92.019 E1.63964
G1 X128.876 Y91.778 E1.64756
G1 X128.838 Y91.701 E1.6501
G1 X128.759 Y91.602 E1.65384
G1 X128.591 Y91.39 E1.66184
G1 X128.415 Y91.267 E1.66819
G1 X128.195 Y91.114 E1.67611
G1 X127.965 Y91.022 E1.68343
G1 X127.827 Y90.966 E1.68784
G1 X127.782 Y90.962 E1.68917
G1 X127.627 Y90.948 E1.69377
G1 X127.546 Y90.947 E1.69617
G1 X127.262 Y90.942 E1.70457
G1 X125.127 Y90.935 E1.76769
G1 X110.055 Y90.929 E2.21329
G1 X95.378 Y90.929 E2.64722
G1 X92.983 Y90.934 E2.71802
G1 X92.495 Y90.939 E2.73245
G1 X92.24 Y90.976 E2.74007
G1 X92.068 Y91.001 E2.74521
G1 X92.053 Y91.008 E2.7457
G1 X91.784 Y91.135 E2.75449
G1 X91.659 Y91.195 E2.75859
G1 X91.611 Y91.236 E2.76046
G1 X91.39 Y91.427 E2.76909
G1 X91.323 Y91.484 E2.7717
G1 X91.261 Y91.578 E2.77502
G1 X91.1 Y91.818 E2.78357
G1 X91.075 Y91.855 E2.78489
G1 X91.023 Y92.013 E2.78981
G1 X90.945 Y92.245 E2.79704
G1 X90.913 Y92.476 E2.80394
G1 X90.907 Y93.607 E2.83738
G1 X90.903 Y96.808 E2.93201
G1 X90.902 Y110.128 E3.32582
G1 X90.91 Y125.041 E3.76672
G1 X90.918 Y127.212 E3.83091
G1 X90.922 Y127.538 E3.84055
G1 X90.924 Y127.62 E3.84297
G1 X90.951 Y127.746 E3.84678
G1 X91.013 Y128.034 E3.85549
G1 X91.109 Y128.208 E3.86136
G1 X91.237 Y128.436 E3.8691
G1 X91.401 Y128.602 E3.87599
G1 X91.554 Y128.757 E3.88243
G1 X91.796 Y128.892 E3.89063
G1 X91.955 Y128.982 E3.89603
G1 X91.976 Y128.986 E3.89666
G1 X92.263 Y129.053 E3.90537
G1 X92.331 Y129.069 E3.90744
G1 X92.456 Y129.071 E3.91113
G1 X92.674 Y129.077 E3.91758
G1 X94.684 Y129.085 E3.97701
G1 X110.006 Y129.087 E4.43
G0 F6000 X110.006 Y128.687
;TYPE:WALL-OUTER
G1 F1200 X124.323 Y128.683 E4.85328
G1 X126.291 Y128.68 E4.91147
G1 X127.499 Y128.674 E4.94718
G1 X127.824 Y128.634 E4.95686
G1 X128.075 Y128.52 E4.96501
G1 X128.291 Y128.358 E4.973
G1 X128.517 Y128.075 E4.9837
G1 X128.632 Y127.825 E4.99184
G1 X128.682 Y127.438 E5.00338
G1 X128.686 Y126.846 E5.02088
G1 X128.69 Y124.124 E5.10135
G1 X128.694 Y109.994 E5.51911
G1 X128.694 Y92.424 E6.03856
G1 X128.618 Y92.163 E6.0466
G1 X128.498 Y91.916 E6.05472
G1 X128.314 Y91.685 E6.06345
G1 X128.003 Y91.468 E6.07466
G1 X127.733 Y91.359 E6.08327
G1 X127.606 Y91.348 E6.08704
G1 X127.258 Y91.342 E6.09733
G1 X125.126 Y91.335 E6.16036
G1 X110.055 Y91.329 E6.60593
G1 X95.378 Y91.329 E7.03986
G1 X92.985 Y91.334 E7.11061
G1 X92.526 Y91.339 E7.12418
G1 X92.185 Y91.388 E7.13436
G1 X91.879 Y91.533 E7.14438
G1 X91.625 Y91.752 E7.15429
G1 X91.437 Y92.033 E7.16429
G1 X91.336 Y92.336 E7.17373
G1 X91.313 Y92.504 E7.17874
G1 X91.307 Y93.608 E7.21138
G1 X91.303 Y96.808 E7.30599
G1 X91.302 Y110.128 E7.6998
G1 X91.31 Y125.041 E8.1407
G1 X91.318 Y127.209 E8.20479
G1 X91.323 Y127.575 E8.21562
G1 X91.391 Y127.891 E8.22517
G1 X91.56 Y128.194 E8.23543
G1 X91.799 Y128.436 E8.24549
G1 X92.101 Y128.605 E8.25572
G1 X92.381 Y128.67 E8.26422
G1 X92.679 Y128.677 E8.27303
G1 X94.685 Y128.685 E8.33234
G1 X110.006 Y128.687 E8.7853
G0 F6000 X110.006 Y129.127
G0 X127.551 Y129.4
;TYPE:WALL-INNER
G1 F1200 X127.525 Y129.4 E8.786
G1 X126.292 Y129.4 E8.81551
G1 X124.323 Y129.4 E8.86198
G1 X110.006 Y129.4 E9.19615
G1 X94.684 Y129.4 E9.55264
G1 X92.674 Y129.4 E9.60015
G1 X92.449 Y129.4 E9.6056
G1 X92.307 Y129.39 E9.60908
G1 X92.188 Y129.38 E9.61211
G1 X91.902 Y129.31 E9.6194
G1 X91.832 Y129.281 E9.62139
G1 X91.626 Y129.196 E9.62702
G1 X91.371 Y129.041 E9.63464
G1 X91.336 Y129.011 E9.63589
G1 X91.15 Y128.851 E9.6422
G1 X90.982 Y128.656 E9.64881
G1 X90.956 Y128.625 E9.64992
G1 X90.949 Y128.613 E9.65033
G1 X90.805 Y128.378 E9.65736
G1 X90.714 Y128.158 E9.66338
G1 X90.689 Y128.098 E9.6653
G1 X90.622 Y127.817 E9.6724
G1 X90.609 Y127.646 E9.67666
G1 X90.6 Y127.543 E9.67916
G1 X90.6 Y127.212 E9.68703
G1 X90.6 Y125.041 E9.73754
G1 X90.6 Y110.128 E10.07567
G1 X90.6 Y96.808 E10.37423
G1 X90.6 Y93.607 E10.44658
G1 X90.6 Y92.476 E10.47256
G1 X90.6 Y92.457 E10.47306
G1 X90.619 Y92.219 E10.4788
G1 X90.622 Y92.183 E10.47978
G1 X90.625 Y92.169 E10.48016
G1 X90.689 Y91.902 E10.48713
G1 X90.762 Y91.726 E10.49205
G1 X90.805 Y91.622 E10.49507
G1 X90.956 Y91.375 E10.50279
G1 X91.057 Y91.257 E10.50697
G1 X91.15 Y91.149 E10.51083
G1 X91.371 Y90.959 E10.51875
G1 X91.476 Y90.895 E10.5221
G1 X91.626 Y90.804 E10.52682
G1 X91.902 Y90.69 E10.53479
G1 X91.986 Y90.67 E10.53715
G1 X92.188 Y90.62 E10.54261
G1 X92.449 Y90.6 E10.54941
G1 X92.495 Y90.6 E10.55067
G1 X92.983 Y90.6 E10.56284
G1 X95.378 Y90.6 E10.62167
G1 X110.055 Y90.6 E10.97946
G1 X125.127 Y90.6 E11.35024
G1 X127.262 Y90.6 E11.40379
G1 X127.551 Y90.6 E11.41118
G1 X127.653 Y90.607 E11.41383
G1 X127.812 Y90.62 E11.41788
G1 X127.906 Y90.643 E11.42042
G1 X128.098 Y90.69 E11.42556
G1 X128.33 Y90.786 E11.43218
G1 X128.374 Y90.804 E11.43359
G1 X128.629 Y90.959 E11.44172
G1 X128.82 Y91.123 E11.44854
G1 X128.85 Y91.149 E11.44964
G1 X128.859 Y91.159 E11.45002
G1 X129.044 Y91.375 E11.45759
G1 X129.133 Y91.52 E11.46214
G1 X129.195 Y91.622 E11.4653
G1 X129.305 Y91.889 E11.47275
G1 X129.311 Y91.902 E11.47317
G1 X129.32 Y91.94 E11.47433
G1 X129.378 Y92.183 E11.48039
G1 X129.39 Y92.343 E11.4843
G1 X129.4 Y92.457 E11.48693
G1 X129.4 Y109.995 E11.88459
G1 X129.4 Y124.125 E12.20706
G1 X129.4 Y126.848 E12.27002
G1 X129.4 Y127.465 E12.28446
G1 X129.4 Y127.543 E12.28644
G1 X129.378 Y127.817 E12.29319
G1 X129.332 Y128.011 E12.29814
G1 X129.311 Y128.098 E12.30034
G1 X129.195 Y128.378 E12.30791
G1 X129.145 Y128.46 E12.31041
G1 X129.044 Y128.625 E12.31543
G1 X128.85 Y128.851 E12.32317
G1 X128.791 Y128.901 E12.32526
G1 X128.629 Y129.041 E12.33073
G1 X128.452 Y129.148 E12.33601
G1 X128.374 Y129.196 E12.33837
G1 X128.098 Y129.31 E12.34572
G1 X128.01 Y129.331 E12.34805
G1 X127.812 Y129.38 E12.3531
G1 X127.551 Y129.4 E12.35958
G0 F6000 X127.569 Y129.8
;TYPE:WALL-OUTER
G1 F1200 X92.431 Y129.8 E13.39843
G1 X92.123 Y129.776 E13.40757
G1 X91.778 Y129.692 E13.41807
G1 X91.445 Y129.554 E13.42872
G1 X91.137 Y129.367 E13.43938
G1 X90.866 Y129.135 E13.44992
G1 X90.632 Y128.861 E13.46058
G1 X90.446 Y128.558 E13.47109
G1 X90.308 Y128.224 E13.48177
G1 X90.225 Y127.878 E13.49229
G1 X90.2 Y127.562 E13.50166
G1 X90.2 Y92.438 E14.5401
G1 X90.225 Y92.122 E14.54947
G1 X90.308 Y91.776 E14.55999
G1 X90.446 Y91.442 E14.57068
G1 X90.632 Y91.139 E14.58119
G1 X90.866 Y90.865 E14.59184
G1 X91.137 Y90.633 E14.60239
G1 X91.445 Y90.446 E14.61304
G1 X91.778 Y90.308 E14.6237
G1 X92.123 Y90.224 E14.6342
G1 X92.431 Y90.2 E14.64333
G1 X127.569 Y90.2 E15.68218
G1 X127.877 Y90.224 E15.69132
G1 X128.222 Y90.308 E15.70181
G1 X128.555 Y90.446 E15.71247
G1 X128.863 Y90.633 E15.72312
G1 X129.134 Y90.865 E15.73367
G1 X129.368 Y91.139 E15.74432
G1 X129.554 Y91.442 E15.75484
G1 X129.692 Y91.776 E15.76552
G1 X129.775 Y92.122 E15.77604
G1 X129.8 Y92.438 E15.78541
G1 X129.8 Y127.562 E16.82385
G1 X129.775 Y127.878 E16.83322
G1 X129.692 Y128.224 E16.84374
G1 X129.554 Y128.558 E16.85443
G1 X129.368 Y128.861 E16.86494
G1 X129.134 Y129.135 E16.87559
G1 X128.863 Y129.367 E16.88614
G1 X128.555 Y129.554 E16.89679
G1 X128.222 Y129.692 E16.90745
G1 X127.877 Y129.776 E16.91794
G1 X127.569 Y129.8 E16.92708
G0 F6000 X127.552 Y129.361
G0 X127.536 Y129.273
G1 F2400 E10.42708
G0 F6000 X126.291 Y128.88
G0 X126.288 Y127.815
G0 X122.625 Y123.074
G0 X121.993 Y122.1
G0 X119.543 Y121.919
;TYPE:WALL-INNER
G1 F2400 E16.92708
G1 F1200 X119.546 Y119.746 E16.99132
G1 X119.546 Y119.547 E16.99721
G1 X119.745 Y119.547 E17.00101
G1 X121.916 Y119.55 E17.0652
G1 X121.919 Y120.733 E17.10017
G1 X121.916 Y121.919 E17.13524
G1 X120.723 Y121.922 E17.17051
G1 X119.543 Y121.919 E17.2054
G0 F6000 X119.375 Y122.32
;TYPE:WALL-OUTER
G1 F1200 X119.151 Y122.288 E17.21209
G1 X119.147 Y122.212 E17.21434
G1 X119.143 Y121.918 E17.22303
G1 X119.147 Y119.175 E17.30413
G1 X119.182 Y119.147 E17.30545
G1 X121.935 Y119.15 E17.38684
G1 X122.228 Y119.155 E17.39551
G1 X122.307 Y119.185 E17.398
G1 X122.315 Y119.374 E17.4036
G1 X122.319 Y120.734 E17.44381
G1 X122.315 Y122.09 E17.4839
G1 X122.293 Y122.308 E17.49037
G1 X122.001 Y122.319 E17.49901
G1 X120.723 Y122.322 E17.5368
G1 X119.375 Y122.32 E17.57665
G0 F6000 X119.583 Y121.882
G0 X119.933 Y121.53
;TYPE:SKIN
G1 F1200 X119.936 Y119.937 E17.62375
G1 X121.527 Y119.94 E17.67079
G1 X121.529 Y120.732 E17.6942
G1 X121.527 Y121.53 E17.71779
G1 X120.722 Y121.532 E17.74159
G1 X119.933 Y121.53 E17.76492
G0 F6000 X120.334 Y121.13
;TYPE:SKIN
G1 F1200 X120.564 Y121.13 E17.77172
G1 X120.722 Y121.13 E17.77639
G1 X121.127 Y121.13 E17.78837
G0 F6000 X121.128 Y121.128
G1 F1200 X120.338 Y120.338 E17.8214
G1 X120.905 Y120.339 E17.83816
G1 X121.127 Y120.339 E17.84472
G0 F6000 X121.128 Y120.563
G1 F1200 X120.905 Y120.339 E17.85407
G0 F6000 X120.334 Y120.899
G1 F1200 X120.564 Y121.13 E17.86371
G0 F6000 X120.562 Y121.722
G1 F2400 E11.36371
G0 F6000 X120.562 Y121.811
G0 X121.735 Y121.738
G0 X122.095 Y119.373
G0 X122.094 Y117.46
G0 X124.087 Y117.383
;TYPE:WALL-INNER
G1 F2400 E17.86371
G1 F1200 X123.873 Y117.172 E17.87259
G1 X124.295 Y117.172 E17.87884
G1 X124.294 Y117.589 E17.89117
G1 X124.087 Y117.383 E17.8937
G0 F6000 X124.288 Y123.642
G1 F1200 X124.288 Y123.931 E17.90224
G1 X124.288 Y124.293 E17.91294
G1 X124.253 Y124.293
G1 X124.164 Y124.295 E17.91558
G1 X123.831 Y124.295 E17.92542
G1 X124.019 Y124.13 E17.92696
G1 X124.09 Y124.068 E17.9274
G1 X124.247 Y123.931 E17.92911
G1 X124.288 Y123.642 E17.9296
G0 F6000 X123.729 Y124.036
G0 X117.68 Y124.041
G0 X117.167 Y123.864
G1 F1200 X117.38 Y124.102 E17.93904
G1 X117.552 Y124.294 E17.94666
G1 X117.169 Y124.292 E17.95238
G1 X117.167 Y123.864 E17.95837
G0 F6000 X117.434 Y117.717
G0 X117.818 Y117.175
G1 F1200 X117.484 Y117.247 E17.96847
G1 X117.467 Y117.267 E17.96925
G1 X117.389 Y117.361 E17.97286
G1 X117.175 Y117.616 E17.9827
G1 X117.169 Y117.747 E17.98658
G1 X117.169 Y117.616 E17.98661
G1 X117.169 Y117.247 E17.99086
G1 X117.17 Y117.178 E17.99187
G1 X117.355 Y117.175 E17.99542
G1 X117.484 Y117.175 E17.99676
G1 X117.818 Y117.175 E17.99761
G1 F2400 E11.49761
G0 F6000 X117.434 Y117.717
G0 X117.414 Y123.745
G0 X117.592 Y124.037
G0 X117.741 Y123.905
;TYPE:WALL-OUTER
G1 F2400 E17.99761
G1 F1200 X122.243 Y123.907 E18.13071
G1 X123.677 Y123.899 E18.17311
G1 X123.872 Y123.728 E18.18078
G1 X123.889 Y123.609 E18.18433
G1 X123.897 Y123.265 E18.19451
G1 X123.905 Y120.017 E18.29053
G1 X123.907 Y117.768 E18.35702
G1 X123.697 Y117.56 E18.36576
G1 X118.258 Y117.563 E18.52657
G1 X117.883 Y117.57 E18.53765
G1 X117.703 Y117.609 E18.5431
G1 X117.569 Y117.769 E18.54927
G1 X117.559 Y118.001 E18.55614
G1 X117.554 Y119.069 E18.58771
G1 X117.551 Y121.459 E18.65837
G1 X117.551 Y123.693 E18.72442
G1 X117.741 Y123.905 E18.73284
G0 F6000 X117.592 Y124.037
G0 X116.94 Y124.519
G0 X116.77 Y124.678
G1 F1200 X116.766 Y123.537 E18.76657
G1 X116.77 Y116.785 E18.96619
G1 X116.832 Y116.782 E18.96803
G1 X117.35 Y116.775 E18.98334
G1 X124.669 Y116.772 E19.19973
G1 X124.695 Y116.803 E19.20093
G1 X124.688 Y124.675 E19.43366
G1 X124.64 Y124.687 E19.43512
G1 X124.171 Y124.695 E19.44899
G1 X120.731 Y124.698 E19.5507
G1 X117.342 Y124.694 E19.65089
G1 X116.86 Y124.689 E19.66514
G1 X116.77 Y124.678 E19.66782
G0 F6000 X117.694 Y124.482
;TYPE:SKIN
G1 F1200 X117.815 Y124.321 E19.67387
G1 X120.624 Y124.3 E19.75817
G1 X123.448 Y124.297 E19.84292
G1 X124.081 Y123.515 E19.87311
G1 X124.292 Y123.161 E19.88548
G1 X124.299 Y118.077 E20.03805
G1 X124.496 Y117.708 E20.0506
G0 F6000 X123.388 Y117.165
G1 F1200 X123.105 Y117.165 E20.05928
G1 X118.299 Y117.168 E20.20665
G1 X117.927 Y117.361 E20.2195
G1 X117.219 Y118.067 E20.25015
G1 X117.161 Y118.858 E20.27447
G1 X117.158 Y123.38 E20.41313
G1 X116.958 Y123.746 E20.42592
G0 F6000 X116.976 Y123.764
G0 X117.434 Y117.717
G0 X117.628 Y117.485
G0 X123.693 Y117.188
G0 X123.573 Y117.067
G1 F1200 X123.755 Y116.967 E20.4318
G0 F6000 X123.89 Y117.091
G1 F2400 E13.9318
G0 F6000 X121.925 Y116.874
G0 X122.637 Y118.394
G0 X125.56 Y105.543
G0 X124.567 Y105.515
G0 X123.379 Y105.515
G0 X123.379 Y106.703
G0 X122.191 Y106.703
G0 X121.924 Y112.387
;TYPE:WALL-INNER
G1 F2400 E20.4318
G1 F1200 X121.911 Y112.387 E20.43218
G1 X121.911 Y111.2 E20.46727
G1 X120.723 Y111.2 E20.5024
G1 X120.723 Y108.827 E20.57255
G1 X121.911 Y108.827 E20.60768
G1 X121.911 Y106.436 E20.67837
G1 X121.911 Y105.251 E20.7134
G1 X123.112 Y105.251 E20.74891
G1 X123.112 Y106.436 E20.78394
G1 X121.924 Y106.436 E20.81907
G1 X121.924 Y108.827 E20.82137
G1 X121.924 Y111.2 E20.89153
G1 X121.924 Y112.387 E20.89267
G0 F6000 X122.319 Y112.782
;TYPE:WALL-OUTER
G1 F1200 X121.516 Y112.782 E20.91641
G1 X121.516 Y111.595 E20.95151
G1 X120.328 Y111.595 E20.98663
G1 X120.328 Y110.407 E21.02175
G1 X119.139 Y110.407 E21.0569
G1 X119.139 Y109.62 E21.08017
G1 X120.328 Y109.62 E21.11532
G1 X120.328 Y108.432 E21.15045
G1 X121.516 Y108.432 E21.18557
G1 X121.516 Y106.83 E21.23293
G1 X119.936 Y106.839 E21.27965
G1 X119.929 Y108.031 E21.31489
G1 X119.145 Y108.027 E21.33807
G1 X119.131 Y106.839 E21.37319
G1 X117.951 Y106.832 E21.40808
G1 X117.951 Y105.642 E21.44326
G1 X116.357 Y105.651 E21.49039
G1 X116.351 Y106.831 E21.52528
G1 X115.561 Y106.831 E21.54863
G1 X115.561 Y105.643 E21.58376
G1 X114.373 Y105.643 E21.61888
G1 X114.373 Y104.456 E21.65397
G1 X113.183 Y104.456 E21.68916
G1 X113.177 Y103.262 E21.72446
G1 X110.402 Y103.262 E21.8065
G1 X110.394 Y105.643 E21.87689
G1 X109.606 Y105.643 E21.90019
G1 X109.606 Y104.456 E21.93529
G1 X108.417 Y104.456 E21.97044
G1 X108.417 Y103.654 E21.99415
G1 X109.606 Y103.654 E22.0293
G1 X109.606 Y100.88 E22.11131
G1 X108.017 Y100.88 E22.15829
G1 X108.017 Y102.067 E22.19339
G1 X107.216 Y102.067 E22.21707
G1 X107.216 Y100.88 E22.25216
G1 X105.627 Y100.88 E22.29914
G1 X105.627 Y102.467 E22.34606
G1 X106.816 Y102.467 E22.38121
G1 X106.816 Y103.255 E22.40451
G1 X105.635 Y103.263 E22.43943
G1 X105.628 Y105.644 E22.50982
G1 X103.245 Y105.651 E22.58028
G1 X103.238 Y108.032 E22.65067
G1 X102.449 Y108.032 E22.674
G1 X102.449 Y106.831 E22.7095
G1 X101.261 Y106.831 E22.74463
G1 X101.261 Y105.643 E22.77975
G1 X100.071 Y105.643 E22.81493
G1 X100.064 Y103.263 E22.8853
G1 X98.883 Y103.255 E22.92021
G1 X98.876 Y102.074 E22.95513
G1 X97.29 Y102.074 E23.00202
G1 X97.282 Y103.254 E23.03691
G1 X95.305 Y103.254 E23.09536
G1 X95.305 Y101.28 E23.15372
G1 X96.493 Y101.28 E23.18884
G1 X96.493 Y100.092 E23.22397
