;FLAVOR:Marlin
;TIME:2703
;Filament used: 1.87041m
;Layer height: 0.2
;MINX:87.2
;MINY:87.2
;MINZ:0.2
;MAXX:132.8
;MAXY:132.8
;MAXZ:7.5
;Generated with Cura_SteamEngine 4.9.0
M82 ;absolute extrusion mode
; Ender 3 Custom Start G-code
M117 Warming Print Bed
M301 P24.63 I2.05 D74.05
M304 P134.53 I26.22 D460.11
M140 S80 ; Set Heat Bed temperature
M190 S80 ; Wait for Heat Bed temperature
M104 S160; start warming extruder to 160
M117 Homing all axes
G28 ; Home all axes
M117 Beginning Bed Leveling
G29 ; Auto bed-level (BL-Touch)
G92 E0 ; Reset Extruder
M117 Warming Extruder
M104 S200 ; Set Extruder temperature
G1 X0.1 Y20 Z0.3 F5000.0 ; Move to start position
M109 S200 ; Wait for Extruder temperature
; G1 Z2.0 F3000 ; Move Z Axis up little to prevent scratching of Heat Bed
G1 X0.1 Y200.0 Z0.3 F1500.0 E15 ; Draw the first line
G1 X0.4 Y200.0 Z0.3 F5000.0 ; Move to side a little
G1 X0.4 Y20 Z0.3 F1500.0 E30 ; Draw the second line
G92 E0 ; Reset Extruder
G1 Z2.0 F3000 ; Move Z Axis up little to prevent scratching of Heat Bed
; End of custom start GCode
G92 E0
G92 E0
G1 F1380 E-5
;LAYER_COUNT:35
;LAYER:0
M106 S127.5
G1 F300 Z0.7
;MESH:QR Code.stl
G0 F6000 X91.513 Y131.602 Z0.7
;TYPE:WALL-INNER
G1 F300 Z0.2
G1 F1380 E0
G1 F1200 X128.487 Y131.602 E1.09313
G1 X128.9 Y131.569 E1.10538
G1 X129.391 Y131.453 E1.1203
G1 X129.857 Y131.259 E1.13522
G1 X130.286 Y130.995 E1.15012
G1 X130.669 Y130.669 E1.16498
G1 X130.996 Y130.286 E1.17987
G1 X131.258 Y129.856 E1.19476
G1 X131.452 Y129.392 E1.20963
G1 X131.568 Y128.901 E1.22455
G1 X131.602 Y128.485 E1.23689
G1 X131.602 Y91.515 E2.3299
G1 X131.568 Y91.099 E2.34224
G1 X131.452 Y90.609 E2.35713
G1 X131.258 Y90.144 E2.37202
G1 X130.996 Y89.714 E2.38691
G1 X130.669 Y89.332 E2.40178
G1 X130.286 Y89.003 E2.41671
G1 X129.856 Y88.741 E2.43159
G1 X129.391 Y88.547 E2.44649
G1 X128.9 Y88.43 E2.46141
G1 X128.486 Y88.398 E2.47369
G1 X91.514 Y88.398 E3.56676
G1 X91.1 Y88.43 E3.57904
G1 X90.609 Y88.547 E3.59396
G1 X90.144 Y88.741 E3.60886
G1 X89.714 Y89.003 E3.62375
G1 X89.331 Y89.332 E3.63867
G1 X89.005 Y89.714 E3.65352
G1 X88.74 Y90.144 E3.66845
G1 X88.548 Y90.609 E3.68333
G1 X88.431 Y91.099 E3.69822
G1 X88.398 Y91.513 E3.7105
G1 X88.398 Y128.487 E4.80363
G1 X88.431 Y128.901 E4.81591
G1 X88.548 Y129.392 E4.83083
G1 X88.741 Y129.856 E4.84569
G1 X89.005 Y130.286 E4.86061
G1 X89.331 Y130.669 E4.87548
G1 X89.714 Y130.995 E4.89035
G1 X90.143 Y131.259 E4.90524
G1 X90.609 Y131.453 E4.92017
G1 X91.1 Y131.569 E4.93508
G1 X91.513 Y131.602 E4.94733
G1 F1380 E-0.05267
G1 F300 Z0.7
G0 F6000 X91.529 Y131.202 Z0.7
;TYPE:WALL-OUTER
G1 F300 Z0.2
G1 F1380 E4.94733
G1 F1200 X128.471 Y131.202 E6.03952
G1 X128.838 Y131.173 E6.0504
G1 X129.267 Y131.071 E6.06344
G1 X129.674 Y130.902 E6.07647
G1 X130.05 Y130.671 E6.08952
G1 X130.385 Y130.385 E6.10254
G1 X130.671 Y130.05 E6.11556
G1 X130.901 Y129.674 E6.12859
G1 X131.07 Y129.268 E6.14159
G1 X131.172 Y128.838 E6.15466
G1 X131.202 Y128.469 E6.16561
G1 X131.202 Y91.531 E7.25767
G1 X131.172 Y91.162 E7.26862
G1 X131.07 Y90.733 E7.28166
G1 X130.901 Y90.326 E7.29469
G1 X130.671 Y89.95 E7.30772
G1 X130.385 Y89.615 E7.32074
G1 X130.05 Y89.328 E7.33378
G1 X129.674 Y89.098 E7.34681
G1 X129.267 Y88.929 E7.35984
G1 X128.838 Y88.826 E7.37289
G1 X128.471 Y88.798 E7.38377
G1 X91.529 Y88.798 E8.47596
G1 X91.162 Y88.826 E8.48684
G1 X90.733 Y88.929 E8.49988
G1 X90.326 Y89.098 E8.51291
G1 X89.95 Y89.328 E8.52594
G1 X89.615 Y89.615 E8.53898
G1 X89.329 Y89.95 E8.55201
G1 X89.098 Y90.326 E8.56505
G1 X88.93 Y90.733 E8.57807
G1 X88.827 Y91.162 E8.59111
G1 X88.798 Y91.529 E8.602
G1 X88.798 Y128.471 E9.69419
G1 X88.827 Y128.838 E9.70507
G1 X88.93 Y129.268 E9.71814
G1 X89.098 Y129.674 E9.73113
G1 X89.329 Y130.05 E9.74418
G1 X89.615 Y130.385 E9.7572
G1 X89.95 Y130.671 E9.77023
G1 X90.326 Y130.902 E9.78327
G1 X90.733 Y131.071 E9.7963
G1 X91.162 Y131.173 E9.80934
G1 X91.529 Y131.202 E9.82022
G0 F6000 X91.512 Y131.641
G1 F1380 E4.82022
G1 F300 Z0.7
G0 F6000 X132.4 Y132.4 Z0.7
;TYPE:WALL-INNER
G1 F300 Z0.2
G1 F1380 E9.82022
G1 F1200 X87.6 Y132.4 E11.14473
G1 X87.6 Y87.6 E12.46924
G1 X132.4 Y87.6 E13.79375
G1 X132.4 Y132.4 E15.11826
G1 F1380 E10.11826
G1 F300 Z0.7
G0 F6000 X132.8 Y132.8 Z0.7
;TYPE:WALL-OUTER
G1 F300 Z0.2
G1 F1380 E15.11826
G1 F1200 X87.2 Y132.8 E16.46642
G1 X87.2 Y87.2 E17.81458
G1 X132.8 Y87.2 E19.16274
G1 X132.8 Y132.8 E20.5109
G1 F1380 E15.5109
G1 F300 Z0.7
G0 F6000 X132.01 Y132.01 Z0.7
;TYPE:SKIN
G1 F300 Z0.2
G1 F1380 E20.5109
G1 F1200 X87.99 Y132.01 E21.81235
G1 X87.99 Y87.99 E23.1138
G1 X132.01 Y87.99 E24.41525
G1 X132.01 Y132.01 E25.7167
G1 F1380 E20.7167
G1 F300 Z0.7
G0 F6000 X130.946 Y130.946 Z0.7
G1 F300 Z0.2
G1 F1380 E25.7167
G1 F1200 X131.312 Y130.516 E25.73339
G1 X131.607 Y130.034 E25.7501
G1 X131.824 Y129.513 E25.76678
G1 X131.954 Y128.962 E25.78352
G1 X131.992 Y128.501 E25.7972
G1 X131.992 Y91.499 E26.89116
G1 X131.954 Y91.038 E26.90484
G1 X131.824 Y90.488 E26.92154
G1 X131.607 Y89.966 E26.93826
G1 X131.312 Y89.484 E26.95496
G1 X130.946 Y89.055 E26.97164
G1 X130.516 Y88.687 E26.98837
G1 X130.034 Y88.392 E27.00508
G1 X129.512 Y88.175 E27.02179
G1 X128.961 Y88.044 E27.03853
G1 X128.501 Y88.008 E27.05218
G1 X91.499 Y88.008 E28.14614
G1 X91.039 Y88.044 E28.15978
G1 X90.488 Y88.175 E28.17652
G1 X89.966 Y88.392 E28.19324
G1 X89.484 Y88.687 E28.20994
G1 X89.054 Y89.055 E28.22668
G1 X88.689 Y89.484 E28.24333
G1 X88.391 Y89.966 E28.26008
G1 X88.176 Y90.488 E28.27677
G1 X88.045 Y91.038 E28.29349
G1 X88.008 Y91.497 E28.3071
G1 X88.008 Y128.503 E29.40118
G1 X88.045 Y128.962 E29.4148
G1 X88.176 Y129.513 E29.43154
G1 X88.392 Y130.034 E29.44822
G1 X88.689 Y130.516 E29.46496
G1 X89.054 Y130.946 E29.48163
G1 X89.484 Y131.311 E29.49831
G1 X89.965 Y131.608 E29.51502
G1 X90.488 Y131.825 E29.53176
G1 X91.039 Y131.955 E29.5485
G1 X91.497 Y131.992 E29.56208
G1 X128.503 Y131.992 E30.65616
G1 X128.961 Y131.955 E30.66975
G1 X129.512 Y131.825 E30.68649
G1 X130.035 Y131.608 E30.70323
G1 X130.516 Y131.311 E30.71994
G1 X130.946 Y130.946 E30.73661
G1 F1380 E25.73661
G1 F300 Z0.7
G0 F6000 X131.649 Y89.222 Z0.7
G1 F300 Z0.2
G1 F1380 E30.73661
G1 F1200 X131.649 Y88.657 E30.75332
G1 X131.342 Y88.35 E30.76615
G1 X131.649 Y88.35 E30.77523
G1 F1380 E25.77523
G1 F300 Z0.7
G0 F6000 X131.649 Y89.222 Z0.7
G1 F300 Z0.2
G1 F1380 E30.77523
G1 F1200 X131.649 Y89.347 E30.77893
G1 X131.603 Y89.271 E30.78155
G1 X131.2 Y88.799 E30.7999
G1 X130.727 Y88.395 E30.81829
G1 X130.654 Y88.349 E30.82084
G0 F6000 X130.776 Y88.35
G1 F1200 X131.649 Y89.222 E30.85732
G1 F1380 E25.85732
G1 F300 Z0.7
G0 F6000 X131.46 Y130.894 Z0.7
G1 F300 Z0.2
G1 F1380 E30.85732
G1 F1200 X131.603 Y130.727 E30.86382
G1 X131.649 Y130.653 E30.8664
G1 F1380 E25.8664
G1 F300 Z0.7
G0 F6000 X131.649 Y131.084 Z0.7
G1 F300 Z0.2
G1 F1380 E30.8664
G1 F1200 X131.46 Y130.894 E30.87432
G1 X131.2 Y131.2 E30.8862
G1 X131.649 Y131.649 E30.90497
G1 X131.083 Y131.649 E30.9217
G1 X130.652 Y131.649 E30.93445
G1 X130.728 Y131.602 E30.93709
G1 F1380 E25.93709
G1 F300 Z0.7
G0 F6000 X130.895 Y131.461 Z0.7
G1 F300 Z0.2
G1 F1380 E30.93709
G1 F1200 X131.083 Y131.649 E30.94495
G1 F1380 E25.94495
G1 F300 Z0.7
G0 F6000 X89.347 Y131.649 Z0.7
G1 F300 Z0.2
G1 F1380 E30.94495
G1 F1200 X89.272 Y131.602 E30.94756
G1 X88.797 Y131.201 E30.96594
G1 X88.396 Y130.727 E30.9843
G1 X88.349 Y130.651 E30.98694
G1 X88.349 Y130.775 E30.99061
G1 X88.349 Y131.341 E31.00734
G1 X88.657 Y131.649 E31.02022
G1 X88.35 Y131.649 E31.02929
G1 F1380 E26.02929
G1 F300 Z0.7
G0 F6000 X89.222 Y131.649 Z0.7
G1 F300 Z0.2
G1 F1380 E31.02929
G1 F1200 X88.349 Y130.775 E31.06582
G1 F1380 E26.06582
G1 F300 Z0.7
G0 F6000 X88.35 Y89.347 Z0.7
G1 F300 Z0.2
G1 F1380 E31.06582
G1 F1200 X88.396 Y89.27 E31.06847
G1 X88.538 Y89.104 E31.07493
G1 X88.797 Y88.799 E31.08676
G0 F6000 X88.798 Y88.798
G1 F1200 X88.349 Y88.349 E31.10553
G1 X88.915 Y88.35 E31.12226
G1 X89.344 Y88.35 E31.13495
G1 X89.271 Y88.394 E31.13747
G1 F1380 E26.13747
G1 F300 Z0.7
G0 F6000 X89.103 Y88.537 Z0.7
G1 F300 Z0.2
G1 F1380 E31.13747
G1 F1200 X88.915 Y88.35 E31.14531
G1 F1380 E26.14531
G1 F300 Z0.7
G0 F6000 X88.349 Y88.915 Z0.7
G1 F300 Z0.2
G1 F1380 E31.14531
G1 F1200 X88.538 Y89.104 E31.15321
G1 F1380 E26.15321
G1 F300 Z0.7
G0 F6000 X88.087 Y91.764 Z0.7
;TYPE:SKIN
G1 F300 Z0.2
G1 F1380 E31.15321
G1 F1200 X87.998 Y91.958 E31.16031
G1 X87.998 Y127.879 E32.35517
G1 X87.849 Y128.295 E32.36987
G1 F1380 E27.36987
G1 F300 Z0.7
G0 F6000 X91.85 Y132.014 Z0.7
G1 F300 Z0.2
G1 F1380 E32.36987
G1 F1200 X92.119 Y132 E32.3789
G1 X128.04 Y132 E33.5823
G1 X128.234 Y131.911 E33.58946
G1 F1380 E28.58946
G1 F300 Z0.7
G0 F6000 X131.909 Y128.232 Z0.7
G1 F300 Z0.2
G1 F1380 E33.58946
G1 F1200 X132 Y128.04 E33.59652
G1 X132 Y92.119 E34.79016
G1 X132.151 Y91.705 E34.8048
G1 F1380 E29.8048
G1 F300 Z0.7
G0 F6000 X128.149 Y87.986 Z0.7
G1 F300 Z0.2
G1 F1380 E34.8048
G1 F1200 X127.879 Y87.998 E34.81385
G1 X91.958 Y87.998 E36.01637
G1 X91.763 Y88.086 E36.02353
G1 F1380 E31.02353
G1 F300 Z0.7
G0 F6000 X128.221 Y87.775 Z0.7
G1 F300 Z0.2
G1 F1380 E36.02353
G1 F1200 X128.37 Y87.924 E36.02665
G1 F1380 E31.02665
G1 F300 Z0.7
G0 F6000 X91.629 Y132.075 Z0.7
G1 F300 Z0.2
G1 F1380 E36.02665
G1 F1200 X91.777 Y132.224 E36.02975
G1 F1380 E31.02975
G1 F300 Z0.7
G0 F6000 X119.811 Y123.747 Z0.7
;TYPE:WALL-INNER
G1 F300 Z0.2
G1 F1380 E36.02975
G1 F1200 X121.248 Y123.749 E36.07224
G1 X121.259 Y123.75 E36.07256
G1 X122.615 Y123.746 E36.11265
G1 X122.939 Y123.739 E36.12223
G1 X123.34 Y123.635 E36.13448
G1 X123.422 Y123.541 E36.13817
G1 X123.686 Y123.24 E36.15001
G1 X123.742 Y122.729 E36.16521
G1 X123.746 Y121.273 E36.20825
G1 X123.742 Y119.825 E36.25106
G1 X123.715 Y119.411 E36.26333
G1 X123.491 Y119.043 E36.27607
G1 X123.158 Y118.823 E36.28787
G1 X122.878 Y118.804 E36.29616
G1 X122.541 Y118.799 E36.30613
G1 X121.266 Y118.798 E36.34382
G1 X119.446 Y118.796 E36.39763
G1 X119.073 Y119.005 E36.41027
G1 X118.795 Y119.38 E36.42407
G1 X118.795 Y119.497 E36.42753
G1 X118.79 Y121.539 E36.4879
G1 X118.793 Y122.772 E36.52436
G1 X118.81 Y123.117 E36.53457
G1 X118.999 Y123.455 E36.54602
G1 X119.318 Y123.697 E36.55786
G1 X119.811 Y123.747 E36.57251
G1 F1380 E31.57251
G1 F300 Z0.7
G0 F6000 X119.832 Y123.347 Z0.7
;TYPE:WALL-OUTER
G1 F300 Z0.2
G1 F1380 E36.57251
G1 F1200 X121.259 Y123.35 E36.6147
G1 X122.61 Y123.346 E36.65464
G1 X122.884 Y123.34 E36.66274
G1 X123.12 Y123.279 E36.66995
G1 X123.302 Y123.071 E36.67812
G1 X123.342 Y122.707 E36.68895
G1 X123.346 Y121.273 E36.73134
G1 X123.342 Y119.839 E36.77374
G1 X123.322 Y119.535 E36.78274
G1 X123.196 Y119.327 E36.78993
G1 X123.026 Y119.215 E36.79595
G1 X122.862 Y119.204 E36.80081
G1 X122.538 Y119.199 E36.81039
G1 X119.55 Y119.196 E36.89873
G1 X119.343 Y119.312 E36.90575
G1 X119.195 Y119.512 E36.9131
G1 X119.19 Y121.539 E36.97303
G1 X119.193 Y122.762 E37.00919
G1 X119.205 Y123.004 E37.01635
G1 X119.307 Y123.187 E37.02255
G1 X119.47 Y123.31 E37.02859
G1 X119.832 Y123.347 E37.03934
G0 F6000 X119.81 Y123.786
G1 F1380 E32.03934
G1 F300 Z0.7
G0 F6000 X118.74 Y123.792 Z0.7
;TYPE:WALL-INNER
G1 F300 Z0.2
G1 F1380 E37.03934
G1 F1200 X118.74 Y123.455 E37.04792
G1 X118.74 Y123.117 E37.05182
G1 X118.74 Y122.772 E37.05339
G1 X118.741 Y121.539 E37.05805
G1 X118.742 Y119.497 E37.06579
G1 X118.742 Y119.38 E37.06625
G1 X118.743 Y119.004 E37.07121
G1 X118.745 Y118.753 E37.07863
G1 X119.072 Y118.753 E37.08696
G1 X119.445 Y118.753 E37.09077
G1 X121.266 Y118.749 E37.09699
G1 X122.541 Y118.749 E37.10167
G1 X122.878 Y118.749 E37.10298
G1 X123.158 Y118.749 E37.10432
G1 X123.491 Y118.749 E37.10858
G1 X123.793 Y118.749 E37.11751
G1 X123.793 Y119.043 E37.12524
G1 X123.793 Y119.411 E37.13017
G1 X123.793 Y119.825 E37.13215
G1 X123.791 Y121.278 E37.13743
G1 X123.787 Y122.729 E37.14226
G1 X123.785 Y123.24 E37.1451
G1 X123.784 Y123.641 E37.15278
G1 X123.783 Y123.79 E37.15719
G1 X123.512 Y123.793 E37.1652
G1 X123.388 Y123.793 E37.16789
G1 X123.34 Y123.793 E37.16888
G1 X122.939 Y123.793 E37.17197
G1 X122.616 Y123.793 E37.17316
G1 X121.26 Y123.794 E37.17776
G1 X121.248 Y123.795 E37.17782
G1 X119.811 Y123.795 E37.18282
G1 X119.318 Y123.794 E37.18557
G1 X118.999 Y123.793 E37.19154
G1 X118.74 Y123.792 E37.1992
G1 F1380 E32.1992
G1 F300 Z0.7
G0 F6000 X118.34 Y124.191 Z0.7
;TYPE:WALL-OUTER
G1 F300 Z0.2
G1 F1380 E37.1992
G1 F1200 X118.342 Y119.495 E37.33803
G1 X118.346 Y118.538 E37.36633
G1 X118.351 Y118.359 E37.37162
G1 X118.678 Y118.353 E37.38129
G1 X121.265 Y118.349 E37.45778
G1 X124.193 Y118.349 E37.54434
G1 X124.191 Y121.278 E37.63094
G1 X124.183 Y123.921 E37.70908
G1 X124.176 Y124.187 E37.71695
G1 X123.391 Y124.193 E37.74016
G1 X121.248 Y124.195 E37.80351
G1 X118.34 Y124.191 E37.88949
G1 F1380 E32.88949
G1 F300 Z0.7
G0 F6000 X117.208 Y126.237 Z0.7
;TYPE:WALL-INNER
G1 F300 Z0.2
G1 F1380 E37.88949
G1 F1200 X117.863 Y126.243 E37.90885
G1 X122.125 Y126.245 E38.03486
G1 X124.889 Y126.241 E38.11658
G1 X125.433 Y126.232 E38.13266
G1 X125.784 Y126.173 E38.14319
G1 X126.234 Y125.719 E38.16208
G1 X126.241 Y116.946 E38.42146
G1 X126.023 Y116.562 E38.43451
G1 X125.639 Y116.302 E38.44822
G1 X122.546 Y116.302 E38.53967
G1 X122.483 Y116.302 E38.54153
G1 X120.037 Y116.302 E38.61385
G1 X118.741 Y116.303 E38.65216
G1 X117.712 Y116.304 E38.68258
G1 X117.132 Y116.312 E38.69973
G1 X116.764 Y116.352 E38.71068
G1 X116.579 Y116.535 E38.71837
G1 X116.299 Y116.812 E38.73002
G1 X116.295 Y121.243 E38.86102
G1 X116.295 Y121.289 E38.86238
G1 X116.296 Y124.513 E38.9577
G1 X116.297 Y124.997 E38.972
G1 X116.299 Y125.634 E38.99084
G1 X116.511 Y125.972 E39.00263
G1 X116.829 Y126.207 E39.01432
G1 X117.208 Y126.237 E39.02556
G1 F1380 E34.02556
G1 F300 Z0.7
G0 F6000 X117.226 Y125.837 Z0.7
;TYPE:WALL-OUTER
G1 F300 Z0.2
G1 F1380 E39.02556
G1 F1200 X117.865 Y125.843 E39.04446
G1 X122.125 Y125.845 E39.1704
G1 X124.886 Y125.841 E39.25203
G1 X125.396 Y125.833 E39.26711
G1 X125.59 Y125.8 E39.27293
G1 X125.834 Y125.554 E39.28317
G1 X125.841 Y117.052 E39.53454
G1 X125.721 Y116.841 E39.54171
G1 X125.516 Y116.702 E39.54903
G1 X117.715 Y116.704 E39.77967
G1 X117.157 Y116.712 E39.79617
G1 X116.946 Y116.735 E39.80244
G1 X116.699 Y116.979 E39.81271
G1 X116.695 Y121.243 E39.93877
G1 X116.696 Y124.513 E40.03545
G1 X116.699 Y125.518 E40.06516
G1 X116.81 Y125.695 E40.07134
G1 X116.975 Y125.817 E40.07741
G1 X117.226 Y125.837 E40.08485
G0 F6000 X117.207 Y126.276
G1 F1380 E35.08485
G1 F300 Z0.7
G0 F6000 X123.793 Y113.793 Z0.7
;TYPE:WALL-INNER
G1 F300 Z0.2
G1 F1380 E40.08485
G1 F1200 X123.746 Y113.793 E40.08624
G1 X122.546 Y113.793 E40.12172
G1 X122.546 Y116.24 E40.19331
G1 X125.639 Y116.24 E40.20752
G1 X126.023 Y116.24 E40.21266
G1 X126.241 Y116.24 E40.21884
G1 X126.241 Y108.79 E40.4391
G1 X123.81 Y108.79 E40.51097
G1 X123.793 Y108.79 E40.51147
G1 X123.793 Y113.732 E40.65701
G1 X123.793 Y113.793 E40.65805
G1 F1380 E35.65805
G1 F300 Z0.7
G0 F6000 X124.193 Y114.193 Z0.7
;TYPE:WALL-OUTER
G1 F300 Z0.2
G1 F1380 E40.65805
G1 F1200 X122.946 Y114.193 E40.69492
G1 X122.946 Y115.84 E40.74361
G1 X125.841 Y115.84 E40.8292
G1 X125.841 Y109.19 E41.02581
G1 X124.193 Y109.19 E41.07453
G1 X124.193 Y114.193 E41.22244
G1 F1380 E36.22244
G1 F300 Z0.7
G0 F6000 X121.283 Y112.546 Z0.7
;TYPE:WALL-INNER
G1 F300 Z0.2
G1 F1380 E41.22244
G1 F1200 X120.036 Y112.546 E41.25931
G1 X119.988 Y112.546 E41.26073
G1 X119.988 Y112.485 E41.26177
G1 X119.988 Y111.285 E41.29725
G1 X118.788 Y111.285 E41.33273
G1 X118.74 Y111.285 E41.33415
G1 X117.481 Y111.285 E41.37137
G1 X117.481 Y111.242 E41.37264
G1 X118.74 Y111.235 E41.37698
G1 X118.74 Y108.791 E41.44924
G1 X117.48 Y108.788 E41.48649
G1 X117.479 Y108.74 E41.48791
G1 X118.73 Y108.733 E41.49286
G1 X118.737 Y107.485 E41.52976
G1 X118.787 Y107.486 E41.53123
G1 X118.802 Y108.733 E41.53691
G1 X120.036 Y108.74 E41.57339
G1 X120.036 Y108.79 E41.57487
G1 X118.802 Y108.79 E41.57976
G1 X118.788 Y108.79 E41.58
G1 X118.788 Y111.238 E41.58875
G1 X119.988 Y111.238 E41.59293
G1 X120.036 Y111.238 E41.59374
G1 X120.036 Y111.285 E41.59453
G1 X120.036 Y112.485 E41.59879
G1 X121.283 Y112.485 E41.60443
G1 X121.283 Y112.546 E41.60623
G1 F1380 E36.60623
G1 F300 Z0.7
G0 F6000 X121.683 Y112.946 Z0.7
;TYPE:WALL-OUTER
G1 F300 Z0.2
G1 F1380 E41.60623
