;FLAVOR:Marlin
;TIME:2716
;Filament used: 1.26351m
;Layer height: 0.2
;MINX:84.573
;MINY:97.069
;MINZ:0.2
;MAXX:135.423
;MAXY:122.931
;MAXZ:39.4
;POSTPROCESSED
;Generated with Cura_SteamEngine 4.9.0
M82 ;absolute extrusion mode
; Ender 3 Custom Start G-code
M117 Warming Print Bed
M301 P24.63 I2.05 D74.05
M304 P134.53 I26.22 D460.11
M140 S80 ; Set Heat Bed temperature
M190 S80 ; Wait for Heat Bed temperature
M104 S160; start warming extruder to 160
M117 Homing all axes
G28 ; Home all axes
M117 Beginning Bed Leveling
G29 ; Auto bed-level (BL-Touch)
G92 E0 ; Reset Extruder
M117 Warming Extruder
M104 S225 ; Set Extruder temperature
G1 X0.1 Y20 Z0.3 F5000.0 ; Move to start position
M109 S225 ; Wait for Extruder temperature
; G1 Z2.0 F3000 ; Move Z Axis up little to prevent scratching of Heat Bed
G1 X0.1 Y200.0 Z0.3 F1500.0 E15 ; Draw the first line
G1 X0.4 Y200.0 Z0.3 F5000.0 ; Move to side a little
G1 X0.4 Y20 Z0.3 F1500.0 E30 ; Draw the second line
G92 E0 ; Reset Extruder
G1 Z2.0 F3000 ; Move Z Axis up little to prevent scratching of Heat Bed
; End of custom start GCode
G92 E0
G92 E0
G1 F2400 E-6.5
;LAYER_COUNT:197
;LAYER:0
M117 distance (10.0/10.0)
M107
G0 F6000 X86.996 Y99.268 Z0.2
;TYPE:SKIRT
G1 F2400 E0
G1 X87.595 Y98.753 E0.02335
G1 X88.243 Y98.302 E0.0467
G1 X88.934 Y97.918 E0.07007
G1 X89.978 Y97.496 E0.10336
G1 X90.133 Y97.446 E0.10818
G1 X90.896 Y97.242 E0.13153
G1 X91.676 Y97.116 E0.15489
G1 X92.528 Y97.069 E0.18011
G1 X127.527 Y97.07 E1.21486
G1 X128.316 Y97.11 E1.23821
G1 X129.096 Y97.23 E1.26154
G1 X129.861 Y97.427 E1.2849
G1 X130.602 Y97.702 E1.30827
G1 X131.311 Y98.049 E1.3316
G1 X131.981 Y98.467 E1.35495
G1 X132.606 Y98.95 E1.37831
G1 X133.178 Y99.494 E1.40164
G1 X133.802 Y100.236 E1.43031
G1 X133.898 Y100.366 E1.43508
G1 X134.334 Y101.025 E1.45845
G1 X134.701 Y101.724 E1.48179
G1 X134.996 Y102.456 E1.50512
G1 X135.216 Y103.215 E1.52848
G1 X135.358 Y103.992 E1.55184
G1 X135.423 Y105.001 E1.58173
G1 X135.422 Y115.001 E1.87738
G1 X135.382 Y115.789 E1.9007
G1 X135.262 Y116.57 E1.92407
G1 X135.064 Y117.335 E1.94743
G1 X134.79 Y118.075 E1.97076
G1 X134.443 Y118.784 E1.9941
G1 X133.92 Y119.602 E2.0228
G1 X133.825 Y119.732 E2.02756
G1 X133.327 Y120.345 E2.05091
G1 X132.77 Y120.905 E2.07426
G1 X132.159 Y121.406 E2.09762
G1 X131.501 Y121.842 E2.12096
G1 X130.802 Y122.209 E2.1443
G1 X130.069 Y122.504 E2.16766
G1 X129.311 Y122.723 E2.19099
G1 X128.534 Y122.865 E2.21434
G1 X127.527 Y122.93 E2.24417
G1 X92.528 Y122.931 E3.27892
G1 X91.74 Y122.891 E3.30224
G1 X90.959 Y122.772 E3.3256
G1 X90.133 Y122.554 E3.35086
G1 X89.978 Y122.504 E3.35567
G1 X89.24 Y122.224 E3.37901
G1 X88.534 Y121.871 E3.40235
G1 X87.867 Y121.448 E3.4257
G1 X87.246 Y120.96 E3.44905
G1 X86.678 Y120.411 E3.4724
G1 X86.168 Y119.808 E3.49575
G1 X85.722 Y119.156 E3.51911
G1 X85.344 Y118.463 E3.54244
G1 X85.038 Y117.735 E3.56579
G1 X84.808 Y116.98 E3.58913
G1 X84.654 Y116.205 E3.61249
G1 X84.573 Y115.081 E3.6458
G1 X84.573 Y104.919 E3.94624
G1 X84.613 Y104.13 E3.9696
G1 X84.732 Y103.35 E3.99293
G1 X84.93 Y102.585 E4.01629
G1 X85.204 Y101.845 E4.03962
G1 X85.552 Y101.136 E4.06297
G1 X85.97 Y100.465 E4.08634
G1 X86.453 Y99.841 E4.10967
G1 X86.996 Y99.268 E4.13301
G0 F6000 X87.389 Y99.449
G1 F2400 X87.984 Y98.961 E4.15576
G1 X88.626 Y98.538 E4.17849
G1 X89.309 Y98.183 E4.20125
G1 X90.101 Y97.876 E4.22636
G1 X90.256 Y97.826 E4.23118
G1 X90.999 Y97.629 E4.2539
G1 X91.759 Y97.509 E4.27665
G1 X92.528 Y97.469 E4.29942
G1 X127.527 Y97.47 E5.33416
G1 X128.295 Y97.51 E5.3569
G1 X129.055 Y97.63 E5.37964
G1 X129.798 Y97.827 E5.40237
G1 X130.517 Y98.101 E5.42512
G1 X131.204 Y98.448 E5.44787
G1 X131.85 Y98.864 E5.47059
G1 X132.45 Y99.346 E5.49334
G1 X132.997 Y99.886 E5.51607
G1 X133.48 Y100.474 E5.53857
G1 X133.576 Y100.604 E5.54334
G1 X134 Y101.246 E5.56609
G1 X134.355 Y101.928 E5.58882
G1 X134.638 Y102.643 E5.61156
G1 X134.844 Y103.384 E5.63429
G1 X134.973 Y104.142 E5.65703
G1 X135.023 Y105.001 E5.68247
G1 X135.022 Y115.001 E5.97812
G1 X134.982 Y115.769 E6.00085
G1 X134.862 Y116.529 E6.0236
G1 X134.665 Y117.272 E6.04633
G1 X134.391 Y117.991 E6.06907
G1 X134.044 Y118.677 E6.0918
G1 X133.597 Y119.366 E6.11608
G1 X133.502 Y119.496 E6.12084
G1 X133.016 Y120.093 E6.1436
G1 X132.471 Y120.636 E6.16635
G1 X131.873 Y121.119 E6.18908
G1 X131.228 Y121.538 E6.21182
G1 X130.543 Y121.888 E6.23456
G1 X129.825 Y122.164 E6.2573
G1 X129.083 Y122.365 E6.28003
G1 X128.323 Y122.487 E6.30278
G1 X127.527 Y122.53 E6.32635
G1 X92.528 Y122.531 E7.3611
G1 X91.76 Y122.491 E7.38383
G1 X91 Y122.372 E7.40658
G1 X90.256 Y122.174 E7.42934
G1 X90.101 Y122.124 E7.43415
G1 X89.382 Y121.85 E7.4569
G1 X88.696 Y121.503 E7.47963
G1 X88.049 Y121.086 E7.50239
G1 X87.449 Y120.605 E7.52512
G1 X86.902 Y120.064 E7.54787
G1 X86.415 Y119.47 E7.57058
G1 X85.991 Y118.827 E7.59335
G1 X85.637 Y118.145 E7.61607
G1 X85.355 Y117.429 E7.63882
G1 X85.15 Y116.688 E7.66155
G1 X85.022 Y115.929 E7.6843
G1 X84.973 Y115.081 E7.70942
G1 X84.973 Y104.919 E8.00986
G1 X85.013 Y104.151 E8.03259
G1 X85.132 Y103.391 E8.05534
G1 X85.33 Y102.648 E8.07807
G1 X85.604 Y101.929 E8.10082
G1 X85.951 Y101.243 E8.12355
G1 X86.367 Y100.596 E8.14629
G1 X86.848 Y99.996 E8.16902
G1 X87.389 Y99.449 E8.19177
G0 F6000 X87.781 Y99.635
G1 F2400 X88.371 Y99.176 E8.21387
G1 X89.007 Y98.781 E8.236
G1 X89.681 Y98.457 E8.25811
G1 X90.224 Y98.257 E8.27522
G1 X90.379 Y98.207 E8.28004
G1 X91.102 Y98.016 E8.30215
G1 X91.842 Y97.903 E8.32428
G1 X92.528 Y97.869 E8.34458
G1 X127.527 Y97.87 E9.37933
G1 X128.274 Y97.91 E9.40144
G1 X129.013 Y98.029 E9.42357
G1 X129.734 Y98.227 E9.44568
G1 X130.43 Y98.501 E9.46779
G1 X131.094 Y98.847 E9.48993
G1 X131.716 Y99.262 E9.51204
G1 X132.291 Y99.741 E9.53416
G1 X132.811 Y100.278 E9.55626
G1 X133.158 Y100.712 E9.57269
G1 X133.254 Y100.842 E9.57747
G1 X133.666 Y101.466 E9.59958
G1 X134.008 Y102.131 E9.62168
G1 X134.278 Y102.829 E9.64381
G1 X134.472 Y103.552 E9.66594
G1 X134.587 Y104.291 E9.68805
G1 X134.623 Y105.001 E9.70907
G1 X134.622 Y115.001 E10.00472
G1 X134.582 Y115.748 E10.02684
G1 X134.462 Y116.486 E10.04894
G1 X134.265 Y117.208 E10.07107
G1 X133.991 Y117.904 E10.09318
G1 X133.645 Y118.567 E10.11529
G1 X133.274 Y119.13 E10.13523
G1 X133.179 Y119.26 E10.13999
G1 X132.706 Y119.84 E10.16211
G1 X132.174 Y120.365 E10.18421
G1 X131.588 Y120.831 E10.20635
G1 X130.957 Y121.232 E10.22845
G1 X130.286 Y121.563 E10.25057
G1 X129.584 Y121.821 E10.27268
G1 X128.858 Y122.002 E10.2948
G1 X128.117 Y122.105 E10.31692
G1 X127.527 Y122.13 E10.33438
G1 X92.528 Y122.131 E11.36913
G1 X91.781 Y122.091 E11.39124
G1 X91.043 Y121.972 E11.41334
G1 X90.379 Y121.793 E11.43367
G1 X90.224 Y121.743 E11.43849
G1 X89.525 Y121.476 E11.46061
G1 X88.859 Y121.135 E11.48273
G1 X88.233 Y120.726 E11.50484
G1 X87.654 Y120.252 E11.52696
G1 X87.13 Y119.719 E11.54906
G1 X86.665 Y119.133 E11.57118
G1 X86.265 Y118.5 E11.59332
G1 X85.935 Y117.829 E11.61542
G1 X85.678 Y117.126 E11.63755
G1 X85.498 Y116.4 E11.65967
G1 X85.397 Y115.659 E11.68178
G1 X85.373 Y115.081 E11.69888
G1 X85.373 Y104.919 E11.99932
G1 X85.413 Y104.172 E12.02144
G1 X85.532 Y103.434 E12.04354
G1 X85.73 Y102.712 E12.06567
G1 X86.003 Y102.016 E12.08777
G1 X86.35 Y101.353 E12.1099
G1 X86.765 Y100.73 E12.13203
G1 X87.244 Y100.156 E12.15413
G1 X87.781 Y99.635 E12.17625
G0 F6000 X87.638 Y100.321
G1 F2400 X88.172 Y99.828 E12.19774
G1 X88.757 Y99.398 E12.21921
G1 X89.386 Y99.034 E12.24069
G1 X90.347 Y98.638 E12.27142
G1 X90.502 Y98.588 E12.27624
G1 X91.204 Y98.403 E12.2977
G1 X91.923 Y98.297 E12.31919
G1 X92.528 Y98.269 E12.33709
G1 X127.527 Y98.27 E13.37184
G1 X128.252 Y98.31 E13.3933
G1 X128.969 Y98.429 E13.41479
G1 X129.668 Y98.627 E13.43627
G1 X130.341 Y98.9 E13.45774
G1 X130.98 Y99.245 E13.47921
G1 X131.577 Y99.659 E13.50069
G1 X132.125 Y100.135 E13.52215
G1 X132.836 Y100.949 E13.5541
G1 X132.932 Y101.079 E13.55888
G1 X133.331 Y101.686 E13.58036
G1 X133.66 Y102.334 E13.60184
G1 X133.917 Y103.013 E13.62331
G1 X134.097 Y103.717 E13.64479
G1 X134.199 Y104.436 E13.66626
G1 X134.223 Y105.001 E13.68298
G1 X134.222 Y115.001 E13.97863
G1 X134.182 Y115.726 E14.0001
G1 X134.062 Y116.442 E14.02156
G1 X133.865 Y117.141 E14.04303
G1 X133.592 Y117.814 E14.0645
G1 X133.246 Y118.453 E14.08599
G1 X132.951 Y118.894 E14.10167
G1 X132.856 Y119.024 E14.10643
G1 X132.396 Y119.586 E14.12791
G1 X131.876 Y120.094 E14.1494
G1 X131.305 Y120.542 E14.17086
G1 X130.687 Y120.924 E14.19233
G1 X130.031 Y121.236 E14.21381
G1 X129.345 Y121.475 E14.23529
G1 X128.637 Y121.636 E14.25675
G1 X127.915 Y121.719 E14.27824
G1 X127.527 Y121.73 E14.28972
G1 X92.528 Y121.731 E15.32446
G1 X91.803 Y121.691 E15.34593
G1 X91.086 Y121.572 E15.36742
G1 X90.502 Y121.412 E15.38532
G1 X90.347 Y121.362 E15.39013
G1 X89.669 Y121.102 E15.4116
G1 X89.024 Y120.768 E15.43308
G1 X88.419 Y120.365 E15.45457
G1 X87.862 Y119.899 E15.47604
G1 X87.36 Y119.374 E15.49751
G1 X86.919 Y118.797 E15.51898
G1 X86.543 Y118.175 E15.54047
G1 X86.239 Y117.516 E15.56193
G1 X86.008 Y116.827 E15.58341
G1 X85.855 Y116.117 E15.60489
G1 X85.773 Y115.081 E15.63561
G1 X85.773 Y104.919 E15.93605
G1 X85.813 Y104.194 E15.95752
G1 X85.932 Y103.477 E15.97901
G1 X86.13 Y102.778 E16.00048
G1 X86.403 Y102.105 E16.02196
G1 X86.748 Y101.466 E16.04343
G1 X87.162 Y100.869 E16.06491
G1 X87.638 Y100.321 E16.08637
G0 F6000 X88.032 Y100.492
G1 F2400 X88.562 Y100.028 E16.10719
G1 X89.141 Y99.628 E16.128
G1 X89.762 Y99.296 E16.14882
G1 X90.47 Y99.018 E16.1713
G1 X90.625 Y98.968 E16.17612
G1 X91.306 Y98.791 E16.19692
G1 X92.003 Y98.691 E16.21774
G1 X92.528 Y98.669 E16.23327
G1 X127.527 Y98.67 E17.26802
G1 X128.23 Y98.71 E17.28884
G1 X128.924 Y98.829 E17.30965
G1 X129.6 Y99.027 E17.33048
G1 X130.249 Y99.299 E17.35128
G1 X130.863 Y99.644 E17.37211
G1 X131.434 Y100.056 E17.39292
G1 X131.954 Y100.529 E17.41371
G1 X132.514 Y101.187 E17.43925
G1 X132.61 Y101.317 E17.44403
G1 X132.996 Y101.906 E17.46485
G1 X133.312 Y102.535 E17.48566
G1 X133.555 Y103.196 E17.50648
G1 X133.721 Y103.88 E17.52729
G1 X133.809 Y104.578 E17.54809
G1 X133.823 Y105.001 E17.5606
G1 X133.822 Y115.001 E17.85625
G1 X133.782 Y115.703 E17.87704
G1 X133.663 Y116.397 E17.89786
G1 X133.465 Y117.073 E17.91868
G1 X133.192 Y117.722 E17.9395
G1 X132.848 Y118.336 E17.96031
G1 X132.628 Y118.658 E17.97184
G1 X132.533 Y118.788 E17.9766
G1 X132.086 Y119.332 E17.99741
G1 X131.58 Y119.822 E18.01824
G1 X131.022 Y120.251 E18.03905
G1 X130.419 Y120.614 E18.05986
G1 X129.779 Y120.907 E18.08067
G1 X129.109 Y121.125 E18.1015
G1 X128.42 Y121.265 E18.12228
G1 X127.527 Y121.33 E18.14876
G1 X92.528 Y121.331 E19.1835
G1 X91.825 Y121.291 E19.20432
G1 X91.132 Y121.172 E19.2251
G1 X90.625 Y121.032 E19.24065
G1 X90.47 Y120.982 E19.24547
G1 X89.813 Y120.728 E19.2663
G1 X89.189 Y120.401 E19.28712
G1 X88.607 Y120.006 E19.30792
G1 X88.073 Y119.547 E19.32874
G1 X87.594 Y119.031 E19.34955
G1 X87.177 Y118.464 E19.37036
G1 X86.827 Y117.853 E19.39118
G1 X86.549 Y117.206 E19.412
G1 X86.345 Y116.532 E19.43282
G1 X86.22 Y115.84 E19.45361
G1 X86.173 Y115.081 E19.47609
G1 X86.173 Y104.919 E19.77653
G1 X86.213 Y104.216 E19.79735
G1 X86.332 Y103.522 E19.81817
G1 X86.53 Y102.847 E19.83896
G1 X86.802 Y102.198 E19.85977
G1 X87.147 Y101.584 E19.88059
G1 X87.558 Y101.013 E19.90139
G1 X88.032 Y100.492 E19.92221
G0 F6000 X88.426 Y100.67
G1 F2400 X88.951 Y100.236 E19.94235
G1 X89.523 Y99.867 E19.96248
G1 X90.135 Y99.568 E19.98261
G1 X90.592 Y99.399 E19.99702
G1 X90.747 Y99.349 E20.00183
G1 X91.407 Y99.178 E20.02199
G1 X92.081 Y99.086 E20.0421
G1 X92.528 Y99.069 E20.05533
G1 X127.527 Y99.07 E21.09007
G1 X128.207 Y99.11 E21.11021
G1 X128.877 Y99.229 E21.13033
G1 X129.529 Y99.426 E21.15047
G1 X130.153 Y99.699 E21.1706
G1 X130.741 Y100.042 E21.19073
G1 X131.285 Y100.452 E21.21087
G1 X131.777 Y100.923 E21.23101
G1 X132.193 Y101.425 E21.25028
G1 X132.289 Y101.555 E21.25506
G1 X132.66 Y102.125 E21.27517
G1 X132.963 Y102.735 E21.2953
G1 X133.191 Y103.377 E21.31544
G1 X133.343 Y104.04 E21.33555
G1 X133.423 Y105.001 E21.36407
G1 X133.422 Y115.001 E21.65971
G1 X133.382 Y115.68 E21.67982
G1 X133.263 Y116.351 E21.69997
G1 X133.065 Y117.002 E21.72009
G1 X132.793 Y117.626 E21.74021
G1 X132.305 Y118.422 E21.76782
G1 X132.21 Y118.552 E21.77258
G1 X131.777 Y119.077 E21.7927
G1 X131.285 Y119.548 E21.81283
G1 X130.741 Y119.958 E21.83297
G1 X130.153 Y120.301 E21.8531
G1 X129.529 Y120.574 E21.87324
G1 X128.877 Y120.771 E21.89337
G1 X128.207 Y120.89 E21.91349
G1 X127.527 Y120.93 E21.93363
G1 X92.528 Y120.931 E22.96837
G1 X91.848 Y120.891 E22.98851
G1 X91.178 Y120.772 E23.00863
G1 X90.747 Y120.651 E23.02187
G1 X90.592 Y120.601 E23.02668
G1 X89.958 Y120.354 E23.0468
G1 X89.356 Y120.035 E23.06694
G1 X88.797 Y119.647 E23.08706
G1 X88.286 Y119.197 E23.10719
G1 X87.832 Y118.689 E23.12733
G1 X87.44 Y118.132 E23.14747
G1 X87.117 Y117.533 E23.16759
G1 X86.866 Y116.9 E23.18772
G1 X86.69 Y116.242 E23.20786
G1 X86.594 Y115.568 E23.22799
G1 X86.573 Y115.081 E23.2424
G1 X86.573 Y104.919 E23.54284
G1 X86.613 Y104.239 E23.56298
G1 X86.732 Y103.569 E23.58309
G1 X86.929 Y102.917 E23.60323
G1 X87.201 Y102.293 E23.62336
G1 X87.545 Y101.705 E23.6435
G1 X87.955 Y101.161 E23.66364
G1 X88.426 Y100.67 E23.68375
G0 F6000 X88.818 Y100.854
G1 F2400 X89.338 Y100.453 E23.70317
G1 X89.902 Y100.117 E23.72258
G1 X90.715 Y99.78 E23.7486
G1 X90.87 Y99.73 E23.75341
G1 X91.507 Y99.566 E23.77286
G1 X92.158 Y99.482 E23.79226
G1 X92.528 Y99.469 E23.80321
G1 X127.527 Y99.47 E24.83795
G1 X128.183 Y99.51 E24.85738
G1 X128.829 Y99.629 E24.8768
G1 X129.456 Y99.826 E24.89623
G1 X130.054 Y100.098 E24.91566
G1 X130.615 Y100.44 E24.93508
G1 X131.13 Y100.848 E24.95451
G1 X131.592 Y101.315 E24.97393
G1 X131.871 Y101.662 E24.98709
G1 X131.967 Y101.792 E24.99187
G1 X132.324 Y102.343 E25.01128
G1 X132.612 Y102.934 E25.03072
G1 X132.826 Y103.555 E25.05014
G1 X132.963 Y104.198 E25.06957
G1 X133.023 Y105.001 E25.09338
G1 X133.022 Y115.001 E25.38903
G1 X132.982 Y115.656 E25.40843
G1 X132.863 Y116.302 E25.42785
G1 X132.666 Y116.929 E25.44728
G1 X132.394 Y117.527 E25.46671
G1 X131.982 Y118.186 E25.48968
G1 X131.887 Y118.316 E25.49444
G1 X131.468 Y118.822 E25.51387
G1 X130.99 Y119.273 E25.5333
G1 X130.461 Y119.663 E25.55273
G1 X129.889 Y119.986 E25.57215
G1 X129.282 Y120.237 E25.59157
G1 X128.649 Y120.412 E25.61098
G1 X127.999 Y120.509 E25.63041
G1 X127.527 Y120.53 E25.64438
G1 X92.528 Y120.531 E26.67913
G1 X91.872 Y120.491 E26.69856
G1 X91.226 Y120.372 E26.71798
G1 X90.87 Y120.27 E26.72893
G1 X90.715 Y120.22 E26.73374
G1 X90.103 Y119.981 E26.75317
G1 X89.525 Y119.669 E26.77258
G1 X88.989 Y119.289 E26.79201
G1 X88.503 Y118.847 E26.81143
G1 X88.074 Y118.349 E26.83086
G1 X87.709 Y117.803 E26.85028
G1 X87.413 Y117.217 E26.86969
G1 X87.191 Y116.599 E26.88911
G1 X87.045 Y115.958 E26.90854
G1 X86.973 Y115.081 E26.93456
G1 X86.973 Y104.919 E27.235
G1 X87.013 Y104.263 E27.25443
G1 X87.132 Y103.617 E27.27385
G1 X87.329 Y102.99 E27.29328
G1 X87.601 Y102.392 E27.3127
G1 X87.943 Y101.831 E27.33213
G1 X88.351 Y101.316 E27.35155
G1 X88.818 Y100.854 E27.37097
G0 F6000 X88.746 Y101.478
G1 F2400 X89.209 Y101.048 E27.38965
G1 X89.723 Y100.679 E27.40836
G1 X90.279 Y100.379 E27.42704
G1 X90.838 Y100.16 E27.44479
G1 X90.993 Y100.11 E27.4496
G1 X91.606 Y99.955 E27.4683
G1 X92.528 Y99.869 E27.49568
G1 X127.527 Y99.87 E28.53042
G1 X128.158 Y99.91 E28.54911
G1 X128.779 Y100.029 E28.56781
G1 X129.38 Y100.226 E28.5865
G1 X129.951 Y100.497 E28.60519
G1 X130.483 Y100.838 E28.62387
G1 X130.968 Y101.243 E28.64255
G1 X131.549 Y101.9 E28.66848
G1 X131.645 Y102.03 E28.67326
G1 X131.988 Y102.561 E28.69195
G1 X132.261 Y103.131 E28.71064
G1 X132.459 Y103.731 E28.72932
G1 X132.581 Y104.352 E28.74803
G1 X132.623 Y105 E28.76722
G1 X132.622 Y115 E29.06287
G1 X132.582 Y115.631 E29.08157
G1 X132.463 Y116.252 E29.10026
G1 X132.266 Y116.853 E29.11896
G1 X131.995 Y117.424 E29.13765
G1 X131.659 Y117.95 E29.1561
G1 X131.564 Y118.08 E29.16086
G1 X131.159 Y118.566 E29.17956
G1 X130.697 Y118.997 E29.19824
G1 X130.184 Y119.366 E29.21693
G1 X129.628 Y119.667 E29.23562
G1 X129.039 Y119.896 E29.2543
G1 X128.425 Y120.049 E29.27301
G1 X127.527 Y120.13 E29.29967
G1 X92.528 Y120.131 E30.33441
