;FLAVOR:Marlin
;TIME:8766
;Filament used: 5.92535m
;Layer height: 0.2
;MINX:45.844
;MINY:80.159
;MINZ:0.2
;MAXX:174.157
;MAXY:147.821
;MAXZ:7
;Generated with Cura_SteamEngine 4.9.0
M82 ;absolute extrusion mode
; Ender 3 Custom Start G-code
M117 Warming Print Bed
M140 S80 ; Set Heat Bed temperature
M190 S80 ; Wait for Heat Bed temperature
M104 S160; start warming extruder to 160
M117 Homing all axes
G28 ; Home all axes
M117 Beginning Bed Leveling
G29 ; Auto bed-level (BL-Touch)
G92 E0 ; Reset Extruder
M117 Warming Extruder
M104 S200.0 ; Set Extruder temperature
G1 X0.1 Y20 Z0.3 F5000.0 ; Move to start position
M109 S200.0 ; Wait for Extruder temperature
; G1 Z2.0 F3000 ; Move Z Axis up little to prevent scratching of Heat Bed
G1 X0.1 Y200.0 Z0.3 F1500.0 E15 ; Draw the first line
G1 X0.4 Y200.0 Z0.3 F5000.0 ; Move to side a little
G1 X0.4 Y20 Z0.3 F1500.0 E30 ; Draw the second line
G92 E0 ; Reset Extruder
G1 Z2.0 F3000 ; Move Z Axis up little to prevent scratching of Heat Bed
; End of custom start GCode
G92 E0
G92 E0
G1 F1500 E-6.5
;LAYER_COUNT:35
;LAYER:0
M107
;MESH:The_Ultimate_Spool_Holder_v2.stl(1)
G0 F6000 X48.072 Y110.22 Z0.2
;TYPE:WALL-INNER
G1 F1500 E0
G1 F1200 X47.789 Y110.196 E0.00945
G1 X47.561 Y110.115 E0.01749
G1 X47.373 Y109.985 E0.0251
G1 X47.223 Y109.809 E0.03279
G1 X47.108 Y109.517 E0.04323
G1 X47.108 Y94.333 E0.54825
G1 X47.123 Y93.515 E0.57546
G1 X47.25 Y92.346 E0.61457
G1 X47.472 Y91.237 E0.65219
G1 X47.805 Y90.11 E0.69127
G1 X48.229 Y89.038 E0.72961
G1 X48.749 Y88.008 E0.76799
G1 X49.366 Y87.015 E0.80687
G1 X50.06 Y86.097 E0.84515
G1 X50.832 Y85.244 E0.88342
G1 X51.684 Y84.458 E0.92197
G1 X52.608 Y83.748 E0.96073
G1 X53.582 Y83.131 E0.99908
G1 X54.612 Y82.6 E1.03762
G1 X55.688 Y82.163 E1.07625
G1 X56.792 Y81.828 E1.11462
G1 X57.921 Y81.59 E1.15299
G1 X59.07 Y81.457 E1.19146
G1 X60.23 Y81.424 E1.23006
G1 X61.386 Y81.497 E1.26859
G1 X62.535 Y81.675 E1.30726
G1 X63.652 Y81.952 E1.34554
G1 X64.745 Y82.328 E1.38398
G1 X65.817 Y82.81 E1.42307
G1 X69.42 Y84.508 E1.55555
G1 X75.278 Y86.874 E1.76568
G1 X81.276 Y88.868 E1.97591
G1 X87.386 Y90.48 E2.18608
G1 X93.586 Y91.706 E2.39629
G1 X99.851 Y92.541 E2.60651
G1 X106.155 Y92.981 E2.81669
G1 X112.475 Y93.024 E3.0269
G1 X118.784 Y92.67 E3.23707
G1 X125.06 Y91.921 E3.44729
G1 X131.276 Y90.778 E3.6575
G1 X137.408 Y89.248 E3.8677
G1 X143.43 Y87.336 E4.07785
G1 X149.322 Y85.049 E4.28806
G1 X155.03 Y82.41 E4.49722
G1 X155.67 Y82.169 E4.51996
G1 X156.792 Y81.828 E4.55897
G1 X157.921 Y81.59 E4.59734
G1 X159.07 Y81.457 E4.63581
G1 X160.23 Y81.424 E4.67441
G1 X161.386 Y81.497 E4.71294
G1 X162.535 Y81.675 E4.75161
G1 X163.652 Y81.952 E4.78989
G1 X164.745 Y82.329 E4.82834
G1 X165.801 Y82.802 E4.86683
G1 X166.808 Y83.367 E4.90523
G1 X167.776 Y84.032 E4.94429
G1 X168.652 Y84.757 E4.98211
G1 X169.48 Y85.578 E5.02089
G1 X170.226 Y86.464 E5.05942
G1 X170.894 Y87.42 E5.09821
G1 X171.461 Y88.41 E5.13615
G1 X171.952 Y89.48 E5.17531
G1 X172.333 Y90.555 E5.21324
G1 X172.624 Y91.684 E5.25202
G1 X172.809 Y92.824 E5.29043
G1 X172.892 Y93.976 E5.32885
G1 X172.884 Y109.213 E5.83563
G1 X172.861 Y109.495 E5.84504
G1 X172.783 Y109.713 E5.85274
G1 X172.649 Y109.908 E5.86061
G1 X172.468 Y110.061 E5.8685
G1 X172.255 Y110.162 E5.87634
G1 X172.008 Y110.207 E5.88469
G1 X48.072 Y110.22 E10.00682
G0 F6000 X48.051 Y110.62
;TYPE:WALL-OUTER
G1 F1200 X47.703 Y110.591 E10.01843
G1 X47.379 Y110.475 E10.02988
G1 X47.104 Y110.285 E10.04099
G1 X46.885 Y110.028 E10.05222
G1 X46.739 Y109.72 E10.06356
G1 X46.708 Y109.552 E10.06924
G1 X46.708 Y94.326 E10.57566
G1 X46.723 Y93.487 E10.60357
G1 X46.853 Y92.29 E10.64362
G1 X47.084 Y91.137 E10.68273
G1 X47.425 Y89.982 E10.72278
G1 X47.863 Y88.876 E10.76235
G1 X48.402 Y87.809 E10.80211
G1 X49.034 Y86.792 E10.84193
G1 X49.753 Y85.84 E10.88161
G1 X50.546 Y84.964 E10.92091
G1 X51.428 Y84.15 E10.96083
G1 X52.379 Y83.42 E11.00071
G1 X53.385 Y82.782 E11.04033
G1 X54.447 Y82.235 E11.08006
G1 X55.55 Y81.787 E11.11966
G1 X56.685 Y81.442 E11.15911
G1 X57.858 Y81.195 E11.19898
G1 X59.047 Y81.057 E11.2388
G1 X60.233 Y81.024 E11.27826
G1 X61.428 Y81.099 E11.31808
G1 X62.614 Y81.283 E11.358
G1 X63.766 Y81.568 E11.39747
G1 X64.897 Y81.958 E11.43726
G1 X65.988 Y82.448 E11.47704
G1 X69.58 Y84.141 E11.60912
G1 X75.416 Y86.498 E11.81845
G1 X81.39 Y88.484 E12.02784
G1 X87.476 Y90.09 E12.23719
G1 X93.651 Y91.311 E12.44655
G1 X99.891 Y92.143 E12.65593
G1 X106.17 Y92.581 E12.86528
G1 X112.465 Y92.624 E13.07466
G1 X118.749 Y92.271 E13.28399
G1 X125 Y91.525 E13.49338
G1 X131.191 Y90.387 E13.70274
G1 X137.299 Y88.863 E13.91212
G1 X143.297 Y86.959 E14.12143
G1 X149.166 Y84.681 E14.33082
G1 X154.37 Y82.276 E14.52149
G1 X154.871 Y82.043 E14.53987
G1 X155.548 Y81.788 E14.56393
G1 X156.685 Y81.442 E14.60346
G1 X157.858 Y81.195 E14.64333
G1 X159.047 Y81.057 E14.68314
G1 X160.233 Y81.024 E14.7226
G1 X161.428 Y81.099 E14.76243
G1 X162.614 Y81.283 E14.80235
G1 X163.766 Y81.568 E14.84182
G1 X164.897 Y81.958 E14.88161
G1 X165.982 Y82.445 E14.92116
G1 X167.022 Y83.028 E14.96082
G1 X168.011 Y83.708 E15.00074
G1 X168.924 Y84.463 E15.04014
G1 X169.775 Y85.307 E15.08001
G1 X170.542 Y86.218 E15.11962
G1 X171.232 Y87.205 E15.15967
G1 X171.82 Y88.231 E15.199
G1 X172.322 Y89.325 E15.23904
G1 X172.715 Y90.434 E15.27817
G1 X173.017 Y91.607 E15.31846
G1 X173.207 Y92.776 E15.35785
G1 X173.292 Y93.961 E15.39736
G1 X173.284 Y109.233 E15.90531
G1 X173.256 Y109.581 E15.91692
G1 X173.143 Y109.897 E15.92808
G1 X172.948 Y110.179 E15.93949
G1 X172.686 Y110.401 E15.95091
G1 X172.381 Y110.545 E15.96213
G1 X172.042 Y110.607 E15.97359
G1 X48.051 Y110.62 E20.09755
G0 F6000 X48.069 Y110.181
G0 X48.081 Y109.83
;TYPE:SKIN
G1 F1200 X47.743 Y109.767 E20.10898
G1 X47.562 Y109.607 E20.11702
G1 X47.498 Y109.443 E20.12287
G1 X47.498 Y94.341 E20.62517
G1 X47.513 Y93.542 E20.65175
G1 X47.638 Y92.388 E20.69035
G1 X47.848 Y91.342 E20.72584
G1 X48.172 Y90.244 E20.76391
G1 X48.584 Y89.202 E20.80118
G1 X49.094 Y88.192 E20.83881
G1 X49.682 Y87.246 E20.87586
G1 X50.372 Y86.333 E20.91392
G1 X51.097 Y85.531 E20.94988
G1 X51.934 Y84.758 E20.98778
G1 X52.834 Y84.067 E21.02552
G1 X53.778 Y83.469 E21.06268
G1 X54.783 Y82.951 E21.10029
G1 X55.819 Y82.53 E21.13748
G1 X56.883 Y82.208 E21.17446
G1 X57.98 Y81.976 E21.21175
G1 X59.103 Y81.847 E21.24935
G1 X60.217 Y81.814 E21.28642
G1 X61.345 Y81.886 E21.32401
G1 X62.471 Y82.061 E21.36191
G1 X63.533 Y82.324 E21.3983
G1 X64.612 Y82.695 E21.43625
G1 X65.651 Y83.163 E21.47415
G1 X69.264 Y84.865 E21.60699
G1 X75.143 Y87.24 E21.81787
G1 X81.165 Y89.242 E22.02895
G1 X87.298 Y90.86 E22.23991
G1 X93.522 Y92.091 E22.45093
G1 X99.812 Y92.929 E22.66198
G1 X106.14 Y93.371 E22.87297
G1 X112.485 Y93.414 E23.08401
G1 X118.818 Y93.058 E23.29498
G1 X125.118 Y92.307 E23.506
G1 X131.358 Y91.16 E23.71702
G1 X137.515 Y89.624 E23.92808
G1 X143.56 Y87.704 E24.13903
G1 X149.474 Y85.408 E24.35004
G1 X155.181 Y82.77 E24.55915
G1 X155.797 Y82.538 E24.58104
G1 X156.883 Y82.208 E24.6188
G1 X157.98 Y81.976 E24.65609
G1 X159.103 Y81.847 E24.69369
G1 X160.217 Y81.814 E24.73075
G1 X161.345 Y81.886 E24.76835
G1 X162.471 Y82.061 E24.80625
G1 X163.533 Y82.324 E24.84264
G1 X164.601 Y82.692 E24.88021
G1 X165.628 Y83.152 E24.91764
G1 X166.597 Y83.695 E24.95458
G1 X167.545 Y84.347 E24.99285
G1 X168.385 Y85.042 E25.02911
G1 X169.199 Y85.849 E25.06723
G1 X169.91 Y86.693 E25.10394
G1 X170.562 Y87.626 E25.1418
G1 X171.116 Y88.592 E25.17884
G1 X171.59 Y89.626 E25.21667
G1 X171.96 Y90.67 E25.25351
G1 X172.242 Y91.764 E25.29108
G1 X172.421 Y92.869 E25.32832
G1 X172.502 Y93.99 E25.3657
G1 X172.494 Y109.213 E25.87202
G1 X172.433 Y109.533 E25.88285
G1 X172.256 Y109.73 E25.89166
G1 X171.971 Y109.817 E25.90157
G1 X48.081 Y109.83 E30.02217
G0 F6000 X47.657 Y109.317
G1 F1200 X47.988 Y109.648 E30.03774
G0 F6000 X48.573 Y109.668
G1 F1200 X47.657 Y108.751 E30.08085
G0 F6000 X47.657 Y108.185
G1 F1200 X49.139 Y109.668 E30.15058
G0 F6000 X49.705 Y109.668
G1 F1200 X47.657 Y107.62 E30.24691
G0 F6000 X47.657 Y107.054
G1 F1200 X50.271 Y109.668 E30.36987
G0 F6000 X50.836 Y109.668
G1 F1200 X47.657 Y106.488 E30.51942
G0 F6000 X47.657 Y105.923
G1 F1200 X51.402 Y109.668 E30.69557
G0 F6000 X51.968 Y109.668
G1 F1200 X47.657 Y105.357 E30.89835
G0 F6000 X47.657 Y104.791
G1 F1200 X52.533 Y109.668 E31.12772
G0 F6000 X53.099 Y109.668
G1 F1200 X47.657 Y104.226 E31.3837
G0 F6000 X47.657 Y103.66
G1 F1200 X53.665 Y109.668 E31.6663
G0 F6000 X54.23 Y109.668
G1 F1200 X47.657 Y103.094 E31.9755
G0 F6000 X47.657 Y102.529
G1 F1200 X54.796 Y109.668 E32.31129
G0 F6000 X55.362 Y109.668
G1 F1200 X47.657 Y101.963 E32.67371
G0 F6000 X47.657 Y101.397
G1 F1200 X55.927 Y109.667 E33.06271
G0 F6000 X56.492 Y109.667
G1 F1200 X47.657 Y100.832 E33.47828
G0 F6000 X47.657 Y100.266
G1 F1200 X57.058 Y109.667 E33.92047
G0 F6000 X57.624 Y109.667
G1 F1200 X47.657 Y99.7 E34.38929
G0 F6000 X47.657 Y99.134
G1 F1200 X58.189 Y109.667 E34.88471
G0 F6000 X58.755 Y109.667
G1 F1200 X47.657 Y98.569 E35.40672
G0 F6000 X47.657 Y98.003
G1 F1200 X59.321 Y109.667 E35.95536
G0 F6000 X59.886 Y109.667
G1 F1200 X47.657 Y97.437 E36.5306
G0 F6000 X47.657 Y96.872
G1 F1200 X60.452 Y109.667 E37.13244
G0 F6000 X61.018 Y109.667
G1 F1200 X47.657 Y96.306 E37.7609
G0 F6000 X47.657 Y95.74
G1 F1200 X61.584 Y109.667 E38.41598
G0 F6000 X62.149 Y109.667
G1 F1200 X47.657 Y95.175 E39.09764
G0 F6000 X47.657 Y94.609
G1 F1200 X62.714 Y109.666 E39.80587
G0 F6000 X63.28 Y109.666
G1 F1200 X47.663 Y94.049 E40.54045
G0 F6000 X47.678 Y93.499
G1 F1200 X63.846 Y109.666 E41.30092
G0 F6000 X64.411 Y109.666
G1 F1200 X47.733 Y92.988 E42.0854
G0 F6000 X47.789 Y92.478
G1 F1200 X64.977 Y109.666 E42.89387
G0 F6000 X65.543 Y109.666
G1 F1200 X47.877 Y92 E43.72483
G0 F6000 X47.972 Y91.53
G1 F1200 X66.108 Y109.666 E44.57789
G0 F6000 X66.674 Y109.666
G1 F1200 X48.091 Y91.083 E45.45198
G0 F6000 X48.219 Y90.646
G1 F1200 X67.24 Y109.666 E46.34664
G0 F6000 X67.805 Y109.666
G1 F1200 X48.354 Y90.215 E47.26156
G0 F6000 X48.515 Y89.81
G1 F1200 X68.371 Y109.666 E48.19552
G0 F6000 X68.937 Y109.666
G1 F1200 X48.675 Y89.405 E49.14856
G0 F6000 X48.855 Y89.019
G1 F1200 X69.502 Y109.666 E50.11973
G0 F6000 X70.067 Y109.665
G1 F1200 X49.044 Y88.642 E51.10859
G0 F6000 X49.235 Y88.267
G1 F1200 X70.633 Y109.665 E52.11509
G0 F6000 X71.199 Y109.665
G1 F1200 X49.452 Y87.918 E53.138
G0 F6000 X49.669 Y87.57
G1 F1200 X71.764 Y109.665 E54.17728
G0 F6000 X72.33 Y109.665
G1 F1200 X49.894 Y87.23 E55.23258
G0 F6000 X50.138 Y86.907
G1 F1200 X72.896 Y109.665 E56.30304
G0 F6000 X73.462 Y109.665
G1 F1200 X50.381 Y86.585 E57.38868
G0 F6000 X50.637 Y86.275
G1 F1200 X74.027 Y109.665 E58.48887
G0 F6000 X74.593 Y109.665
G1 F1200 X50.906 Y85.979 E59.60301
G0 F6000 X51.175 Y85.682
G1 F1200 X75.159 Y109.665 E60.73112
G0 F6000 X75.724 Y109.665
G1 F1200 X51.466 Y85.407 E61.87215
G0 F6000 X51.76 Y85.135
G1 F1200 X76.29 Y109.665 E63.02596
G0 F6000 X76.856 Y109.665
G1 F1200 X52.055 Y84.865 E64.1925
G0 F6000 X52.376 Y84.62
G1 F1200 X77.421 Y109.665 E65.37054
G0 F6000 X77.986 Y109.665
G1 F1200 X52.696 Y84.374 E66.56013
G0 F6000 X53.023 Y84.136
G1 F1200 X78.552 Y109.665 E67.76094
G0 F6000 X79.118 Y109.665
G1 F1200 X53.369 Y83.916 E68.97209
G0 F6000 X53.716 Y83.697
G1 F1200 X79.683 Y109.665 E70.19352
G0 F6000 X80.249 Y109.665
G1 F1200 X54.078 Y83.494 E71.42452
G0 F6000 X54.452 Y83.302
G1 F1200 X80.815 Y109.665 E72.66456
G0 F6000 X81.38 Y109.665
G1 F1200 X54.825 Y83.109 E73.91365
G0 F6000 X55.225 Y82.943
G1 F1200 X81.946 Y109.665 E75.17055
G0 F6000 X82.512 Y109.665
G1 F1200 X55.626 Y82.779 E76.43518
G0 F6000 X56.041 Y82.628
G1 F1200 X83.077 Y109.665 E77.7069
G0 F6000 X83.643 Y109.665
G1 F1200 X56.475 Y82.497 E78.98479
G0 F6000 X56.91 Y82.365
G1 F1200 X84.209 Y109.665 E80.26888
G0 F6000 X84.774 Y109.664
G1 F1200 X57.376 Y82.266 E81.5576
G0 F6000 X57.843 Y82.167
G1 F1200 X85.34 Y109.664 E82.85097
G0 F6000 X85.905 Y109.664
G1 F1200 X58.337 Y82.095 E84.14771
G0 F6000 X58.844 Y82.037
G1 F1200 X86.471 Y109.664 E85.4472
G0 F6000 X87.037 Y109.664
G1 F1200 X59.371 Y81.998 E86.74852
G0 F6000 X59.92 Y81.981
G1 F1200 X87.602 Y109.664 E88.05062
G0 F6000 X88.168 Y109.664
G1 F1200 X60.495 Y81.991 E89.35228
G0 F6000 X61.099 Y82.03
G1 F1200 X88.734 Y109.664 E90.65212
G0 F6000 X89.299 Y109.664
G1 F1200 X61.745 Y82.109 E91.9482
G0 F6000 X62.416 Y82.215
G1 F1200 X89.865 Y109.664 E93.23931
G0 F6000 X90.431 Y109.664
G1 F1200 X63.163 Y82.397 E94.52189
G0 F6000 X63.979 Y82.646
G1 F1200 X90.996 Y109.664 E95.79271
G0 F6000 X91.562 Y109.664
G1 F1200 X64.896 Y82.998 E97.047
G0 F6000 X65.077 Y82.598
G0 X66.127 Y83.079
G0 X65.94 Y83.476
G1 F1200 X92.127 Y109.663 E98.27876
G0 F6000 X92.693 Y109.663
G1 F1200 X67.008 Y83.979 E99.48688
G0 F6000 X67.195 Y83.582
G0 X68.264 Y84.086
G0 X68.077 Y84.482
G1 F1200 X93.258 Y109.663 E100.67131
G0 F6000 X93.824 Y109.663
G1 F1200 X69.145 Y84.985 E101.83212
G0 F6000 X69.332 Y84.589
G0 X70.265 Y84.969
G0 X70.101 Y85.374
G1 F1200 X94.39 Y109.663 E102.9746
G0 F6000 X94.955 Y109.663
G1 F1200 X71.05 Y85.757 E104.09904
G0 F6000 X71.214 Y85.352
G0 X72.163 Y85.736
G0 X71.999 Y86.141
G1 F1200 X95.521 Y109.663 E105.20544
G0 F6000 X96.087 Y109.663
G1 F1200 X72.948 Y86.525 E106.2938
G0 F6000 X73.113 Y86.119
G0 X74.063 Y86.503
G0 X73.898 Y86.909
G1 F1200 X96.653 Y109.663 E107.36411
G0 F6000 X97.218 Y109.663
G1 F1200 X74.847 Y87.293 E108.41635
G0 F6000 X75.72 Y87.599
G1 F1200 X97.784 Y109.663 E109.45417
G0 F6000 X98.35 Y109.663
G1 F1200 X76.568 Y87.882 E110.4787
G0 F6000 X77.415 Y88.163
G1 F1200 X98.915 Y109.663 E111.49
G0 F6000 X99.48 Y109.663
G1 F1200 X78.262 Y88.444 E112.48805
G0 F6000 X79.109 Y88.726
G1 F1200 X100.046 Y109.663 E113.47286
G0 F6000 X100.612 Y109.663
G1 F1200 X79.957 Y89.008 E114.44441
G0 F6000 X80.804 Y89.289
G1 F1200 X101.177 Y109.663 E115.40272
G0 F6000 X101.743 Y109.663
G1 F1200 X81.602 Y89.521 E116.35011
G0 F6000 X82.37 Y89.724
G1 F1200 X102.309 Y109.663 E117.28798
G0 F6000 X102.874 Y109.663
G1 F1200 X83.139 Y89.927 E118.21628
G0 F6000 X83.907 Y90.129
G1 F1200 X103.44 Y109.663 E119.13507
G0 F6000 X104.006 Y109.663
G1 F1200 X84.676 Y90.332 E120.04432
G0 F6000 X85.444 Y90.535
G1 F1200 X104.571 Y109.663 E120.94402
G0 F6000 X105.137 Y109.663
G1 F1200 X86.212 Y90.738 E121.8342
G0 F6000 X86.981 Y90.941
G1 F1200 X105.703 Y109.663 E122.71482
G0 F6000 X106.268 Y109.663
G1 F1200 X87.709 Y91.103 E123.5878
G0 F6000 X88.415 Y91.243
G1 F1200 X106.833 Y109.662 E124.45415
G0 F6000 X107.399 Y109.662
G1 F1200 X89.12 Y91.382 E125.31396
G0 F6000 X89.825 Y91.522
G1 F1200 X107.965 Y109.662 E126.16721
G0 F6000 X108.53 Y109.662
G1 F1200 X90.53 Y91.661 E127.0139
G0 F6000 X91.235 Y91.801
G1 F1200 X109.096 Y109.662 E127.85403
G0 F6000 X109.662 Y109.662
G1 F1200 X91.94 Y91.94 E128.68762
G0 F6000 X92.645 Y92.08
G1 F1200 X110.228 Y109.662 E129.51464
G0 F6000 X110.793 Y109.662
G1 F1200 X93.351 Y92.22 E130.33506
G0 F6000 X94.014 Y92.317
G1 F1200 X111.359 Y109.662 E131.15092
G0 F6000 X111.925 Y109.662
G1 F1200 X94.667 Y92.404 E131.96268
G0 F6000 X95.32 Y92.491
G1 F1200 X112.49 Y109.662 E132.77033
G0 F6000 X113.056 Y109.662
G1 F1200 X95.972 Y92.578 E133.57391
G0 F6000 X96.625 Y92.665
G1 F1200 X113.622 Y109.662 E134.3734
G0 F6000 X114.187 Y109.661
G1 F1200 X97.278 Y92.752 E135.16874
G0 F6000 X97.931 Y92.84
G1 F1200 X114.752 Y109.661 E135.95995
G0 F6000 X115.318 Y109.661
G1 F1200 X98.584 Y92.927 E136.74707
G0 F6000 X99.236 Y93.014
G1 F1200 X115.884 Y109.661 E137.53011
G0 F6000 X116.449 Y109.661
G1 F1200 X99.883 Y93.094 E138.30935
G0 F6000 X100.491 Y93.137
G1 F1200 X117.015 Y109.661 E139.08659
G0 F6000 X117.581 Y109.661
G1 F1200 X101.099 Y93.179 E139.86185
G0 F6000 X101.707 Y93.222
G1 F1200 X118.146 Y109.661 E140.63509
G0 F6000 X118.712 Y109.661
G1 F1200 X102.315 Y93.264 E141.40636
G0 F6000 X102.923 Y93.306
G1 F1200 X119.278 Y109.661 E142.17565
G0 F6000 X119.843 Y109.661
G1 F1200 X103.531 Y93.349 E142.94291
G0 F6000 X104.139 Y93.391
G1 F1200 X120.409 Y109.661 E143.7082
G0 F6000 X120.974 Y109.66
G1 F1200 X104.748 Y93.434 E144.47143
G0 F6000 X105.356 Y93.477
G1 F1200 X121.54 Y109.66 E145.23265
G0 F6000 X122.106 Y109.66
G1 F1200 X105.964 Y93.519 E145.99189
G0 F6000 X106.544 Y93.533
G1 F1200 X122.671 Y109.66 E146.75046
