;FLAVOR:Marlin
;TIME:12681
;Filament used: 10.0876m
;Layer height: 0.2
;MINX:30.843
;MINY:65.168
;MINZ:0.24
;MAXX:189.157
;MAXY:162.813
;MAXZ:8.09
;Generated with Cura_SteamEngine 4.9.0
M82 ;absolute extrusion mode
; Ender 3 Custom Start G-code
M117 Warming Print Bed
M140 S80 ; Set Heat Bed temperature
M190 S80 ; Wait for Heat Bed temperature
M104 S160; start warming extruder to 160
M117 Homing all axes
G28 ; Home all axes
M117 Beginning Bed Leveling
G29 ; Auto bed-level (BL-Touch)
G92 E0 ; Reset Extruder
M117 Warming Extruder
M104 S200.0 ; Set Extruder temperature
G1 X0.1 Y20 Z0.3 F5000.0 ; Move to start position
M109 S200.0 ; Wait for Extruder temperature
; G1 Z2.0 F3000 ; Move Z Axis up little to prevent scratching of Heat Bed
G1 X0.1 Y200.0 Z0.3 F1500.0 E15 ; Draw the first line
G1 X0.4 Y200.0 Z0.3 F5000.0 ; Move to side a little
G1 X0.4 Y20 Z0.3 F1500.0 E30 ; Draw the second line
G92 E0 ; Reset Extruder
G1 Z2.0 F3000 ; Move Z Axis up little to prevent scratching of Heat Bed
; End of custom start GCode
G92 E0
G92 E0
G1 F1500 E-6.5
;LAYER_COUNT:35
;LAYER:-6
M107
G0 F9000 X44.507 Y70.888 Z0.24
;TYPE:SUPPORT-INTERFACE
G1 F1500 E0
G1 F1125 X45.404 Y70.318 E0.08484
G1 X45.495 Y70.263 E0.09332
G1 X46.552 Y69.658 E0.19054
G1 X46.703 Y69.576 E0.20426
G1 X47.638 Y69.095 E0.28819
G1 X47.716 Y69.057 E0.29512
G1 X48.796 Y68.561 E0.38998
G1 X48.936 Y68.501 E0.40214
G1 X49.996 Y68.071 E0.49345
G1 X51.201 Y67.643 E0.59553
G1 X52.313 Y67.303 E0.68835
G1 X52.443 Y67.265 E0.69916
G1 X53.603 Y66.969 E0.79472
G1 X53.702 Y66.945 E0.80286
G1 X54.776 Y66.72 E0.89045
G1 X54.844 Y66.707 E0.89597
G1 X56.085 Y66.505 E0.99634
G1 X56.229 Y66.485 E1.00795
G1 X57.278 Y66.362 E1.09225
G1 X57.373 Y66.353 E1.09987
G1 X58.581 Y66.267 E1.19654
G1 X58.699 Y66.261 E1.20598
G1 X59.778 Y66.232 E1.29214
G1 X59.895 Y66.231 E1.30148
G1 X61.101 Y66.253 E1.39776
G1 X61.229 Y66.258 E1.40799
G1 X62.309 Y66.325 E1.49436
G1 X63.61 Y66.465 E1.59881
G1 X63.776 Y66.486 E1.61217
G1 X64.778 Y66.641 E1.6931
G1 X64.963 Y66.674 E1.70811
G1 X66.101 Y66.902 E1.80075
G1 X66.211 Y66.926 E1.80974
G1 X67.344 Y67.208 E1.90294
G1 X68.625 Y67.588 E2.0096
G1 X69.691 Y67.956 E2.09962
G1 X70.91 Y68.437 E2.20422
G1 X70.987 Y68.469 E2.21088
G1 X72.048 Y68.945 E2.30371
G1 X72.298 Y69.061 E2.32571
G1 X75.387 Y70.516 E2.59827
G1 X75.657 Y70.634 E2.62179
G1 X80.368 Y72.536 E3.02733
G1 X80.675 Y72.649 E3.05345
G1 X85.476 Y74.246 E3.45733
G1 X85.789 Y74.338 E3.48337
G1 X90.632 Y75.616 E3.8832
G1 X90.95 Y75.69 E3.90926
G1 X95.904 Y76.67 E4.31237
G1 X96.225 Y76.723 E4.33834
G1 X101.222 Y77.389 E4.74075
G1 X101.549 Y77.423 E4.76699
G1 X106.573 Y77.772 E5.169
G1 X106.898 Y77.785 E5.19496
G1 X111.954 Y77.82 E5.59856
G1 X112.281 Y77.812 E5.62467
G1 X117.281 Y77.531 E6.02442
G1 X117.607 Y77.503 E6.05054
G1 X122.613 Y76.905 E6.45298
G1 X122.936 Y76.857 E6.47905
G1 X127.904 Y75.943 E6.88227
G1 X128.223 Y75.874 E6.90833
G1 X133.11 Y74.654 E7.3104
G1 X133.424 Y74.565 E7.33645
G1 X138.215 Y73.044 E7.7377
G1 X138.522 Y72.936 E7.76368
G1 X143.235 Y71.109 E8.16717
G1 X143.537 Y70.98 E8.19338
G1 X148.601 Y68.637 E8.63878
G1 X149.643 Y68.198 E8.72904
G1 X150.343 Y67.935 E8.78873
G1 X151.288 Y67.615 E8.86837
G1 X152.313 Y67.303 E8.9539
G1 X152.443 Y67.265 E8.96471
G1 X153.603 Y66.969 E9.06028
G1 X153.702 Y66.945 E9.06841
G1 X154.776 Y66.72 E9.156
G1 X154.844 Y66.707 E9.16153
G1 X156.085 Y66.505 E9.26189
G1 X156.229 Y66.485 E9.2735
G1 X157.278 Y66.362 E9.35781
G1 X157.373 Y66.353 E9.36542
G1 X158.581 Y66.267 E9.46209
G1 X158.699 Y66.261 E9.47153
G1 X159.778 Y66.232 E9.55769
G1 X159.895 Y66.231 E9.56703
G1 X161.101 Y66.253 E9.66331
G1 X161.229 Y66.258 E9.67354
G1 X162.309 Y66.325 E9.75991
G1 X163.61 Y66.465 E9.86436
G1 X163.776 Y66.486 E9.87772
G1 X164.778 Y66.641 E9.95866
G1 X164.963 Y66.674 E9.97366
G1 X166.101 Y66.902 E10.0663
G1 X166.211 Y66.926 E10.07529
G1 X167.344 Y67.208 E10.16849
G1 X168.625 Y67.588 E10.27515
G1 X169.691 Y67.956 E10.36517
G1 X170.91 Y68.437 E10.46978
G1 X170.987 Y68.469 E10.47643
G1 X172.059 Y68.951 E10.57026
G1 X173.178 Y69.515 E10.67028
G1 X173.267 Y69.562 E10.67832
G1 X174.216 Y70.095 E10.7652
G1 X174.305 Y70.147 E10.77343
G1 X175.379 Y70.816 E10.87443
G1 X176.352 Y71.482 E10.96855
G1 X176.431 Y71.539 E10.97633
G1 X177.389 Y72.263 E11.07218
G1 X177.477 Y72.332 E11.08111
G1 X178.296 Y73.009 E11.16593
G1 X178.412 Y73.11 E11.17821
G1 X179.315 Y73.927 E11.27541
G1 X179.379 Y73.988 E11.28247
G1 X180.157 Y74.76 E11.36996
G1 X180.237 Y74.842 E11.37911
G1 X181.049 Y75.723 E11.47474
G1 X181.125 Y75.809 E11.48391
G1 X181.808 Y76.618 E11.56842
G1 X181.879 Y76.706 E11.57745
G1 X182.639 Y77.694 E11.67695
G1 X182.722 Y77.809 E11.68827
G1 X183.299 Y78.634 E11.76863
G1 X183.394 Y78.776 E11.78227
G1 X184.019 Y79.761 E11.87539
G1 X184.102 Y79.897 E11.88811
G1 X184.629 Y80.815 E11.9726
G1 X184.684 Y80.917 E11.98185
G1 X185.285 Y82.089 E12.08699
G1 X185.755 Y83.113 E12.17693
G1 X185.792 Y83.199 E12.1844
G1 X186.244 Y84.314 E12.28044
G1 X186.282 Y84.413 E12.28891
G1 X186.636 Y85.407 E12.37313
G1 X186.677 Y85.534 E12.38379
G1 X187.027 Y86.68 E12.47944
G1 X187.069 Y86.824 E12.49141
G1 X187.356 Y87.949 E12.58409
G1 X187.614 Y89.178 E12.68433
G1 X187.631 Y89.272 E12.69196
G1 X187.798 Y90.298 E12.77493
G1 X187.825 Y90.485 E12.79002
G1 X187.956 Y91.607 E12.88019
G1 X187.973 Y91.783 E12.8943
G1 X188.053 Y92.905 E12.98409
G1 X188.092 Y93.983 E13.0702
G1 X188.084 Y109.182 E14.28345
G1 X188.082 Y109.278 E14.29111
G1 X188.041 Y110.34 E14.37595
G1 X188.008 Y110.772 E14.41053
G1 X187.892 Y111.759 E14.48986
G1 X187.866 Y111.931 E14.50375
G1 X187.68 Y112.911 E14.58337
G1 X187.596 Y113.576 E14.63688
G1 X187.596 Y114.26 E14.69148
G1 X187.694 Y114.987 E14.75004
G1 X187.809 Y115.543 E14.79536
G1 X187.857 Y115.813 E14.81725
G1 X187.991 Y116.725 E14.89083
G1 X188.01 Y116.884 E14.90361
G1 X188.078 Y117.82 E14.97852
G1 X188.083 Y117.928 E14.98715
G1 X188.092 Y118.463 E15.02987
G1 X188.092 Y133.656 E16.24264
G1 X188.09 Y133.917 E16.26347
G1 X188.076 Y134.699 E16.3259
G1 X188.072 Y134.813 E16.33501
G1 X187.993 Y136.045 E16.43356
G1 X187.986 Y136.131 E16.44044
G1 X187.866 Y137.249 E16.5302
G1 X187.669 Y138.528 E16.6335
G1 X187.649 Y138.644 E16.64289
G1 X187.439 Y139.692 E16.72821
G1 X187.413 Y139.809 E16.73778
G1 X187.117 Y141.006 E16.83621
G1 X186.786 Y142.133 E16.92997
G1 X186.752 Y142.239 E16.93886
G1 X186.347 Y143.416 E17.03822
G1 X185.909 Y144.524 E17.13332
G1 X185.388 Y145.691 E17.23534
G1 X185.321 Y145.831 E17.24773
G1 X184.834 Y146.796 E17.33401
G1 X184.18 Y147.963 E17.4408
G1 X183.548 Y148.981 E17.53645
G1 X183.516 Y149.031 E17.54118
G1 X182.767 Y150.121 E17.64675
G1 X182.094 Y151.013 E17.73595
G1 X182.04 Y151.081 E17.74288
G1 X181.202 Y152.092 E17.8477
G1 X180.402 Y152.973 E17.9427
G1 X179.462 Y153.92 E18.04921
G1 X178.677 Y154.644 E18.13445
G1 X178.565 Y154.744 E18.14644
G1 X177.615 Y155.544 E18.24558
G1 X176.68 Y156.264 E18.33978
G1 X176.597 Y156.325 E18.348
G1 X175.608 Y157.016 E18.44431
G1 X175.493 Y157.092 E18.45531
G1 X174.58 Y157.671 E18.54161
G1 X174.517 Y157.709 E18.54748
G1 X173.446 Y158.324 E18.64607
G1 X173.339 Y158.383 E18.65582
G1 X172.389 Y158.873 E18.74115
G1 X172.273 Y158.929 E18.75143
G1 X171.163 Y159.439 E18.84894
G1 X170.041 Y159.896 E18.94564
G1 X168.799 Y160.338 E19.05088
G1 X168.722 Y160.363 E19.05734
G1 X167.58 Y160.709 E19.15259
G1 X166.411 Y161.01 E19.24895
G1 X166.28 Y161.039 E19.25966
G1 X165.128 Y161.279 E19.35359
G1 X163.937 Y161.473 E19.44992
G1 X163.792 Y161.493 E19.4616
G1 X162.724 Y161.619 E19.54744
G1 X161.408 Y161.715 E19.65277
G1 X161.284 Y161.721 E19.66268
G1 X160.214 Y161.749 E19.74812
G1 X160.095 Y161.75 E19.75762
G1 X158.9 Y161.727 E19.85303
G1 X158.766 Y161.722 E19.86373
G1 X157.712 Y161.656 E19.94803
G1 X157.569 Y161.643 E19.9595
G1 X156.388 Y161.516 E20.05431
G1 X156.266 Y161.501 E20.06412
G1 X155.189 Y161.335 E20.15111
G1 X155.102 Y161.32 E20.15816
G1 X153.814 Y161.061 E20.26303
G1 X152.707 Y160.787 E20.35406
G1 X151.432 Y160.411 E20.46017
G1 X151.374 Y160.393 E20.46502
G1 X150.249 Y160.003 E20.56006
G1 X149.013 Y159.512 E20.66623
G1 X147.948 Y159.034 E20.75941
G1 X147.672 Y158.906 E20.78369
G1 X144.613 Y157.465 E21.05361
G1 X144.343 Y157.347 E21.07713
G1 X139.632 Y155.445 E21.48268
G1 X139.327 Y155.332 E21.50864
G1 X134.536 Y153.738 E21.91169
G1 X134.223 Y153.646 E21.93773
G1 X129.353 Y152.36 E22.3398
G1 X129.033 Y152.286 E22.36602
G1 X124.094 Y151.31 E22.7679
G1 X123.774 Y151.257 E22.79379
G1 X118.785 Y150.592 E23.19556
G1 X118.458 Y150.558 E23.2218
G1 X113.428 Y150.209 E23.62428
G1 X113.103 Y150.196 E23.65024
G1 X108.046 Y150.161 E24.05393
G1 X107.719 Y150.169 E24.08004
G1 X102.719 Y150.45 E24.47979
G1 X102.393 Y150.478 E24.50591
G1 X97.377 Y151.078 E24.90916
G1 X97.056 Y151.126 E24.93507
G1 X92.106 Y152.035 E25.3368
G1 X91.784 Y152.104 E25.36309
G1 X86.891 Y153.325 E25.76565
G1 X86.576 Y153.415 E25.7918
G1 X81.786 Y154.937 E26.193
G1 X81.481 Y155.044 E26.2188
G1 X76.766 Y156.872 E26.62247
G1 X76.464 Y157.001 E26.64868
G1 X71.344 Y159.368 E27.09894
G1 X70.346 Y159.787 E27.18534
G1 X69.674 Y160.04 E27.24266
G1 X68.806 Y160.336 E27.31587
G1 X67.653 Y160.688 E27.4121
G1 X67.58 Y160.709 E27.41816
G1 X66.411 Y161.01 E27.51452
G1 X66.28 Y161.039 E27.52523
G1 X65.128 Y161.279 E27.61916
G1 X63.937 Y161.473 E27.71548
G1 X63.792 Y161.493 E27.72717
G1 X62.724 Y161.619 E27.81301
G1 X61.408 Y161.715 E27.91834
G1 X61.284 Y161.721 E27.92825
G1 X60.214 Y161.749 E28.01369
G1 X60.095 Y161.75 E28.02319
G1 X58.9 Y161.727 E28.1186
G1 X58.766 Y161.722 E28.1293
G1 X57.712 Y161.656 E28.2136
G1 X57.569 Y161.643 E28.22506
G1 X56.388 Y161.516 E28.31988
G1 X56.266 Y161.501 E28.32969
G1 X55.189 Y161.335 E28.41668
G1 X55.102 Y161.32 E28.42373
G1 X53.814 Y161.061 E28.5286
G1 X52.707 Y160.787 E28.61963
G1 X51.432 Y160.411 E28.72574
G1 X51.374 Y160.393 E28.73059
G1 X50.249 Y160.003 E28.82563
G1 X49.013 Y159.512 E28.93179
G1 X47.933 Y159.026 E29.02633
G1 X46.809 Y158.459 E29.12682
G1 X46.722 Y158.413 E29.13468
G1 X45.688 Y157.83 E29.22943
G1 X44.655 Y157.186 E29.3266
G1 X44.52 Y157.097 E29.33951
G1 X43.691 Y156.527 E29.41982
G1 X43.559 Y156.432 E29.4328
G1 X42.613 Y155.719 E29.52736
G1 X42.502 Y155.632 E29.53862
G1 X41.614 Y154.896 E29.63068
G1 X40.645 Y154.016 E29.73517
G1 X39.848 Y153.226 E29.82475
G1 X39.769 Y153.145 E29.83378
G1 X38.919 Y152.223 E29.93388
G1 X38.866 Y152.163 E29.94027
G1 X38.163 Y151.327 E30.02746
G1 X38.081 Y151.224 E30.03797
G1 X37.356 Y150.279 E30.13305
G1 X37.286 Y150.182 E30.1426
G1 X36.687 Y149.326 E30.226
G1 X36.602 Y149.198 E30.23826
G1 X35.977 Y148.213 E30.33138
G1 X35.893 Y148.074 E30.34435
G1 X35.366 Y147.156 E30.42884
G1 X35.312 Y147.056 E30.43791
G1 X34.748 Y145.958 E30.53645
G1 X34.714 Y145.888 E30.54266
G1 X34.224 Y144.82 E30.63646
G1 X33.755 Y143.665 E30.73596
G1 X33.702 Y143.523 E30.74806
G1 X33.359 Y142.557 E30.82989
G1 X33.316 Y142.425 E30.84097
G1 X32.97 Y141.292 E30.93554
G1 X32.932 Y141.159 E30.94658
G1 X32.662 Y140.109 E31.03312
G1 X32.645 Y140.036 E31.0391
G1 X32.39 Y138.82 E31.13828
G1 X32.36 Y138.654 E31.15175
G1 X32.195 Y137.636 E31.23407
G1 X32.178 Y137.514 E31.2439
G1 X32.039 Y136.33 E31.33906
G1 X32.027 Y136.199 E31.34956
G1 X31.946 Y135.058 E31.44087
G1 X31.908 Y133.998 E31.52554
G1 X31.916 Y118.799 E32.73879
G1 X31.918 Y118.703 E32.74645
G1 X31.96 Y117.641 E32.83129
G1 X31.988 Y117.259 E32.86187
G1 X31.997 Y117.168 E32.86917
G1 X32.107 Y116.222 E32.94519
G1 X32.128 Y116.085 E32.95625
G1 X32.321 Y115.068 E33.03888
G1 X32.404 Y114.404 E33.0923
G1 X32.404 Y113.719 E33.14698
G1 X32.304 Y112.989 E33.20579
G1 X32.185 Y112.409 E33.25306
G1 X32.142 Y112.159 E33.27331
G1 X32.009 Y111.255 E33.34624
G1 X31.99 Y111.096 E33.35903
G1 X31.921 Y110.148 E33.4349
G1 X31.917 Y110.042 E33.44337
G1 X31.908 Y109.517 E33.48528
G1 X31.908 Y94.325 E34.69797
G1 X31.91 Y94.064 E34.71881
G1 X31.924 Y93.281 E34.78132
G1 X31.928 Y93.166 E34.79051
G1 X32.006 Y91.927 E34.8896
G1 X32.142 Y90.673 E34.99029
G1 X32.347 Y89.356 E35.09668
G1 X32.562 Y88.282 E35.18412
G1 X32.595 Y88.135 E35.19614
G1 X32.874 Y87.01 E35.28867
G1 X32.911 Y86.874 E35.29992
G1 X33.214 Y85.847 E35.38539
G1 X33.248 Y85.741 E35.39428
G1 X33.653 Y84.564 E35.49364
G1 X34.085 Y83.469 E35.5876
G1 X34.61 Y82.297 E35.69011
G1 X34.685 Y82.138 E35.70414
G1 X35.212 Y81.099 E35.79714
G1 X35.847 Y79.973 E35.90033
G1 X36.484 Y78.951 E35.99646
G1 X37.18 Y77.935 E36.09477
G1 X37.262 Y77.821 E36.10598
G1 X37.906 Y76.967 E36.19136
G1 X37.955 Y76.905 E36.19766
G1 X38.798 Y75.888 E36.30311
G1 X39.598 Y75.007 E36.3981
G1 X40.499 Y74.098 E36.50027
G1 X40.554 Y74.045 E36.50636
G1 X41.323 Y73.336 E36.58986
G1 X41.435 Y73.236 E36.60184
G1 X42.387 Y72.434 E36.70121
G1 X42.461 Y72.375 E36.70876
G1 X43.329 Y71.709 E36.7961
G1 X43.403 Y71.655 E36.80341
G1 X44.392 Y70.964 E36.89972
G1 X44.507 Y70.888 E36.91072
G0 F9000 X44.8 Y70.701
G1 F1125 X44.8 Y157.276 E43.82151
G0 F9000 X46.4 Y158.231
G1 F1125 X46.4 Y69.745 E50.88484
G0 F9000 X48 Y68.926
G1 F1125 X48 Y159.056 E58.07941
G0 F9000 X49.6 Y159.745
G1 F1125 X49.6 Y68.231 E65.38445
G0 F9000 X51.2 Y67.643
G1 F1125 X51.2 Y160.332 E72.78329
G0 F9000 X52.8 Y160.81
G1 F1125 X52.8 Y67.173 E80.2578
G0 F9000 X54.4 Y66.798
G1 F1125 X54.4 Y161.178 E87.79162
G0 F9000 X56 Y161.46
G1 F1125 X56 Y66.518 E95.3703
G0 F9000 X57.6 Y66.336
G1 F1125 X57.6 Y161.645 E102.97828
G0 F9000 X59.2 Y161.732
G1 F1125 X59.2 Y66.247 E110.6003
G0 F9000 X60.8 Y66.248
G1 F1125 X60.8 Y161.734 E118.22241
G0 F9000 X62.4 Y161.643
G1 F1125 X62.4 Y66.335 E125.83031
G0 F9000 X64 Y66.521
G1 F1125 X64 Y161.463 E133.40899
G0 F9000 X65.6 Y161.181
G1 F1125 X65.6 Y66.802 E140.94273
G0 F9000 X67.2 Y67.173
G1 F1125 X67.2 Y160.807 E148.417
G0 F9000 X68.8 Y160.338
G1 F1125 X68.8 Y67.649 E155.81583
G0 F9000 X70.4 Y68.236
G1 F1125 X70.4 Y159.765 E163.12207
G0 F9000 X72 Y159.065
G1 F1125 X72 Y68.924 E170.31752
G0 F9000 X73.6 Y69.675
G1 F1125 X73.6 Y158.326 E177.39403
G0 F9000 X75.2 Y157.586
G1 F1125 X75.2 Y70.428 E184.35135
G0 F9000 X76.8 Y71.096
G1 F1125 X76.8 Y156.859 E191.19733
G0 F9000 X78.4 Y156.239
G1 F1125 X78.4 Y71.742 E197.94224
G0 F9000 X80 Y72.388
G1 F1125 X80 Y155.619 E204.5861
G0 F9000 X81.6 Y155.003
G1 F1125 X81.6 Y72.957 E211.13537
G0 F9000 X83.2 Y73.489
G1 F1125 X83.2 Y154.488 E217.60106
G0 F9000 X84.8 Y153.98
G1 F1125 X84.8 Y74.022 E223.98365
G0 F9000 X86.4 Y74.5
G1 F1125 X86.4 Y153.471 E230.28746
G0 F9000 X88 Y153.049
G1 F1125 X88 Y74.922 E236.52389
G0 F9000 X89.6 Y75.344
G1 F1125 X89.6 Y152.649 E242.69471
G0 F9000 X91.2 Y152.25
G1 F1125 X91.2 Y75.74 E248.80207
G0 F9000 X92.8 Y76.056
G1 F1125 X92.8 Y151.908 E254.85691
G0 F9000 X94.4 Y151.614
G1 F1125 X94.4 Y76.373 E260.86297
G0 F9000 X96 Y76.686
G1 F1125 X96 Y151.32 E266.82058
G0 F9000 X97.6 Y151.052
G1 F1125 X97.6 Y76.907 E272.73915
G0 F9000 X99.2 Y77.12
G1 F1125 X99.2 Y150.86 E278.6254
G0 F9000 X100.8 Y150.669
G1 F1125 X100.8 Y77.333 E284.47939
G0 F9000 X102.4 Y77.483
G1 F1125 X102.4 Y150.478 E290.30617
G0 F9000 X104 Y150.379
G1 F1125 X104 Y77.594 E296.11618
G0 F9000 X105.6 Y77.705
G1 F1125 X105.6 Y150.289 E301.91015
G0 F9000 X107.2 Y150.199
G1 F1125 X107.2 Y77.788 E307.69031
G0 F9000 X108.8 Y77.799
G1 F1125 X108.8 Y150.166 E313.46696
G0 F9000 X110.4 Y150.177
G1 F1125 X110.4 Y77.81 E319.24361
G0 F9000 X112 Y77.818
G1 F1125 X112 Y150.188 E325.02049
G0 F9000 X113.6 Y150.22
G1 F1125 X113.6 Y77.737 E330.8064
G0 F9000 X115.2 Y77.647
G1 F1125 X115.2 Y150.331 E336.60835
G0 F9000 X116.8 Y150.442
G1 F1125 X116.8 Y77.558 E342.42627
G0 F9000 X118.4 Y77.408
G1 F1125 X118.4 Y150.553 E348.26502
G0 F9000 X120 Y150.753
G1 F1125 X120 Y77.217 E354.13498
G0 F9000 X121.6 Y77.026
G1 F1125 X121.6 Y150.967 E360.03727
G0 F9000 X123.2 Y151.18
G1 F1125 X123.2 Y76.808 E365.97396
G0 F9000 X124.8 Y76.514
G1 F1125 X124.8 Y151.449 E371.9556
G0 F9000 X126.4 Y151.765
G1 F1125 X126.4 Y76.219 E377.98601
G0 F9000 X128 Y75.922
G1 F1125 X128 Y152.081 E384.06535
G0 F9000 X129.6 Y152.425
G1 F1125 X129.6 Y75.53 E390.20344
G0 F9000 X131.2 Y75.13
G1 F1125 X131.2 Y152.847 E396.40715
G0 F9000 X132.8 Y153.27
G1 F1125 X132.8 Y74.731 E402.67647
G0 F9000 X134.4 Y74.255
