;FLAVOR:Marlin
;TIME:9267
;Filament used: 6.25567m
;Layer height: 0.2
;MINX:38.708
;MINY:73.027
;MINZ:0.2
;MAXX:181.292
;MAXY:154.953
;MAXZ:7
;Generated with Cura_SteamEngine 4.9.0
M82 ;absolute extrusion mode
; Ender 3 Custom Start G-code
M117 Warming Print Bed
M140 S80 ; Set Heat Bed temperature
M190 S80 ; Wait for Heat Bed temperature
M104 S160; start warming extruder to 160
M117 Homing all axes
G28 ; Home all axes
M117 Beginning Bed Leveling
G29 ; Auto bed-level (BL-Touch)
G92 E0 ; Reset Extruder
M117 Warming Extruder
M104 S200.0 ; Set Extruder temperature
G1 X0.1 Y20 Z0.3 F5000.0 ; Move to start position
M109 S200.0 ; Wait for Extruder temperature
; G1 Z2.0 F3000 ; Move Z Axis up little to prevent scratching of Heat Bed
G1 X0.1 Y200.0 Z0.3 F1500.0 E15 ; Draw the first line
G1 X0.4 Y200.0 Z0.3 F5000.0 ; Move to side a little
G1 X0.4 Y20 Z0.3 F1500.0 E30 ; Draw the second line
G92 E0 ; Reset Extruder
G1 Z2.0 F3000 ; Move Z Axis up little to prevent scratching of Heat Bed
; End of custom start GCode
G92 E0
G92 E0
G1 F1500 E-6.5
;LAYER_COUNT:35
;LAYER:0
M107
G0 F6000 X48.08 Y76.674 Z0.2
;TYPE:SKIRT
G1 F1500 E0
G1 F1200 X49.102 Y76.025 E0.04027
G1 X49.718 Y75.673 E0.06386
G1 X50.796 Y75.119 E0.10418
G1 X51.415 Y74.834 E0.12684
G1 X52.538 Y74.376 E0.16718
G1 X53.22 Y74.134 E0.19125
G1 X54.377 Y73.783 E0.23146
G1 X55.033 Y73.614 E0.25399
G1 X56.22 Y73.364 E0.29434
G1 X56.926 Y73.249 E0.31813
G1 X58.129 Y73.109 E0.35841
G1 X58.818 Y73.06 E0.38139
G1 X60.028 Y73.027 E0.42165
G1 X60.731 Y73.039 E0.44503
G1 X61.939 Y73.115 E0.48529
G1 X62.638 Y73.191 E0.50868
G1 X63.837 Y73.376 E0.54903
G1 X64.525 Y73.514 E0.57236
G1 X65.699 Y73.805 E0.61259
G1 X66.364 Y74.002 E0.63566
G1 X67.51 Y74.397 E0.67598
G1 X68.162 Y74.655 E0.6993
G1 X69.267 Y75.151 E0.73959
G1 X72.787 Y76.809 E0.869
G1 X78.17 Y78.983 E1.06209
G1 X83.67 Y80.811 E1.25486
G1 X89.307 Y82.3 E1.44878
G1 X94.946 Y83.413 E1.63995
G1 X100.707 Y84.181 E1.83325
G1 X106.472 Y84.583 E2.02546
G1 X112.266 Y84.622 E2.21818
G1 X118.054 Y84.298 E2.41099
G1 X123.805 Y83.61 E2.60363
G1 X129.475 Y82.568 E2.79538
G1 X135.11 Y81.163 E2.98853
G1 X140.645 Y79.407 E3.18167
G1 X146.043 Y77.312 E3.37426
G1 X151.509 Y74.784 E3.57456
G1 X152.038 Y74.562 E3.59364
G1 X152.733 Y74.3 E3.61834
G1 X153.214 Y74.137 E3.63524
G1 X154.371 Y73.785 E3.67546
G1 X155.033 Y73.614 E3.6982
G1 X156.22 Y73.364 E3.73855
G1 X156.926 Y73.249 E3.76234
G1 X158.129 Y73.109 E3.80262
G1 X158.818 Y73.06 E3.82559
G1 X160.028 Y73.027 E3.86585
G1 X160.731 Y73.039 E3.88924
G1 X161.939 Y73.115 E3.9295
G1 X162.638 Y73.191 E3.95288
G1 X163.837 Y73.376 E3.99323
G1 X164.525 Y73.514 E4.01657
G1 X165.699 Y73.805 E4.0568
G1 X166.364 Y74.002 E4.07987
G1 X167.51 Y74.397 E4.12019
G1 X168.159 Y74.654 E4.1434
G1 X169.263 Y75.149 E4.18364
G1 X169.888 Y75.463 E4.20691
G1 X170.947 Y76.057 E4.24729
G1 X171.551 Y76.433 E4.27096
G1 X172.547 Y77.118 E4.31116
G1 X173.096 Y77.533 E4.33405
G1 X174.03 Y78.305 E4.37435
G1 X174.551 Y78.776 E4.39771
G1 X175.412 Y79.629 E4.43802
G1 X175.89 Y80.148 E4.46149
G1 X176.671 Y81.076 E4.50183
G1 X177.095 Y81.628 E4.52498
G1 X177.788 Y82.619 E4.56521
G1 X178.162 Y83.207 E4.58838
G1 X178.765 Y84.258 E4.62868
G1 X179.089 Y84.888 E4.65225
G1 X179.594 Y85.989 E4.69253
G1 X179.857 Y86.638 E4.71583
G1 X180.262 Y87.782 E4.75619
G1 X180.462 Y88.437 E4.77897
G1 X180.764 Y89.608 E4.81919
G1 X180.91 Y90.306 E4.84291
G1 X181.104 Y91.501 E4.88317
G1 X181.185 Y92.191 E4.90628
G1 X181.272 Y93.4 E4.9466
G1 X181.292 Y93.964 E4.96537
G1 X181.284 Y109.236 E5.47332
G1 X181.259 Y109.85 E5.49375
G1 X181.228 Y110.24 E5.50677
G1 X181.126 Y111.023 E5.53303
G1 X180.945 Y111.792 E5.55931
G1 X180.798 Y112.248 E5.57524
G1 X180.665 Y112.62 E5.58838
G1 X180.362 Y113.349 E5.61464
G1 X180.037 Y113.951 E5.63739
G1 X180.123 Y114.091 E5.64286
G1 X180.327 Y114.49 E5.65776
G1 X180.495 Y114.843 E5.67076
G1 X180.798 Y115.572 E5.69702
G1 X181.025 Y116.329 E5.72331
G1 X181.12 Y116.768 E5.73825
G1 X181.16 Y116.983 E5.74552
G1 X181.265 Y117.766 E5.7718
G1 X181.292 Y118.41 E5.79323
G1 X181.291 Y133.797 E6.30501
G1 X181.276 Y134.645 E6.33322
G1 X181.231 Y135.35 E6.35671
G1 X181.1 Y136.555 E6.39703
G1 X180.993 Y137.249 E6.42038
G1 X180.754 Y138.438 E6.46072
G1 X180.589 Y139.105 E6.48357
G1 X180.247 Y140.266 E6.52383
G1 X180.016 Y140.937 E6.54743
G1 X179.57 Y142.062 E6.58768
G1 X179.283 Y142.701 E6.61098
G1 X178.737 Y143.783 E6.65129
G1 X178.398 Y144.387 E6.67433
G1 X177.759 Y145.415 E6.71459
G1 X177.362 Y145.993 E6.73791
G1 X176.632 Y146.961 E6.77823
G1 X176.18 Y147.507 E6.80181
G1 X175.366 Y148.404 E6.8421
G1 X174.879 Y148.895 E6.8651
G1 X173.988 Y149.717 E6.90542
G1 X173.449 Y150.171 E6.92886
G1 X172.489 Y150.908 E6.96911
G1 X171.92 Y151.306 E6.99221
G1 X170.898 Y151.955 E7.03247
G1 X170.287 Y152.305 E7.05589
G1 X169.209 Y152.86 E7.09622
G1 X168.585 Y153.147 E7.11906
G1 X167.462 Y153.605 E7.1594
G1 X166.78 Y153.847 E7.18347
G1 X165.623 Y154.198 E7.22368
G1 X164.96 Y154.368 E7.24645
G1 X163.773 Y154.617 E7.28679
G1 X163.08 Y154.73 E7.31014
G1 X161.877 Y154.871 E7.35043
G1 X161.175 Y154.921 E7.37384
G1 X159.965 Y154.953 E7.41409
G1 X159.269 Y154.941 E7.43725
G1 X158.061 Y154.865 E7.47751
G1 X157.368 Y154.79 E7.50069
G1 X156.169 Y154.606 E7.54103
G1 X155.475 Y154.467 E7.56458
G1 X154.301 Y154.176 E7.6048
G1 X153.636 Y153.979 E7.62787
G1 X152.49 Y153.584 E7.66819
G1 X151.838 Y153.326 E7.69151
G1 X150.733 Y152.83 E7.7318
G1 X147.213 Y151.172 E7.86121
G1 X141.83 Y148.998 E8.0543
G1 X136.318 Y147.166 E8.24749
G1 X130.703 Y145.682 E8.44066
G1 X125.05 Y144.567 E8.6323
G1 X119.297 Y143.801 E8.82533
G1 X113.528 Y143.398 E9.01768
G1 X107.734 Y143.359 E9.21039
G1 X101.946 Y143.683 E9.4032
G1 X96.204 Y144.369 E9.59554
G1 X90.515 Y145.415 E9.78793
G1 X84.881 Y146.819 E9.98105
G1 X79.366 Y148.57 E10.1735
G1 X73.957 Y150.669 E10.36648
G1 X68.48 Y153.201 E10.56717
G1 X67.972 Y153.414 E10.58549
G1 X67.277 Y153.677 E10.6102
G1 X66.786 Y153.844 E10.62745
G1 X65.629 Y154.196 E10.66768
G1 X64.96 Y154.368 E10.69065
G1 X63.773 Y154.617 E10.73099
G1 X63.08 Y154.73 E10.75434
G1 X61.877 Y154.871 E10.79463
G1 X61.175 Y154.921 E10.81804
G1 X59.965 Y154.953 E10.8583
G1 X59.269 Y154.941 E10.88145
G1 X58.061 Y154.865 E10.92171
G1 X57.368 Y154.79 E10.94489
G1 X56.169 Y154.606 E10.98524
G1 X55.475 Y154.467 E11.00878
G1 X54.301 Y154.176 E11.04901
G1 X53.636 Y153.979 E11.07207
G1 X52.49 Y153.584 E11.11239
G1 X51.84 Y153.327 E11.13564
G1 X50.734 Y152.831 E11.17595
G1 X50.105 Y152.514 E11.19938
G1 X49.048 Y151.92 E11.23971
G1 X48.453 Y151.55 E11.26301
G1 X47.457 Y150.866 E11.3032
G1 X46.899 Y150.444 E11.32647
G1 X45.964 Y149.67 E11.36684
G1 X45.452 Y149.206 E11.38982
G1 X44.591 Y148.354 E11.43011
G1 X44.106 Y147.829 E11.45388
G1 X43.326 Y146.901 E11.4942
G1 X42.906 Y146.353 E11.51716
G1 X42.212 Y145.361 E11.55743
G1 X41.836 Y144.769 E11.58076
G1 X41.233 Y143.717 E11.62109
G1 X40.911 Y143.092 E11.64447
G1 X40.407 Y141.994 E11.68465
G1 X40.143 Y141.343 E11.70802
G1 X39.738 Y140.199 E11.74838
G1 X39.538 Y139.544 E11.77116
G1 X39.236 Y138.373 E11.81138
G1 X39.089 Y137.672 E11.83521
G1 X38.895 Y136.474 E11.87557
G1 X38.815 Y135.788 E11.89854
G1 X38.728 Y134.582 E11.93876
G1 X38.708 Y134.017 E11.95756
G1 X38.716 Y118.745 E12.46551
G1 X38.741 Y118.131 E12.48595
G1 X38.772 Y117.741 E12.49896
G1 X38.874 Y116.958 E12.52522
G1 X39.055 Y116.189 E12.5515
G1 X39.202 Y115.733 E12.56744
G1 X39.335 Y115.361 E12.58057
G1 X39.638 Y114.632 E12.60683
G1 X39.963 Y114.031 E12.62956
G1 X39.882 Y113.9 E12.63468
G1 X39.661 Y113.466 E12.65088
G1 X39.494 Y113.112 E12.6639
G1 X39.193 Y112.382 E12.69016
G1 X38.968 Y111.625 E12.71643
G1 X38.881 Y111.217 E12.7303
G1 X38.841 Y111.003 E12.73754
G1 X38.735 Y110.221 E12.76379
G1 X38.708 Y109.57 E12.78546
G1 X38.709 Y94.184 E13.2972
G1 X38.724 Y93.335 E13.32544
G1 X38.769 Y92.629 E13.34897
G1 X38.9 Y91.425 E13.38925
G1 X39.007 Y90.733 E13.41254
G1 X39.246 Y89.543 E13.45291
G1 X39.411 Y88.875 E13.4758
G1 X39.753 Y87.714 E13.51606
G1 X39.984 Y87.043 E13.53966
G1 X40.43 Y85.918 E13.57991
G1 X40.719 Y85.276 E13.60333
G1 X41.265 Y84.195 E13.64361
G1 X41.601 Y83.597 E13.66642
G1 X42.24 Y82.568 E13.70671
G1 X42.638 Y81.987 E13.73013
G1 X43.368 Y81.019 E13.77045
G1 X43.82 Y80.473 E13.79403
G1 X44.634 Y79.576 E13.83432
G1 X45.121 Y79.085 E13.85732
G1 X46.012 Y78.263 E13.89764
G1 X46.551 Y77.809 E13.92108
G1 X47.511 Y77.072 E13.96133
G1 X48.08 Y76.674 E13.98443
G0 F6000 X48.294 Y77.012
G1 F1200 X49.316 Y76.363 E14.02469
G1 X49.901 Y76.028 E14.04712
G1 X50.979 Y75.474 E14.08743
G1 X51.566 Y75.204 E14.10892
G1 X52.689 Y74.746 E14.14926
G1 X53.336 Y74.517 E14.17208
G1 X54.493 Y74.166 E14.2123
G1 X55.116 Y74.006 E14.23369
G1 X56.303 Y73.756 E14.27404
G1 X56.973 Y73.647 E14.29661
G1 X58.176 Y73.507 E14.3369
G1 X58.829 Y73.46 E14.35867
G1 X60.039 Y73.427 E14.39893
G1 X60.706 Y73.439 E14.42112
G1 X61.914 Y73.515 E14.46138
G1 X62.577 Y73.587 E14.48356
G1 X63.776 Y73.772 E14.52391
G1 X64.428 Y73.902 E14.54602
G1 X65.602 Y74.193 E14.58625
G1 X66.233 Y74.38 E14.60814
G1 X67.379 Y74.775 E14.64846
G1 X67.998 Y75.02 E14.6706
G1 X69.228 Y75.573 E14.71545
G1 X72.624 Y77.174 E14.84033
G1 X78.049 Y79.365 E15.03492
G1 X83.554 Y81.195 E15.22787
G1 X89.209 Y82.688 E15.4224
G1 X94.894 Y83.81 E15.61513
G1 X100.659 Y84.578 E15.80857
G1 X106.457 Y84.983 E16.00188
G1 X112.285 Y85.022 E16.19573
G1 X118.075 Y84.698 E16.38861
G1 X123.865 Y84.006 E16.58255
G1 X129.563 Y82.958 E16.77525
G1 X135.23 Y81.546 E16.9695
G1 X140.77 Y79.788 E17.16281
G1 X146.196 Y77.681 E17.35641
G1 X151.677 Y75.147 E17.55725
G1 X152.179 Y74.937 E17.57535
G1 X152.874 Y74.675 E17.60005
G1 X153.33 Y74.519 E17.61608
G1 X154.487 Y74.167 E17.6563
G1 X155.116 Y74.006 E17.6779
G1 X156.303 Y73.756 E17.71824
G1 X156.973 Y73.647 E17.74082
G1 X158.176 Y73.507 E17.7811
G1 X158.829 Y73.46 E17.80288
G1 X160.039 Y73.427 E17.84314
G1 X160.706 Y73.439 E17.86533
G1 X161.914 Y73.515 E17.90558
G1 X162.577 Y73.587 E17.92777
G1 X163.776 Y73.772 E17.96812
G1 X164.428 Y73.902 E17.99023
G1 X165.602 Y74.193 E18.03046
G1 X166.233 Y74.38 E18.05235
G1 X167.379 Y74.775 E18.09266
G1 X167.996 Y75.019 E18.11473
G1 X169.1 Y75.514 E18.15497
G1 X169.692 Y75.812 E18.17702
G1 X170.751 Y76.406 E18.2174
G1 X171.324 Y76.763 E18.23986
G1 X172.32 Y77.448 E18.28006
G1 X172.842 Y77.841 E18.30179
G1 X173.776 Y78.613 E18.3421
G1 X174.269 Y79.06 E18.36423
G1 X175.13 Y79.913 E18.40454
G1 X175.584 Y80.405 E18.42681
G1 X176.365 Y81.333 E18.46715
G1 X176.767 Y81.857 E18.48912
G1 X177.46 Y82.848 E18.52934
G1 X177.815 Y83.406 E18.55133
G1 X178.418 Y84.457 E18.59163
G1 X178.725 Y85.055 E18.61399
G1 X179.23 Y86.156 E18.65428
G1 X179.48 Y86.771 E18.67636
G1 X179.885 Y87.915 E18.71672
G1 X180.075 Y88.537 E18.73836
G1 X180.377 Y89.708 E18.77858
G1 X180.515 Y90.37 E18.80107
G1 X180.709 Y91.565 E18.84133
G1 X180.786 Y92.22 E18.86327
G1 X180.873 Y93.429 E18.90359
G1 X180.892 Y93.964 E18.92139
G1 X180.884 Y109.236 E19.42934
G1 X180.861 Y109.818 E19.44871
G1 X180.83 Y110.208 E19.46172
G1 X180.729 Y110.971 E19.48732
G1 X180.55 Y111.719 E19.5129
G1 X180.421 Y112.113 E19.52669
G1 X180.288 Y112.485 E19.53983
G1 X179.992 Y113.195 E19.56542
G1 X179.561 Y113.941 E19.59407
G1 X179.791 Y114.319 E19.60879
G1 X179.966 Y114.662 E19.6216
G1 X180.134 Y115.015 E19.6346
G1 X180.428 Y115.726 E19.66019
G1 X180.646 Y116.463 E19.68575
G1 X180.727 Y116.841 E19.69861
G1 X180.767 Y117.056 E19.70588
G1 X180.868 Y117.819 E19.73148
G1 X180.892 Y118.41 E19.75116
G1 X180.891 Y133.79 E20.2627
G1 X180.876 Y134.638 E20.29091
G1 X180.834 Y135.307 E20.3132
G1 X180.703 Y136.512 E20.35352
G1 X180.601 Y137.17 E20.37566
G1 X180.362 Y138.359 E20.416
G1 X180.205 Y138.992 E20.43769
G1 X179.863 Y140.153 E20.47795
G1 X179.644 Y140.789 E20.50032
G1 X179.198 Y141.914 E20.54057
G1 X178.926 Y142.521 E20.56269
G1 X178.38 Y143.603 E20.603
G1 X178.058 Y144.176 E20.62486
G1 X177.419 Y145.204 E20.66512
G1 X177.042 Y145.753 E20.68727
G1 X176.312 Y146.721 E20.7276
G1 X175.884 Y147.238 E20.74992
G1 X175.07 Y148.135 E20.79021
G1 X174.608 Y148.601 E20.81203
G1 X173.717 Y149.423 E20.85235
G1 X173.205 Y149.854 E20.87461
G1 X172.245 Y150.591 E20.91487
G1 X171.706 Y150.968 E20.93674
G1 X170.684 Y151.617 E20.97701
G1 X170.104 Y151.949 E20.99924
G1 X169.026 Y152.504 E21.03957
G1 X168.434 Y152.777 E21.06125
G1 X167.311 Y153.235 E21.10159
G1 X166.664 Y153.464 E21.12441
G1 X165.507 Y153.815 E21.16463
G1 X164.878 Y153.976 E21.18622
G1 X163.691 Y154.225 E21.22656
G1 X163.033 Y154.333 E21.24874
G1 X161.83 Y154.474 E21.28903
G1 X161.165 Y154.521 E21.3112
G1 X159.955 Y154.553 E21.35146
G1 X159.294 Y154.541 E21.37345
G1 X158.086 Y154.465 E21.4137
G1 X157.429 Y154.394 E21.43568
G1 X156.23 Y154.21 E21.47603
G1 X155.572 Y154.079 E21.49834
G1 X154.398 Y153.788 E21.53857
G1 X153.767 Y153.601 E21.56046
G1 X152.621 Y153.206 E21.60078
G1 X152.002 Y152.961 E21.62292
G1 X150.772 Y152.408 E21.66778
G1 X147.376 Y150.807 E21.79265
G1 X141.951 Y148.616 E21.98725
G1 X136.449 Y146.788 E22.18008
G1 X130.786 Y145.292 E22.37489
G1 X125.104 Y144.17 E22.56753
G1 X119.344 Y143.403 E22.76079
G1 X113.543 Y142.998 E22.95421
G1 X107.715 Y142.959 E23.14805
G1 X101.925 Y143.283 E23.34093
G1 X96.132 Y143.975 E23.53497
G1 X90.44 Y145.021 E23.72746
G1 X84.775 Y146.433 E23.92164
G1 X79.226 Y148.195 E24.11529
G1 X73.804 Y150.3 E24.30874
G1 X68.312 Y152.838 E24.50996
G1 X67.83 Y153.04 E24.52735
G1 X67.135 Y153.303 E24.55206
G1 X66.67 Y153.462 E24.56841
G1 X65.513 Y153.814 E24.60863
G1 X64.878 Y153.976 E24.63043
G1 X63.691 Y154.225 E24.67076
G1 X63.033 Y154.333 E24.69294
G1 X61.83 Y154.474 E24.73323
G1 X61.165 Y154.521 E24.7554
G1 X59.955 Y154.553 E24.79566
G1 X59.294 Y154.541 E24.81765
G1 X58.086 Y154.465 E24.85791
G1 X57.429 Y154.394 E24.87989
G1 X56.23 Y154.21 E24.92023
G1 X55.572 Y154.079 E24.94255
G1 X54.398 Y153.788 E24.98278
G1 X53.767 Y153.601 E25.00466
G1 X52.621 Y153.206 E25.04498
G1 X52.004 Y152.962 E25.06705
G1 X50.898 Y152.466 E25.10737
G1 X50.301 Y152.165 E25.1296
G1 X49.244 Y151.571 E25.16993
G1 X48.68 Y151.22 E25.19202
G1 X47.684 Y150.536 E25.23221
G1 X47.154 Y150.136 E25.2543
G1 X46.219 Y149.362 E25.29467
G1 X45.733 Y148.922 E25.31647
G1 X44.872 Y148.07 E25.35676
G1 X44.412 Y147.571 E25.37933
G1 X43.632 Y146.643 E25.41965
G1 X43.234 Y146.124 E25.44141
G1 X42.54 Y145.132 E25.48167
G1 X42.183 Y144.57 E25.50382
G1 X41.58 Y143.518 E25.54415
G1 X41.275 Y142.925 E25.56633
G1 X40.771 Y141.827 E25.60651
G1 X40.52 Y141.21 E25.62866
G1 X40.115 Y140.066 E25.66903
G1 X39.925 Y139.444 E25.69066
G1 X39.623 Y138.273 E25.73088
G1 X39.484 Y137.608 E25.75348
G1 X39.29 Y136.41 E25.79384
G1 X39.214 Y135.759 E25.81564
G1 X39.127 Y134.553 E25.85586
G1 X39.108 Y134.017 E25.8737
G1 X39.116 Y118.745 E26.38164
G1 X39.139 Y118.163 E26.40102
G1 X39.17 Y117.773 E26.41403
G1 X39.271 Y117.01 E26.43963
G1 X39.45 Y116.262 E26.46521
G1 X39.579 Y115.868 E26.479
G1 X39.712 Y115.496 E26.49214
G1 X40.008 Y114.786 E26.51772
G1 X40.439 Y114.04 E26.54638
G1 X40.213 Y113.672 E26.56074
G1 X40.022 Y113.295 E26.5748
G1 X39.855 Y112.941 E26.58782
G1 X39.564 Y112.23 E26.61337
G1 X39.274 Y111.144 E26.65076
G1 X39.234 Y110.93 E26.658
G1 X39.132 Y110.167 E26.6836
G1 X39.108 Y109.57 E26.70347
G1 X39.109 Y94.191 E27.21498
G1 X39.124 Y93.342 E27.24322
G1 X39.166 Y92.673 E27.26552
G1 X39.297 Y91.469 E27.3058
G1 X39.399 Y90.812 E27.32791
G1 X39.638 Y89.622 E27.36828
G1 X39.795 Y88.988 E27.39001
G1 X40.137 Y87.827 E27.43026
G1 X40.356 Y87.191 E27.45263
G1 X40.802 Y86.066 E27.49288
G1 X41.076 Y85.457 E27.5151
G1 X41.622 Y84.376 E27.55538
G1 X41.941 Y83.808 E27.57704
G1 X42.58 Y82.779 E27.61733
G1 X42.958 Y82.227 E27.63958
G1 X43.688 Y81.259 E27.67991
G1 X44.116 Y80.742 E27.70223
G1 X44.93 Y79.845 E27.74252
G1 X45.392 Y79.379 E27.76434
G1 X46.283 Y78.557 E27.80466
G1 X46.795 Y78.126 E27.82692
G1 X47.755 Y77.389 E27.86718
G1 X48.294 Y77.012 E27.88905
G0 F6000 X48.508 Y77.35
G1 F1200 X49.53 Y76.701 E27.92932
G1 X50.083 Y76.384 E27.95052
G1 X51.161 Y75.83 E27.99083
G1 X51.718 Y75.574 E28.01122
G1 X52.841 Y75.116 E28.05156
G1 X53.452 Y74.899 E28.07312
G1 X54.609 Y74.548 E28.11334
G1 X55.198 Y74.397 E28.13356
