;FLAVOR:Marlin
;TIME:8834
;Filament used: 5.96895m
;Layer height: 0.2
;MINX:35.508
;MINY:69.835
;MINZ:0.2
;MAXX:184.492
;MAXY:158.145
;MAXZ:7
;Generated with Cura_SteamEngine 4.9.0
M82 ;absolute extrusion mode
; Ender 3 Custom Start G-code
M117 Warming Print Bed
M140 S80 ; Set Heat Bed temperature
M190 S80 ; Wait for Heat Bed temperature
M104 S160; start warming extruder to 160
M117 Homing all axes
G28 ; Home all axes
M117 Beginning Bed Leveling
G29 ; Auto bed-level (BL-Touch)
G92 E0 ; Reset Extruder
M117 Warming Extruder
M104 S200.0 ; Set Extruder temperature
G1 X0.1 Y20 Z0.3 F5000.0 ; Move to start position
M109 S200.0 ; Wait for Extruder temperature
; G1 Z2.0 F3000 ; Move Z Axis up little to prevent scratching of Heat Bed
G1 X0.1 Y200.0 Z0.3 F1500.0 E15 ; Draw the first line
G1 X0.4 Y200.0 Z0.3 F5000.0 ; Move to side a little
G1 X0.4 Y20 Z0.3 F1500.0 E30 ; Draw the second line
G92 E0 ; Reset Extruder
G1 Z2.0 F3000 ; Move Z Axis up little to prevent scratching of Heat Bed
; End of custom start GCode
G92 E0
G92 E0
G1 F1500 E-6.5
;LAYER_COUNT:35
;LAYER:0
M107
G0 F6000 X46.777 Y73.715 Z0.2
;TYPE:SKIRT
G1 F1500 E0
G1 F1200 X47.077 Y73.524 E0.01183
G1 X47.471 Y73.282 E0.02721
G1 X48.031 Y72.96 E0.04869
G1 X48.682 Y72.611 E0.07326
G1 X48.995 Y72.45 E0.08497
G1 X49.439 Y72.23 E0.10145
G1 X50.014 Y71.965 E0.12251
G1 X50.681 Y71.681 E0.14662
G1 X50.972 Y71.562 E0.15707
G1 X51.395 Y71.396 E0.17219
G1 X52.037 Y71.167 E0.19486
G1 X52.775 Y70.929 E0.22065
G1 X53.107 Y70.827 E0.2322
G1 X53.555 Y70.698 E0.24771
G1 X54.169 Y70.541 E0.26879
G1 X54.849 Y70.387 E0.29198
G1 X55.161 Y70.321 E0.30258
G1 X55.635 Y70.228 E0.31865
G1 X56.29 Y70.12 E0.34073
G1 X57.065 Y70.016 E0.36674
G1 X57.426 Y69.973 E0.37883
G1 X57.873 Y69.928 E0.39377
G1 X58.485 Y69.884 E0.41418
G1 X59.225 Y69.851 E0.43881
G1 X59.568 Y69.841 E0.45023
G1 X60.016 Y69.835 E0.46513
G1 X60.675 Y69.846 E0.48705
G1 X61.448 Y69.882 E0.51279
G1 X61.774 Y69.902 E0.52365
G1 X62.206 Y69.935 E0.53806
G1 X62.864 Y70.005 E0.56007
G1 X63.636 Y70.111 E0.58599
G1 X63.941 Y70.157 E0.59625
G1 X64.393 Y70.232 E0.61149
G1 X65.087 Y70.371 E0.63503
G1 X65.774 Y70.531 E0.65849
G1 X66.074 Y70.605 E0.66877
G1 X66.565 Y70.734 E0.68565
G1 X67.184 Y70.916 E0.70711
G1 X67.861 Y71.137 E0.7308
G1 X68.165 Y71.241 E0.74148
G1 X68.63 Y71.408 E0.75792
G1 X69.256 Y71.655 E0.7803
G1 X70.047 Y71.995 E0.80894
G1 X70.298 Y72.107 E0.81808
G1 X71.158 Y72.503 E0.84957
G1 X71.686 Y72.752 E0.86898
G1 X74.042 Y73.824 E0.95508
G1 X76.566 Y74.885 E1.04614
G1 X79.03 Y75.842 E1.13406
G1 X81.391 Y76.678 E1.21736
G1 X83.768 Y77.448 E1.30047
G1 X86.163 Y78.149 E1.38347
G1 X88.616 Y78.793 E1.46782
G1 X91.078 Y79.366 E1.55189
G1 X93.582 Y79.875 E1.63688
G1 X96.018 Y80.296 E1.7191
G1 X98.506 Y80.655 E1.80271
G1 X101.018 Y80.946 E1.88682
G1 X103.513 Y81.164 E1.97012
G1 X106.028 Y81.312 E2.05391
G1 X108.551 Y81.388 E2.13787
G1 X111.075 Y81.394 E2.22181
G1 X113.563 Y81.329 E2.30459
G1 X116.117 Y81.189 E2.38967
G1 X118.607 Y80.983 E2.47277
G1 X121.106 Y80.704 E2.5564
G1 X123.581 Y80.357 E2.63953
G1 X126.089 Y79.932 E2.72413
G1 X128.525 Y79.451 E2.80672
G1 X130.994 Y78.887 E2.89095
G1 X133.456 Y78.251 E2.97553
G1 X135.859 Y77.559 E3.0587
G1 X138.244 Y76.798 E3.14196
G1 X140.653 Y75.953 E3.22687
G1 X142.947 Y75.074 E3.30858
G1 X145.32 Y74.089 E3.39404
G1 X147.415 Y73.152 E3.47037
G1 X149.771 Y72.063 E3.5567
G1 X149.978 Y71.97 E3.56424
G1 X150.598 Y71.701 E3.58672
G1 X150.779 Y71.626 E3.59324
G1 X151.247 Y71.444 E3.60994
G1 X151.551 Y71.334 E3.62069
G1 X151.896 Y71.216 E3.63282
G1 X152.798 Y70.923 E3.66437
G1 X153.153 Y70.814 E3.67672
G1 X153.556 Y70.698 E3.69066
G1 X154.169 Y70.541 E3.71171
G1 X154.849 Y70.387 E3.7349
G1 X155.161 Y70.321 E3.74551
G1 X155.635 Y70.228 E3.76157
G1 X156.29 Y70.12 E3.78365
G1 X157.065 Y70.016 E3.80966
G1 X157.426 Y69.973 E3.82175
G1 X157.873 Y69.928 E3.83669
G1 X158.485 Y69.884 E3.8571
G1 X159.225 Y69.851 E3.88174
G1 X159.568 Y69.841 E3.89315
G1 X160.016 Y69.835 E3.90805
G1 X160.675 Y69.846 E3.92998
G1 X161.448 Y69.882 E3.95571
G1 X161.774 Y69.902 E3.96658
G1 X162.206 Y69.935 E3.98099
G1 X162.864 Y70.005 E4.003
G1 X163.636 Y70.111 E4.02891
G1 X163.941 Y70.157 E4.03917
G1 X164.393 Y70.232 E4.05441
G1 X165.087 Y70.371 E4.07795
G1 X165.774 Y70.531 E4.10141
G1 X166.074 Y70.605 E4.11169
G1 X166.565 Y70.734 E4.12858
G1 X167.184 Y70.916 E4.15004
G1 X167.861 Y71.137 E4.17372
G1 X168.165 Y71.241 E4.18441
G1 X168.63 Y71.408 E4.20084
G1 X169.26 Y71.657 E4.22337
G1 X169.92 Y71.941 E4.24727
G1 X170.21 Y72.071 E4.25784
G1 X170.653 Y72.277 E4.27409
G1 X171.239 Y72.571 E4.2959
G1 X171.895 Y72.925 E4.32069
G1 X172.198 Y73.094 E4.33223
G1 X172.58 Y73.316 E4.34692
G1 X173.118 Y73.65 E4.36799
G1 X173.758 Y74.073 E4.3935
G1 X174.056 Y74.277 E4.40551
G1 X174.448 Y74.555 E4.4215
G1 X174.957 Y74.938 E4.44268
G1 X175.527 Y75.394 E4.46696
G1 X175.782 Y75.605 E4.47797
G1 X176.11 Y75.884 E4.49229
G1 X176.595 Y76.322 E4.51403
G1 X177.173 Y76.876 E4.54066
G1 X177.412 Y77.112 E4.55183
G1 X177.728 Y77.434 E4.56683
G1 X178.172 Y77.914 E4.58858
G1 X178.638 Y78.449 E4.61218
G1 X178.854 Y78.705 E4.62332
G1 X179.166 Y79.086 E4.6397
G1 X179.568 Y79.609 E4.66164
G1 X179.994 Y80.198 E4.68582
G1 X180.179 Y80.461 E4.69651
G1 X180.459 Y80.873 E4.71308
G1 X180.812 Y81.428 E4.73495
G1 X181.183 Y82.051 E4.75907
G1 X181.355 Y82.35 E4.77054
G1 X181.571 Y82.74 E4.78537
G1 X181.863 Y83.306 E4.80656
G1 X182.193 Y83.993 E4.8319
G1 X182.339 Y84.31 E4.84351
G1 X182.533 Y84.749 E4.85948
G1 X182.776 Y85.344 E4.88085
G1 X183.032 Y86.029 E4.90517
G1 X183.145 Y86.348 E4.91643
G1 X183.302 Y86.811 E4.93269
G1 X183.492 Y87.429 E4.9542
G1 X183.681 Y88.117 E4.97793
G1 X183.769 Y88.458 E4.98964
G1 X183.877 Y88.907 E5.005
G1 X184.006 Y89.521 E5.02587
G1 X184.145 Y90.289 E5.05183
G1 X184.202 Y90.638 E5.06359
G1 X184.268 Y91.084 E5.07858
G1 X184.345 Y91.731 E5.10025
G1 X184.408 Y92.448 E5.12419
G1 X184.431 Y92.772 E5.135
G1 X184.463 Y93.322 E5.15332
G1 X184.478 Y93.656 E5.16444
G1 X184.488 Y94.017 E5.17645
G1 X184.492 Y94.328 E5.1868
G1 X184.483 Y108.725 E5.66564
G1 X184.474 Y109.363 E5.68687
G1 X184.459 Y109.811 E5.70177
G1 X184.386 Y112.368 E5.78686
G1 X184.384 Y114.881 E5.87044
G1 X184.426 Y116.104 E5.91114
G1 X184.49 Y119.217 E6.0147
G1 X184.492 Y119.443 E6.02222
G1 X184.491 Y133.301 E6.48314
G1 X184.48 Y134.273 E6.51547
G1 X184.464 Y134.781 E6.53237
G1 X184.423 Y135.44 E6.55433
G1 X184.353 Y136.203 E6.57982
G1 X184.316 Y136.545 E6.59126
G1 X184.26 Y136.999 E6.60647
G1 X184.166 Y137.618 E6.6273
G1 X184.037 Y138.328 E6.6513
G1 X183.971 Y138.659 E6.66252
G1 X183.867 Y139.146 E6.67909
G1 X183.704 Y139.81 E6.70183
G1 X183.512 Y140.497 E6.72555
G1 X183.424 Y140.794 E6.73585
G1 X183.286 Y141.239 E6.75135
G1 X183.073 Y141.862 E6.77325
G1 X182.794 Y142.602 E6.79955
G1 X182.66 Y142.939 E6.81162
G1 X182.496 Y143.334 E6.82584
G1 X182.248 Y143.887 E6.846
G1 X181.912 Y144.585 E6.87176
G1 X181.759 Y144.892 E6.88317
G1 X181.555 Y145.284 E6.89787
G1 X181.217 Y145.885 E6.9208
G1 X180.839 Y146.512 E6.94515
G1 X180.677 Y146.774 E6.9554
G1 X180.403 Y147.201 E6.97227
G1 X180.038 Y147.734 E6.99376
G1 X179.634 Y148.289 E7.01659
G1 X179.424 Y148.568 E7.02821
G1 X179.13 Y148.946 E7.04413
G1 X178.721 Y149.442 E7.06552
G1 X178.205 Y150.031 E7.09156
G1 X177.972 Y150.288 E7.1031
G1 X177.663 Y150.619 E7.11816
G1 X177.215 Y151.072 E7.13935
G1 X176.672 Y151.59 E7.16431
G1 X176.428 Y151.816 E7.17537
G1 X176.105 Y152.106 E7.18981
G1 X175.6 Y152.533 E7.21181
G1 X174.996 Y153.013 E7.23747
G1 X174.718 Y153.226 E7.24911
G1 X174.343 Y153.505 E7.26466
G1 X173.834 Y153.862 E7.28534
G1 X173.223 Y154.265 E7.30968
G1 X172.928 Y154.453 E7.32132
G1 X172.528 Y154.699 E7.33694
G1 X171.958 Y155.027 E7.35881
G1 X171.293 Y155.383 E7.3839
G1 X171.001 Y155.534 E7.39483
G1 X170.603 Y155.732 E7.40962
G1 X170.021 Y156 E7.43093
G1 X169.311 Y156.303 E7.4566
G1 X169.004 Y156.429 E7.46764
G1 X168.598 Y156.588 E7.48214
G1 X167.963 Y156.814 E7.50456
G1 X167.225 Y157.052 E7.53035
G1 X166.884 Y157.156 E7.54221
G1 X166.452 Y157.28 E7.55716
G1 X165.857 Y157.433 E7.57759
G1 X165.123 Y157.6 E7.60263
G1 X164.779 Y157.673 E7.61432
G1 X164.341 Y157.758 E7.62916
G1 X163.712 Y157.861 E7.65036
G1 X162.954 Y157.963 E7.6758
G1 X162.594 Y158.005 E7.68786
G1 X162.149 Y158.05 E7.70273
G1 X161.523 Y158.095 E7.72361
G1 X160.746 Y158.129 E7.74947
G1 X160.411 Y158.139 E7.76062
G1 X159.958 Y158.145 E7.77569
G1 X159.291 Y158.134 E7.79788
G1 X158.574 Y158.1 E7.82175
G1 X158.248 Y158.079 E7.83262
G1 X157.769 Y158.042 E7.8486
G1 X157.126 Y157.974 E7.8701
G1 X156.387 Y157.873 E7.89491
G1 X156.085 Y157.827 E7.90507
G1 X155.643 Y157.754 E7.91997
G1 X154.949 Y157.616 E7.9435
G1 X154.199 Y157.442 E7.96911
G1 X153.902 Y157.369 E7.97928
G1 X153.447 Y157.25 E7.99493
G1 X152.816 Y157.065 E8.0168
G1 X152.139 Y156.844 E8.04048
G1 X151.835 Y156.74 E8.05117
G1 X151.37 Y156.573 E8.0676
G1 X150.744 Y156.326 E8.08999
G1 X149.953 Y155.986 E8.11862
G1 X149.701 Y155.874 E8.12779
G1 X148.84 Y155.477 E8.15933
G1 X148.314 Y155.229 E8.17867
G1 X145.958 Y154.157 E8.26476
G1 X143.434 Y153.096 E8.35583
G1 X140.97 Y152.139 E8.44374
G1 X138.609 Y151.303 E8.52705
G1 X136.232 Y150.533 E8.61015
G1 X133.837 Y149.832 E8.69315
G1 X131.384 Y149.188 E8.7775
G1 X128.922 Y148.615 E8.86158
G1 X126.418 Y148.106 E8.94657
G1 X123.982 Y147.685 E9.02879
G1 X121.494 Y147.326 E9.1124
G1 X118.982 Y147.035 E9.1965
G1 X116.487 Y146.817 E9.27981
G1 X113.972 Y146.669 E9.3636
G1 X111.449 Y146.593 E9.44755
G1 X108.925 Y146.587 E9.5315
G1 X106.437 Y146.652 E9.61428
G1 X103.883 Y146.792 E9.69935
G1 X101.393 Y146.998 E9.78246
G1 X98.894 Y147.277 E9.86609
G1 X96.419 Y147.624 E9.94921
G1 X93.911 Y148.049 E10.03382
G1 X91.475 Y148.53 E10.1164
G1 X89.006 Y149.094 E10.20064
G1 X86.544 Y149.73 E10.28521
G1 X84.141 Y150.422 E10.36839
G1 X81.756 Y151.183 E10.45165
G1 X79.347 Y152.028 E10.53656
G1 X77.053 Y152.907 E10.61827
G1 X74.68 Y153.892 E10.70372
G1 X72.58 Y154.831 E10.78024
G1 X70.379 Y155.849 E10.86089
G1 X69.649 Y156.173 E10.88746
G1 X69.396 Y156.281 E10.89661
G1 X69.18 Y156.37 E10.90438
G1 X68.739 Y156.541 E10.92011
G1 X68.466 Y156.64 E10.92977
G1 X68.116 Y156.76 E10.94207
G1 X67.199 Y157.058 E10.97414
G1 X66.843 Y157.167 E10.98653
G1 X66.461 Y157.277 E10.99975
G1 X65.857 Y157.433 E11.0205
G1 X65.123 Y157.6 E11.04553
G1 X64.779 Y157.673 E11.05723
G1 X64.341 Y157.758 E11.07207
G1 X63.712 Y157.861 E11.09327
G1 X62.954 Y157.963 E11.11871
G1 X62.594 Y158.005 E11.13076
G1 X62.149 Y158.05 E11.14564
G1 X61.523 Y158.095 E11.16651
G1 X60.746 Y158.129 E11.19238
G1 X60.411 Y158.139 E11.20353
G1 X59.958 Y158.145 E11.21859
G1 X59.291 Y158.134 E11.24078
G1 X58.574 Y158.1 E11.26466
G1 X58.248 Y158.079 E11.27552
G1 X57.769 Y158.042 E11.2915
G1 X57.126 Y157.974 E11.31301
G1 X56.387 Y157.873 E11.33781
G1 X56.085 Y157.827 E11.34797
G1 X55.643 Y157.754 E11.36287
G1 X54.949 Y157.616 E11.38641
G1 X54.199 Y157.442 E11.41202
G1 X53.902 Y157.369 E11.42219
G1 X53.447 Y157.25 E11.43783
G1 X52.816 Y157.065 E11.4597
G1 X52.139 Y156.844 E11.48339
G1 X51.835 Y156.74 E11.49407
G1 X51.37 Y156.573 E11.51051
G1 X50.74 Y156.324 E11.53304
G1 X50.08 Y156.04 E11.55694
G1 X49.783 Y155.907 E11.56776
G1 X49.358 Y155.709 E11.58335
G1 X48.781 Y155.42 E11.60482
G1 X48.095 Y155.05 E11.63074
G1 X47.779 Y154.872 E11.6428
G1 X47.386 Y154.643 E11.65793
G1 X46.853 Y154.312 E11.6788
G1 X46.223 Y153.895 E11.70393
G1 X45.937 Y153.699 E11.71546
G1 X45.584 Y153.449 E11.72985
G1 X45.069 Y153.062 E11.75127
G1 X44.459 Y152.574 E11.77726
G1 X44.188 Y152.35 E11.78895
G1 X43.846 Y152.058 E11.80391
G1 X43.371 Y151.627 E11.82524
G1 X42.845 Y151.122 E11.84949
G1 X42.625 Y150.905 E11.85977
G1 X42.304 Y150.579 E11.87499
G1 X41.847 Y150.085 E11.89737
G1 X41.321 Y149.481 E11.92401
G1 X41.097 Y149.216 E11.93555
G1 X40.825 Y148.883 E11.94985
G1 X40.433 Y148.373 E11.97125
G1 X40.006 Y147.783 E11.99547
G1 X39.809 Y147.502 E12.00688
G1 X39.53 Y147.09 E12.02343
G1 X39.188 Y146.552 E12.04464
G1 X38.818 Y145.931 E12.06868
G1 X38.642 Y145.625 E12.08042
G1 X38.418 Y145.22 E12.09581
G1 X38.127 Y144.656 E12.11692
G1 X37.804 Y143.983 E12.14175
G1 X37.655 Y143.659 E12.15361
G1 X37.462 Y143.221 E12.16953
G1 X37.224 Y142.636 E12.19054
G1 X36.971 Y141.959 E12.21458
G1 X36.855 Y141.633 E12.22608
G1 X36.696 Y141.163 E12.24259
G1 X36.513 Y140.566 E12.26335
G1 X36.323 Y139.878 E12.28709
G1 X36.232 Y139.526 E12.29919
G1 X36.126 Y139.086 E12.31424
G1 X35.993 Y138.454 E12.33572
G1 X35.851 Y137.663 E12.36245
G1 X35.799 Y137.344 E12.3732
G1 X35.733 Y136.902 E12.38806
G1 X35.654 Y136.239 E12.41027
G1 X35.592 Y135.533 E12.43384
G1 X35.568 Y135.208 E12.44468
G1 X35.536 Y134.656 E12.46307
G1 X35.521 Y134.281 E12.47556
G1 X35.511 Y133.862 E12.4895
G1 X35.508 Y133.594 E12.49841
G1 X35.517 Y119.256 E12.97529
G1 X35.526 Y118.618 E12.99652
G1 X35.541 Y118.17 E13.01142
G1 X35.614 Y115.613 E13.09651
G1 X35.616 Y113.124 E13.17929
G1 X35.574 Y111.867 E13.22112
G1 X35.51 Y108.764 E13.32435
G1 X35.508 Y108.537 E13.3319
G1 X35.508 Y94.669 E13.79315
G1 X35.515 Y93.931 E13.8177
G1 X35.52 Y93.691 E13.82568
G1 X35.535 Y93.212 E13.84162
G1 X35.576 Y92.548 E13.86375
G1 X35.65 Y91.744 E13.8906
G1 X35.688 Y91.394 E13.90231
G1 X35.741 Y90.968 E13.91659
G1 X35.836 Y90.352 E13.93732
G1 X35.967 Y89.634 E13.9616
G1 X36.03 Y89.314 E13.97244
G1 X36.127 Y88.859 E13.98792
G1 X36.29 Y88.196 E14.01062
G1 X36.496 Y87.458 E14.03611
G1 X36.585 Y87.157 E14.04655
G1 X36.714 Y86.741 E14.06104
G1 X36.93 Y86.111 E14.08319
G1 X37.216 Y85.354 E14.1101
G1 X37.341 Y85.039 E14.12137
G1 X37.494 Y84.669 E14.13469
G1 X37.759 Y84.078 E14.15623
G1 X38.113 Y83.347 E14.18325
G1 X38.253 Y83.068 E14.19363
G1 X38.45 Y82.689 E14.20784
G1 X38.783 Y82.093 E14.23054
G1 X39.151 Y81.481 E14.25429
G1 X39.318 Y81.212 E14.26483
G1 X39.579 Y80.805 E14.28091
G1 X39.954 Y80.258 E14.30296
G1 X40.389 Y79.662 E14.32751
G1 X40.57 Y79.42 E14.33756
G1 X40.849 Y79.059 E14.35273
G1 X41.285 Y78.531 E14.37551
G1 X41.801 Y77.943 E14.40153
G1 X42.028 Y77.692 E14.41278
G1 X42.337 Y77.361 E14.42784
G1 X42.785 Y76.908 E14.44903
G1 X43.328 Y76.39 E14.47399
G1 X43.572 Y76.164 E14.48506
G1 X43.895 Y75.874 E14.49949
G1 X44.4 Y75.447 E14.52149
G1 X45.004 Y74.967 E14.54715
G1 X45.282 Y74.754 E14.5588
G1 X45.657 Y74.475 E14.57434
G1 X46.166 Y74.118 E14.59502
G1 X46.777 Y73.715 E14.61937
G0 F6000 X46.998 Y74.048
G1 F1200 X47.286 Y73.865 E14.63072
G1 X47.68 Y73.623 E14.64609
G1 X48.22 Y73.313 E14.6668
G1 X48.871 Y72.964 E14.69137
G1 X49.173 Y72.808 E14.70268
G1 X49.617 Y72.588 E14.71916
G1 X50.17 Y72.333 E14.73941
G1 X50.837 Y72.049 E14.76352
G1 X51.118 Y71.935 E14.77361
G1 X51.541 Y71.769 E14.78872
G1 X52.16 Y71.548 E14.81058
G1 X52.898 Y71.31 E14.83638
G1 X53.218 Y71.212 E14.84751
G1 X53.666 Y71.083 E14.86301
G1 X54.258 Y70.931 E14.88334
G1 X54.938 Y70.777 E14.90653
G1 X55.238 Y70.713 E14.91673
G1 X55.712 Y70.62 E14.9328
G1 X56.343 Y70.516 E14.95407
G1 X57.118 Y70.412 E14.98008
G1 X57.466 Y70.371 E14.99173
G1 X57.913 Y70.326 E15.00667
G1 X58.503 Y70.284 E15.02635
G1 X59.243 Y70.251 E15.05098
G1 X59.573 Y70.241 E15.06196
G1 X60.021 Y70.235 E15.07687
G1 X60.656 Y70.245 E15.09799
G1 X61.429 Y70.281 E15.12373
G1 X61.743 Y70.301 E15.13419
G1 X62.175 Y70.334 E15.1486
G1 X62.81 Y70.402 E15.16984
G1 X63.582 Y70.508 E15.19576
G1 X63.875 Y70.552 E15.20562
G1 X64.327 Y70.627 E15.22085
G1 X64.996 Y70.76 E15.24354
G1 X65.683 Y70.92 E15.267
G1 X65.973 Y70.992 E15.27694
G1 X66.464 Y71.121 E15.29383
G1 X67.059 Y71.296 E15.31445
G1 X67.736 Y71.517 E15.33814
G1 X68.03 Y71.618 E15.34848
G1 X68.495 Y71.785 E15.36491
G1 X69.098 Y72.023 E15.38647
G1 X69.889 Y72.363 E15.41511
G1 X70.131 Y72.47 E15.42391
G1 X70.988 Y72.865 E15.4553
G1 X71.526 Y73.119 E15.47509
G1 X73.887 Y74.192 E15.56134
G1 X76.345 Y75.227 E15.65005
G1 X78.888 Y76.216 E15.7408
G1 X81.239 Y77.049 E15.82376
G1 X83.638 Y77.825 E15.90762
G1 X86.088 Y78.543 E15.99253
G1 X88.537 Y79.186 E16.07675
G1 X90.979 Y79.754 E16.16014
G1 X93.5 Y80.266 E16.2457
G1 X95.964 Y80.693 E16.32887
G1 X98.44 Y81.05 E16.41208
G1 X100.973 Y81.343 E16.49689
G1 X103.488 Y81.563 E16.58085
G1 X106.028 Y81.712 E16.66548
G1 X108.538 Y81.788 E16.749
