;FLAVOR:Marlin
;TIME:9153
;Filament used: 6.64687m
;Layer height: 0.2
;MINX:34.5
;MINY:71.301
;MINZ:0.2
;MAXX:181.572
;MAXY:148.699
;MAXZ:11.8
;Generated with Cura_SteamEngine 4.9.0
M82 ;absolute extrusion mode
; Ender 3 Custom Start G-code
M117 Warming Print Bed
M140 S80 ; Set Heat Bed temperature
M190 S80 ; Wait for Heat Bed temperature
M104 S160; start warming extruder to 160
M117 Homing all axes
G28 ; Home all axes
M117 Beginning Bed Leveling
G29 ; Auto bed-level (BL-Touch)
G92 E0 ; Reset Extruder
M117 Warming Extruder
M104 S240.0 ; Set Extruder temperature
G1 X0.1 Y20 Z0.3 F5000.0 ; Move to start position
M109 S240.0 ; Wait for Extruder temperature
; G1 Z2.0 F3000 ; Move Z Axis up little to prevent scratching of Heat Bed
G1 X0.1 Y200.0 Z0.3 F1500.0 E15 ; Draw the first line
G1 X0.4 Y200.0 Z0.3 F5000.0 ; Move to side a little
G1 X0.4 Y20 Z0.3 F1500.0 E30 ; Draw the second line
G92 E0 ; Reset Extruder
G1 Z2.0 F3000 ; Move Z Axis up little to prevent scratching of Heat Bed
; End of custom start GCode
G92 E0
G92 E0
G1 F1500 E-6.5
;LAYER_COUNT:59
;LAYER:0
M107
G0 F6000 X39.912 Y72.84 Z0.2
;TYPE:SKIRT
G1 F1500 E0
G1 F1200 X40.739 Y72.398 E0.03119
G1 X41.601 Y72.028 E0.06239
G1 X42.491 Y71.732 E0.09358
G1 X43.403 Y71.514 E0.12477
G1 X44.33 Y71.373 E0.15596
G1 X45.201 Y71.314 E0.18499
G1 X45.522 Y71.305 E0.19567
G1 X45.83 Y71.301 E0.20592
G1 X168.993 Y71.301 E4.30234
G1 X169.849 Y71.312 E4.33081
G1 X170.785 Y71.366 E4.36199
G1 X171.713 Y71.498 E4.39317
G1 X172.627 Y71.71 E4.42438
G1 X173.519 Y71.999 E4.45556
G1 X174.384 Y72.362 E4.48676
G1 X175.214 Y72.798 E4.51795
G1 X176.005 Y73.303 E4.54916
G1 X176.749 Y73.874 E4.58035
G1 X177.442 Y74.506 E4.61155
G1 X178.079 Y75.194 E4.64273
G1 X178.654 Y75.935 E4.67393
G1 X179.165 Y76.721 E4.70511
G1 X179.607 Y77.549 E4.73633
G1 X179.976 Y78.411 E4.76752
G1 X180.271 Y79.301 E4.7987
G1 X180.489 Y80.213 E4.82989
G1 X180.629 Y81.141 E4.8611
G1 X180.687 Y82.002 E4.8898
G1 X180.696 Y82.322 E4.90045
G1 X180.7 Y82.631 E4.91073
G1 X180.7 Y101.273 E5.53077
G1 X180.737 Y103.881 E5.61752
G1 X180.844 Y106.402 E5.70144
G1 X181.021 Y108.897 E5.78463
G1 X181.267 Y111.378 E5.86756
G1 X181.366 Y112.157 E5.89367
G1 X181.491 Y113.249 E5.93023
G1 X181.557 Y114.16 E5.96061
G1 X181.567 Y114.483 E5.97136
G1 X181.572 Y114.82 E5.98257
G1 X181.572 Y118.987 E6.12116
G1 X181.563 Y119.642 E6.14295
G1 X181.474 Y120.893 E6.18467
G1 X181.433 Y121.213 E6.1954
G1 X181.135 Y123.834 E6.28313
G1 X180.923 Y126.328 E6.36638
G1 X180.782 Y128.811 E6.4491
G1 X180.709 Y131.399 E6.53521
G1 X180.7 Y132.692 E6.57822
G1 X180.699 Y137.114 E6.72529
G1 X180.689 Y137.841 E6.74948
G1 X180.636 Y138.778 E6.78069
G1 X180.504 Y139.706 E6.81187
G1 X180.293 Y140.62 E6.84307
G1 X180.004 Y141.512 E6.87425
G1 X179.641 Y142.377 E6.90545
G1 X179.206 Y143.208 E6.93665
G1 X178.701 Y143.998 E6.96784
G1 X178.131 Y144.743 E6.99904
G1 X177.5 Y145.437 E7.03023
G1 X176.811 Y146.074 E7.06144
G1 X176.071 Y146.65 E7.09263
G1 X175.285 Y147.161 E7.12381
G1 X174.458 Y147.603 E7.155
G1 X173.596 Y147.973 E7.1862
G1 X172.706 Y148.268 E7.21739
G1 X171.794 Y148.487 E7.24858
G1 X170.867 Y148.627 E7.27976
G1 X169.999 Y148.686 E7.3087
G1 X169.679 Y148.695 E7.31935
G1 X169.37 Y148.699 E7.32963
G1 X65.848 Y148.698 E10.77278
G1 X65.147 Y148.688 E10.7961
G1 X64.211 Y148.635 E10.82728
G1 X63.282 Y148.502 E10.85849
G1 X62.369 Y148.29 E10.88967
G1 X61.476 Y148.002 E10.92088
G1 X60.612 Y147.638 E10.95206
G1 X59.781 Y147.202 E10.98327
G1 X58.991 Y146.697 E11.01446
G1 X58.247 Y146.127 E11.04563
G1 X57.554 Y145.495 E11.07683
G1 X56.917 Y144.806 E11.10803
G1 X56.341 Y144.066 E11.13922
G1 X55.864 Y143.335 E11.16826
G1 X55.689 Y143.042 E11.17961
G1 X54.276 Y140.752 E11.26911
G1 X52.905 Y138.662 E11.35224
G1 X51.458 Y136.59 E11.4363
G1 X49.964 Y134.572 E11.51981
G1 X48.418 Y132.604 E11.60305
G1 X46.792 Y130.652 E11.68754
G1 X45.144 Y128.781 E11.77047
G1 X43.414 Y126.926 E11.85484
G1 X41.657 Y125.147 E11.938
G1 X39.826 Y123.393 E12.02233
G1 X38.289 Y122.001 E12.0913
G1 X38.017 Y121.748 E12.10366
G1 X37.358 Y121.081 E12.13484
G1 X36.759 Y120.36 E12.16602
G1 X36.223 Y119.59 E12.19722
G1 X35.754 Y118.778 E12.22841
G1 X35.357 Y117.928 E12.25962
G1 X35.033 Y117.048 E12.29081
G1 X34.785 Y116.144 E12.32198
G1 X34.616 Y115.221 E12.35319
G1 X34.513 Y113.999 E12.39398
G1 X34.504 Y113.675 E12.40476
G1 X34.5 Y113.37 E12.41491
G1 X34.501 Y82.826 E13.4308
G1 X34.51 Y82.161 E13.45292
G1 X34.563 Y81.225 E13.48411
G1 X34.695 Y80.296 E13.51531
G1 X34.906 Y79.382 E13.54651
G1 X35.194 Y78.49 E13.57769
G1 X35.557 Y77.625 E13.60889
G1 X35.992 Y76.794 E13.64009
G1 X36.496 Y76.004 E13.67125
G1 X37.066 Y75.259 E13.70245
G1 X37.698 Y74.565 E13.73367
G1 X38.386 Y73.928 E13.76486
G1 X39.126 Y73.352 E13.79605
G1 X39.912 Y72.84 E13.82725
G0 F6000 X40.291 Y73.083
G1 F1200 X41.111 Y72.665 E13.85786
G1 X41.965 Y72.32 E13.88849
G1 X42.845 Y72.05 E13.91911
G1 X43.745 Y71.858 E13.94972
G1 X44.659 Y71.744 E13.98035
G1 X45.212 Y71.714 E13.99877
G1 X45.533 Y71.705 E14.00945
G1 X45.83 Y71.701 E14.01933
G1 X168.993 Y71.701 E18.11575
G1 X169.843 Y71.712 E18.14402
G1 X170.762 Y71.765 E18.17464
G1 X171.673 Y71.898 E18.20526
G1 X172.569 Y72.109 E18.23588
G1 X173.443 Y72.397 E18.26649
G1 X174.29 Y72.76 E18.29714
G1 X175.101 Y73.195 E18.32774
G1 X175.871 Y73.699 E18.35835
G1 X176.595 Y74.268 E18.38898
G1 X177.267 Y74.898 E18.41962
G1 X177.882 Y75.583 E18.45024
G1 X178.435 Y76.319 E18.48085
G1 X178.922 Y77.1 E18.51147
G1 X179.339 Y77.921 E18.54209
G1 X179.684 Y78.775 E18.57273
G1 X179.953 Y79.655 E18.60333
G1 X180.145 Y80.556 E18.63397
G1 X180.258 Y81.469 E18.66457
G1 X180.287 Y82.013 E18.68269
G1 X180.296 Y82.333 E18.69334
G1 X180.3 Y82.631 E18.70325
G1 X180.3 Y101.279 E19.32349
G1 X180.337 Y103.904 E19.4108
G1 X180.444 Y106.412 E19.4943
G1 X180.622 Y108.932 E19.57832
G1 X180.87 Y111.432 E19.66188
G1 X180.968 Y112.203 E19.68773
G1 X181.093 Y113.295 E19.72429
G1 X181.157 Y114.172 E19.75353
G1 X181.167 Y114.495 E19.76428
G1 X181.172 Y114.82 E19.77509
G1 X181.172 Y118.982 E19.91352
G1 X181.163 Y119.637 E19.93531
G1 X181.078 Y120.842 E19.97549
G1 X181.023 Y121.27 E19.98984
G1 X180.741 Y123.756 E20.07305
G1 X180.524 Y126.306 E20.15817
G1 X180.382 Y128.813 E20.24169
G1 X180.309 Y131.385 E20.32727
G1 X180.3 Y132.689 E20.37064
G1 X180.299 Y137.109 E20.51765
G1 X180.289 Y137.836 E20.54183
G1 X180.236 Y138.755 E20.57245
G1 X180.104 Y139.666 E20.60307
G1 X179.893 Y140.562 E20.63368
G1 X179.606 Y141.437 E20.66431
G1 X179.243 Y142.283 E20.69493
G1 X178.809 Y143.095 E20.72555
G1 X178.305 Y143.866 E20.75619
G1 X177.737 Y144.59 E20.7868
G1 X177.108 Y145.262 E20.81741
G1 X176.423 Y145.877 E20.84803
G1 X175.687 Y146.43 E20.87865
G1 X174.906 Y146.918 E20.90928
G1 X174.086 Y147.336 E20.93989
G1 X173.232 Y147.681 E20.97053
G1 X172.352 Y147.95 E21.00113
G1 X171.451 Y148.143 E21.03178
G1 X170.538 Y148.256 E21.06238
G1 X169.988 Y148.286 E21.0807
G1 X169.668 Y148.295 E21.09134
G1 X169.37 Y148.299 E21.10126
G1 X65.854 Y148.298 E24.54421
G1 X65.153 Y148.288 E24.56753
G1 X64.234 Y148.235 E24.59815
G1 X63.323 Y148.102 E24.62877
G1 X62.427 Y147.891 E24.65938
G1 X61.552 Y147.603 E24.69002
G1 X60.706 Y147.24 E24.72064
G1 X59.895 Y146.805 E24.75125
G1 X59.124 Y146.301 E24.78189
G1 X58.4 Y145.732 E24.81251
G1 X57.728 Y145.103 E24.84313
G1 X57.113 Y144.418 E24.87375
G1 X56.56 Y143.682 E24.90437
G1 X56.207 Y143.13 E24.92616
G1 X55.99 Y142.766 E24.94025
G1 X54.619 Y140.545 E25.02707
G1 X53.241 Y138.444 E25.11063
G1 X51.792 Y136.369 E25.19481
G1 X50.284 Y134.333 E25.27908
G1 X48.724 Y132.346 E25.3631
G1 X47.098 Y130.395 E25.44757
G1 X45.42 Y128.49 E25.53201
G1 X43.709 Y126.654 E25.61548
G1 X41.954 Y124.877 E25.69855
G1 X40.087 Y123.09 E25.78451
G1 X38.562 Y121.709 E25.85294
G1 X38.29 Y121.456 E25.86529
G1 X37.643 Y120.8 E25.89594
G1 X37.056 Y120.09 E25.92658
G1 X36.533 Y119.333 E25.95718
G1 X36.078 Y118.533 E25.98779
G1 X35.694 Y117.696 E26.01842
G1 X35.383 Y116.829 E26.04906
G1 X35.149 Y115.939 E26.07966
G1 X34.994 Y115.032 E26.11027
G1 X34.913 Y113.988 E26.14509
G1 X34.904 Y113.664 E26.15588
G1 X34.9 Y113.37 E26.16565
G1 X34.901 Y82.832 E27.18135
G1 X34.91 Y82.167 E27.20347
G1 X34.962 Y81.247 E27.23412
G1 X35.094 Y80.336 E27.26474
G1 X35.305 Y79.44 E27.29535
G1 X35.592 Y78.565 E27.32598
G1 X35.955 Y77.719 E27.3566
G1 X36.389 Y76.907 E27.38722
G1 X36.892 Y76.136 E27.41784
G1 X37.461 Y75.412 E27.44847
G1 X38.089 Y74.74 E27.47906
G1 X38.774 Y74.124 E27.5097
G1 X39.51 Y73.571 E27.54032
G1 X40.291 Y73.083 E27.57095
G0 F6000 X40.669 Y73.332
G1 F1200 X41.482 Y72.939 E27.60098
G1 X42.327 Y72.619 E27.63104
G1 X43.196 Y72.376 E27.66105
G1 X44.084 Y72.21 E27.6911
G1 X45.223 Y72.114 E27.72911
G1 X45.544 Y72.105 E27.73979
G1 X45.83 Y72.101 E27.74931
G1 X168.993 Y72.101 E31.84572
G1 X169.837 Y72.112 E31.8738
G1 X170.739 Y72.165 E31.90385
G1 X171.632 Y72.297 E31.93388
G1 X172.51 Y72.508 E31.96391
G1 X173.366 Y72.796 E31.99395
G1 X174.193 Y73.158 E32.02397
G1 X174.985 Y73.593 E32.05403
G1 X175.736 Y74.095 E32.08407
G1 X176.439 Y74.662 E32.11411
G1 X177.089 Y75.289 E32.14415
G1 X177.681 Y75.971 E32.17419
G1 X178.211 Y76.702 E32.20422
G1 X178.673 Y77.478 E32.23426
G1 X179.066 Y78.291 E32.26429
G1 X179.384 Y79.136 E32.29432
G1 X179.627 Y80.006 E32.32436
G1 X179.792 Y80.894 E32.3544
G1 X179.887 Y82.024 E32.39212
G1 X179.896 Y82.344 E32.40277
G1 X179.9 Y82.631 E32.41231
G1 X179.9 Y101.285 E33.03275
G1 X179.937 Y103.891 E33.11943
G1 X180.046 Y106.456 E33.20482
G1 X180.224 Y108.963 E33.28842
G1 X180.474 Y111.494 E33.37301
G1 X180.571 Y112.248 E33.39829
G1 X180.696 Y113.34 E33.43485
G1 X180.757 Y114.184 E33.46299
G1 X180.767 Y114.507 E33.47374
G1 X180.772 Y114.82 E33.48415
G1 X180.772 Y118.976 E33.62238
G1 X180.763 Y119.631 E33.64417
G1 X180.681 Y120.791 E33.68285
G1 X180.634 Y121.154 E33.69502
G1 X180.34 Y123.748 E33.78185
G1 X180.127 Y126.25 E33.86537
G1 X179.982 Y128.813 E33.95075
G1 X179.909 Y131.372 E34.0359
G1 X179.9 Y132.686 E34.0796
G1 X179.899 Y137.103 E34.22651
G1 X179.889 Y137.83 E34.2507
G1 X179.837 Y138.732 E34.28075
G1 X179.705 Y139.625 E34.31077
G1 X179.494 Y140.504 E34.34084
G1 X179.207 Y141.36 E34.37086
G1 X178.845 Y142.187 E34.40089
G1 X178.411 Y142.979 E34.43093
G1 X177.909 Y143.73 E34.46097
G1 X177.343 Y144.433 E34.49099
G1 X176.716 Y145.084 E34.52105
G1 X176.035 Y145.676 E34.55107
G1 X175.304 Y146.206 E34.5811
G1 X174.528 Y146.669 E34.61115
G1 X173.715 Y147.062 E34.64119
G1 X172.87 Y147.382 E34.67124
G1 X172.001 Y147.625 E34.70125
G1 X171.113 Y147.79 E34.73129
G1 X169.977 Y147.886 E34.76921
G1 X169.657 Y147.895 E34.77986
G1 X169.37 Y147.899 E34.7894
G1 X65.86 Y147.898 E38.23216
G1 X65.159 Y147.888 E38.25548
G1 X64.257 Y147.835 E38.28553
G1 X63.364 Y147.703 E38.31555
G1 X62.485 Y147.492 E38.34562
G1 X61.629 Y147.204 E38.37566
G1 X60.802 Y146.842 E38.40568
G1 X60.01 Y146.408 E38.43572
G1 X59.26 Y145.905 E38.46576
G1 X58.557 Y145.338 E38.4958
G1 X57.907 Y144.712 E38.52581
G1 X57.314 Y144.03 E38.55587
G1 X56.55 Y142.925 E38.60055
G1 X56.33 Y142.557 E38.61481
G1 X54.961 Y140.337 E38.70156
G1 X53.559 Y138.201 E38.78654
G1 X52.109 Y136.125 E38.87076
G1 X50.605 Y134.093 E38.95485
G1 X49.047 Y132.11 E39.03872
G1 X47.404 Y130.137 E39.12412
G1 X45.712 Y128.217 E39.20924
G1 X43.987 Y126.366 E39.29339
G1 X42.232 Y124.59 E39.37644
G1 X40.367 Y122.804 E39.46232
G1 X38.834 Y121.416 E39.53111
G1 X38.562 Y121.163 E39.54346
G1 X37.929 Y120.519 E39.57349
G1 X37.355 Y119.822 E39.60353
G1 X36.845 Y119.076 E39.63358
G1 X36.403 Y118.289 E39.6636
G1 X36.032 Y117.465 E39.69366
G1 X35.735 Y116.612 E39.7237
G1 X35.516 Y115.736 E39.75373
G1 X35.374 Y114.844 E39.78378
G1 X35.313 Y113.977 E39.81268
G1 X35.304 Y113.653 E39.82346
G1 X35.3 Y113.37 E39.83288
G1 X35.301 Y82.837 E40.84841
G1 X35.31 Y82.172 E40.87053
G1 X35.362 Y81.27 E40.90058
G1 X35.494 Y80.377 E40.9306
G1 X35.704 Y79.499 E40.96063
G1 X35.991 Y78.642 E40.99069
G1 X36.353 Y77.815 E41.02072
G1 X36.786 Y77.023 E41.05074
G1 X37.288 Y76.272 E41.08078
G1 X37.855 Y75.568 E41.11085
G1 X38.481 Y74.918 E41.14086
G1 X39.162 Y74.325 E41.1709
G1 X39.894 Y73.795 E41.20095
G1 X40.669 Y73.332 E41.23098
G1 F1500 E34.73098
;MESH:Grand Jarv.stl
G0 F6000 X115.163 Y132.242
G0 X113.708 Y132.364
G0 X114.606 Y134.155
G0 X115.36 Y134.991
G0 X115.915 Y135.296
G0 X117.201 Y135.895
;TYPE:WALL-INNER
G1 F1500 E41.23098
G1 F1200 X118.371 Y135.799 E41.27003
G1 X119.28 Y135.401 E41.30303
G1 X119.443 Y135.343 E41.30878
G1 X120.19 Y134.655 E41.34256
G1 X120.325 Y134.548 E41.34829
G1 X120.809 Y133.652 E41.38216
G1 X120.902 Y133.507 E41.38789
G1 X121.071 Y132.49 E41.42218
G1 X121.099 Y132.343 E41.42716
G1 X121.099 Y87.252 E42.92689
G1 X120.921 Y86.17 E42.96336
G1 X120.701 Y85.668 E42.98159
G1 X120.608 Y85.497 E42.98807
G1 X119.969 Y84.678 E43.02262
G1 X119.55 Y84.351 E43.04029
G1 X119.468 Y84.278 E43.04395
G1 X118.425 Y83.82 E43.08183
G1 X117.883 Y83.728 E43.10012
G1 X117.69 Y83.712 E43.10656
G1 X116.628 Y83.8 E43.142
G1 X115.718 Y84.201 E43.17508
G1 X115.555 Y84.258 E43.18082
G1 X114.809 Y84.945 E43.21455
G1 X114.674 Y85.052 E43.22028
G1 X114.19 Y85.948 E43.25415
G1 X114.097 Y86.093 E43.25988
G1 X113.928 Y87.103 E43.29394
G1 X113.899 Y87.257 E43.29915
G1 X113.899 Y132.348 E44.79889
G1 X114.081 Y133.447 E44.83594
G1 X114.421 Y134.119 E44.86099
G1 X114.465 Y134.241 E44.8653
G1 X115.158 Y134.992 E44.89929
G1 X115.253 Y135.116 E44.90448
G1 X116.157 Y135.605 E44.93867
G1 X116.276 Y135.683 E44.9434
G1 X117.046 Y135.856 E44.96965
G1 X117.201 Y135.895 E44.97496
G0 F6000 X117.235 Y135.491
;TYPE:WALL-OUTER
G1 F1200 X118.272 Y135.406 E45.00957
G1 X119.136 Y135.027 E45.04095
G1 X119.232 Y134.993 E45.04434
G1 X119.934 Y134.347 E45.07607
G1 X120.013 Y134.285 E45.07941
G1 X120.466 Y133.446 E45.11112
G1 X120.521 Y133.36 E45.11452
G1 X120.677 Y132.424 E45.14608
G1 X120.699 Y132.306 E45.15007
G1 X120.699 Y87.285 E46.64747
G1 X120.534 Y86.285 E46.68118
G1 X120.341 Y85.844 E46.69719
G1 X120.272 Y85.717 E46.702
G1 X119.684 Y84.963 E46.7338
G1 X119.297 Y84.662 E46.75011
G1 X119.249 Y84.619 E46.75225
G1 X118.309 Y84.206 E46.7864
G1 X117.833 Y84.125 E46.80246
G1 X117.69 Y84.113 E46.80724
G1 X116.728 Y84.193 E46.83934
G1 X115.862 Y84.574 E46.87081
G1 X115.766 Y84.608 E46.8742
G1 X115.065 Y85.253 E46.90588
G1 X114.986 Y85.315 E46.90922
G1 X114.533 Y86.154 E46.94093
G1 X114.478 Y86.24 E46.94433
G1 X114.321 Y87.176 E46.9759
G1 X114.299 Y87.294 E46.97989
G1 X114.299 Y132.315 E48.47729
G1 X114.466 Y133.321 E48.51121
G1 X114.788 Y133.957 E48.53492
G1 X114.814 Y134.029 E48.53747
G1 X115.467 Y134.737 E48.5695
G1 X115.519 Y134.805 E48.57235
G1 X116.362 Y135.261 E48.60423
G1 X116.435 Y135.309 E48.60713
G1 X117.144 Y135.468 E48.6313
G1 X117.235 Y135.491 E48.63442
G0 F6000 X117.199 Y135.929
G1 F1500 E42.13442
G0 F6000 X115.006 Y135.108
G0 X115.006 Y136.889
G0 X65.898 Y137.099
;TYPE:WALL-INNER
G1 F1500 E48.63442
G1 F1200 X65.898 Y130.899 E48.84063
G1 X65.026 Y130.899 E48.86964
G1 X65.026 Y127.099 E48.99602
G1 X65.898 Y127.099 E49.02503
G1 X65.898 Y113.1 E49.49064
G1 X46.1 Y113.1 E50.14912
G1 X46.1 Y82.901 E51.15354
G1 X169.1 Y82.901 E55.24454
G1 X169.1 Y115.1 E56.31548
G1 X169.972 Y115.1 E56.34449
G1 X169.973 Y118.701 E56.46426
G1 X169.973 Y118.9 E56.47087
G1 X169.774 Y118.9 E56.47516
G1 X169.1 Y118.9 E56.49757
G1 X169.1 Y137.099 E57.10287
G1 X65.898 Y137.099 E60.53539
G0 F6000 X65.498 Y137.499
;TYPE:WALL-OUTER
G1 F1200 X65.498 Y131.299 E60.7416
G1 X64.626 Y131.299 E60.7706
G1 X64.626 Y126.699 E60.9236
G1 X65.498 Y126.699 E60.9526
G1 X65.498 Y113.5 E61.3916
G1 X45.7 Y113.5 E62.05009
G1 X45.7 Y82.501 E63.08112
G1 X169.5 Y82.501 E67.19872
G1 X169.5 Y114.7 E68.26967
G1 X170.372 Y114.7 E68.29867
G1 X170.373 Y119.3 E68.45167
G1 X169.5 Y119.3 E68.4807
G1 X169.5 Y137.499 E69.086
G1 X65.498 Y137.499 E72.54512
G0 F6000 X65.768 Y137.229
G0 X66.008 Y136.709
G0 X66.288 Y136.709
;TYPE:SKIN
G1 F1200 X66.288 Y130.509 E72.75134
G1 X65.416 Y130.509 E72.78034
G1 X65.416 Y127.489 E72.88078
G1 X66.288 Y127.489 E72.90979
G1 X66.288 Y112.71 E73.40134
G1 X46.49 Y112.71 E74.05982
G1 X46.49 Y83.291 E75.0383
G1 X168.71 Y83.291 E79.10336
G1 X168.71 Y115.49 E80.1743
G1 X169.582 Y115.49 E80.2033
