;FLAVOR:Marlin
;TIME:2471
;Filament used: 1.3322m
;Layer height: 0.2
;MINX:134.299
;MINY:47.612
;MINZ:0.2
;MAXX:176.299
;MAXY:89.612
;MAXZ:20
;Generated with Cura_SteamEngine 4.9.0
M82 ;absolute extrusion mode
; Ender 3 Custom Start G-code
M117 Warming Print Bed
M301 P24.63 I2.05 D74.05
M304 P134.53 I26.22 D460.11
M140 S80 ; Set Heat Bed temperature
M190 S80 ; Wait for Heat Bed temperature
M104 S160; start warming extruder to 160
M117 Homing all axes
G28 ; Home all axes
M117 Beginning Bed Leveling
G29 ; Auto bed-level (BL-Touch)
G92 E0 ; Reset Extruder
M117 Warming Extruder
M104 S200 ; Set Extruder temperature
G1 X0.1 Y20 Z0.3 F5000.0 ; Move to start position
M109 S200 ; Wait for Extruder temperature
; G1 Z2.0 F3000 ; Move Z Axis up little to prevent scratching of Heat Bed
G1 X0.1 Y200.0 Z0.3 F1500.0 E15 ; Draw the first line
G1 X0.4 Y200.0 Z0.3 F5000.0 ; Move to side a little
G1 X0.4 Y20 Z0.3 F1500.0 E30 ; Draw the second line
G92 E0 ; Reset Extruder
G1 Z2.0 F3000 ; Move Z Axis up little to prevent scratching of Heat Bed
; End of custom start GCode
G92 E0
G92 E0
G1 F2100 E-6
;LAYER_COUNT:100
;LAYER:0
M107
G0 F6000 X134.993 Y54.801 Z0.2
;TYPE:SKIRT
G1 F2100 E0
G1 F2400 X135.356 Y53.936 E0.02773
G1 X135.791 Y53.105 E0.05547
G1 X136.295 Y52.315 E0.08317
G1 X136.865 Y51.57 E0.1109
G1 X137.497 Y50.876 E0.13865
G1 X138.185 Y50.239 E0.16637
G1 X138.925 Y49.663 E0.1941
G1 X139.711 Y49.151 E0.22183
G1 X140.538 Y48.709 E0.24956
G1 X141.4 Y48.339 E0.27729
G1 X142.29 Y48.043 E0.30502
G1 X143.202 Y47.825 E0.33274
G1 X144.129 Y47.684 E0.36046
G1 X145 Y47.625 E0.38627
G1 X145.321 Y47.616 E0.39577
G1 X145.629 Y47.612 E0.40487
G1 X164.592 Y47.612 E0.96551
G1 X165.448 Y47.623 E0.99082
G1 X166.384 Y47.677 E1.01854
G1 X167.312 Y47.809 E1.04626
G1 X168.226 Y48.021 E1.074
G1 X169.118 Y48.31 E1.10172
G1 X169.983 Y48.673 E1.12945
G1 X170.813 Y49.109 E1.15717
G1 X171.604 Y49.614 E1.18492
G1 X172.348 Y50.185 E1.21264
G1 X173.041 Y50.817 E1.24037
G1 X173.678 Y51.505 E1.26809
G1 X174.253 Y52.246 E1.29582
G1 X174.764 Y53.032 E1.32354
G1 X175.206 Y53.86 E1.35129
G1 X175.575 Y54.722 E1.37901
G1 X175.87 Y55.612 E1.40673
G1 X176.088 Y56.524 E1.43445
G1 X176.228 Y57.452 E1.4622
G1 X176.286 Y58.313 E1.48771
G1 X176.295 Y58.633 E1.49718
G1 X176.299 Y58.942 E1.50631
G1 X176.298 Y78.012 E2.07012
G1 X176.289 Y78.739 E2.09161
G1 X176.238 Y79.676 E2.11936
G1 X176.106 Y80.604 E2.14707
G1 X175.897 Y81.518 E2.17479
G1 X175.61 Y82.411 E2.20252
G1 X175.248 Y83.277 E2.23027
G1 X174.814 Y84.108 E2.25799
G1 X174.31 Y84.899 E2.28572
G1 X173.741 Y85.644 E2.31343
G1 X173.11 Y86.339 E2.34119
G1 X172.423 Y86.977 E2.3689
G1 X171.684 Y87.554 E2.39662
G1 X170.898 Y88.066 E2.42436
G1 X170.072 Y88.509 E2.45207
G1 X169.21 Y88.881 E2.47983
G1 X168.321 Y89.177 E2.50753
G1 X167.409 Y89.397 E2.53526
G1 X166.482 Y89.538 E2.56299
G1 X165.598 Y89.599 E2.58918
G1 X165.277 Y89.608 E2.59868
G1 X164.969 Y89.612 E2.60778
G1 X145.864 Y89.611 E3.17262
G1 X145.166 Y89.602 E3.19326
G1 X144.23 Y89.55 E3.22098
G1 X143.301 Y89.418 E3.24872
G1 X142.387 Y89.208 E3.27644
G1 X141.494 Y88.921 E3.30418
G1 X140.629 Y88.558 E3.33191
G1 X139.798 Y88.124 E3.35963
G1 X139.007 Y87.62 E3.38736
G1 X138.262 Y87.05 E3.41509
G1 X137.568 Y86.419 E3.44282
G1 X136.931 Y85.732 E3.47052
G1 X136.354 Y84.992 E3.49826
G1 X135.842 Y84.206 E3.526
G1 X135.399 Y83.379 E3.55373
G1 X135.028 Y82.518 E3.58145
G1 X134.732 Y81.628 E3.60918
G1 X134.513 Y80.716 E3.63691
G1 X134.372 Y79.789 E3.66463
G1 X134.312 Y78.9 E3.69098
G1 X134.303 Y78.567 E3.70082
G1 X134.299 Y78.27 E3.70961
G1 X134.3 Y59.137 E4.27527
G1 X134.309 Y58.472 E4.29493
G1 X134.362 Y57.536 E4.32265
G1 X134.494 Y56.607 E4.35039
G1 X134.705 Y55.693 E4.37813
G1 X134.993 Y54.801 E4.40584
G0 F6000 X135.391 Y54.876
G1 F2400 X135.754 Y54.03 E4.43306
G1 X136.188 Y53.218 E4.46028
G1 X136.691 Y52.447 E4.48749
G1 X137.26 Y51.723 E4.51472
G1 X137.888 Y51.051 E4.54191
G1 X138.573 Y50.435 E4.56915
G1 X139.309 Y49.882 E4.59636
G1 X140.09 Y49.394 E4.62359
G1 X140.91 Y48.976 E4.6508
G1 X141.764 Y48.631 E4.67803
G1 X142.644 Y48.361 E4.70525
G1 X143.544 Y48.169 E4.73245
G1 X144.458 Y48.055 E4.75969
G1 X145.011 Y48.025 E4.77606
G1 X145.332 Y48.016 E4.78555
G1 X145.629 Y48.012 E4.79434
G1 X164.592 Y48.012 E5.35498
G1 X165.442 Y48.023 E5.38011
G1 X166.361 Y48.076 E5.40732
G1 X167.272 Y48.209 E5.43454
G1 X168.168 Y48.42 E5.46176
G1 X169.042 Y48.708 E5.48896
G1 X169.889 Y49.071 E5.51621
G1 X170.7 Y49.506 E5.54342
G1 X171.47 Y50.01 E5.57062
G1 X172.194 Y50.579 E5.59785
G1 X172.866 Y51.209 E5.62508
G1 X173.481 Y51.894 E5.6523
G1 X174.034 Y52.63 E5.67952
G1 X174.521 Y53.411 E5.70673
G1 X174.938 Y54.232 E5.73395
G1 X175.283 Y55.086 E5.76118
G1 X175.552 Y55.966 E5.78839
G1 X175.744 Y56.867 E5.81562
G1 X175.857 Y57.78 E5.84282
G1 X175.886 Y58.324 E5.85893
G1 X175.895 Y58.644 E5.86839
G1 X175.899 Y58.942 E5.8772
G1 X175.898 Y78.007 E6.44086
G1 X175.889 Y78.734 E6.46236
G1 X175.838 Y79.653 E6.48957
G1 X175.707 Y80.565 E6.51681
G1 X175.497 Y81.461 E6.54402
G1 X175.211 Y82.336 E6.57123
G1 X174.85 Y83.183 E6.59845
G1 X174.416 Y83.995 E6.62567
G1 X173.914 Y84.767 E6.6529
G1 X173.346 Y85.492 E6.68013
G1 X172.718 Y86.165 E6.70734
G1 X172.034 Y86.781 E6.73456
G1 X171.299 Y87.335 E6.76177
G1 X170.519 Y87.824 E6.78899
G1 X169.699 Y88.243 E6.81621
G1 X168.846 Y88.589 E6.84343
G1 X167.966 Y88.86 E6.87065
G1 X167.066 Y89.053 E6.89786
G1 X166.152 Y89.168 E6.9251
G1 X165.587 Y89.199 E6.94183
G1 X165.266 Y89.208 E6.95132
G1 X164.969 Y89.212 E6.9601
G1 X145.869 Y89.211 E7.52479
G1 X145.171 Y89.202 E7.54543
G1 X144.252 Y89.15 E7.57264
G1 X143.341 Y89.019 E7.59985
G1 X142.445 Y88.809 E7.62706
G1 X141.57 Y88.522 E7.65429
G1 X140.723 Y88.16 E7.68152
G1 X139.911 Y87.726 E7.70874
G1 X139.14 Y87.224 E7.73594
G1 X138.415 Y86.656 E7.76317
G1 X137.742 Y86.027 E7.79041
G1 X137.127 Y85.343 E7.8176
G1 X136.573 Y84.608 E7.84481
G1 X136.085 Y83.827 E7.87204
G1 X135.666 Y83.007 E7.89926
G1 X135.32 Y82.154 E7.92648
G1 X135.05 Y81.274 E7.95369
G1 X134.857 Y80.373 E7.98094
G1 X134.743 Y79.46 E8.00814
G1 X134.712 Y78.889 E8.02504
G1 X134.703 Y78.556 E8.03489
G1 X134.699 Y78.27 E8.04335
G1 X134.7 Y59.143 E8.60884
G1 X134.709 Y58.478 E8.6285
G1 X134.761 Y57.558 E8.65574
G1 X134.893 Y56.647 E8.68296
G1 X135.104 Y55.751 E8.71017
G1 X135.391 Y54.876 E8.7374
G0 F6000 X135.79 Y54.953
G1 F2400 X136.152 Y54.126 E8.76409
G1 X136.585 Y53.334 E8.79077
G1 X137.087 Y52.583 E8.81748
G1 X137.654 Y51.879 E8.84421
G1 X138.28 Y51.229 E8.87089
G1 X138.961 Y50.636 E8.89758
G1 X139.693 Y50.106 E8.9243
G1 X140.468 Y49.643 E8.95099
G1 X141.281 Y49.25 E8.97769
G1 X142.126 Y48.93 E9.0044
G1 X142.995 Y48.687 E9.03108
G1 X143.883 Y48.521 E9.05779
G1 X145.022 Y48.425 E9.09158
G1 X145.343 Y48.416 E9.10108
G1 X145.629 Y48.412 E9.10953
G1 X164.592 Y48.412 E9.67017
G1 X165.436 Y48.423 E9.69513
G1 X166.338 Y48.476 E9.72184
G1 X167.231 Y48.608 E9.74853
G1 X168.109 Y48.819 E9.77523
G1 X168.965 Y49.107 E9.80193
G1 X169.792 Y49.469 E9.82862
G1 X170.584 Y49.904 E9.85533
G1 X171.335 Y50.406 E9.88204
G1 X172.038 Y50.973 E9.90874
G1 X172.688 Y51.6 E9.93544
G1 X173.28 Y52.282 E9.96214
G1 X173.81 Y53.013 E9.98884
G1 X174.272 Y53.789 E10.01554
G1 X174.665 Y54.602 E10.04224
G1 X174.983 Y55.447 E10.06893
G1 X175.226 Y56.317 E10.09564
G1 X175.391 Y57.205 E10.12234
G1 X175.486 Y58.335 E10.15586
G1 X175.495 Y58.655 E10.16533
G1 X175.499 Y58.942 E10.17382
G1 X175.498 Y78.002 E10.73732
G1 X175.489 Y78.729 E10.75882
G1 X175.438 Y79.631 E10.78553
G1 X175.307 Y80.525 E10.81224
G1 X175.098 Y81.403 E10.83892
G1 X174.812 Y82.26 E10.86564
G1 X174.451 Y83.088 E10.89234
G1 X174.019 Y83.88 E10.91901
G1 X173.518 Y84.632 E10.94573
G1 X172.952 Y85.336 E10.97243
G1 X172.327 Y85.987 E10.99912
G1 X171.646 Y86.581 E11.02583
G1 X170.915 Y87.112 E11.05254
G1 X170.141 Y87.576 E11.07922
G1 X169.328 Y87.97 E11.10593
G1 X168.484 Y88.29 E11.13262
G1 X167.614 Y88.535 E11.15934
G1 X166.727 Y88.701 E11.18602
G1 X165.576 Y88.799 E11.22017
G1 X165.255 Y88.808 E11.22967
G1 X164.969 Y88.812 E11.23812
G1 X145.874 Y88.811 E11.80267
G1 X145.176 Y88.802 E11.82331
G1 X144.275 Y88.751 E11.84999
G1 X143.381 Y88.619 E11.8767
G1 X142.503 Y88.41 E11.90339
G1 X141.646 Y88.123 E11.93011
G1 X140.819 Y87.762 E11.95679
G1 X140.026 Y87.329 E11.9835
G1 X139.275 Y86.828 E12.01019
G1 X138.571 Y86.262 E12.03689
G1 X137.92 Y85.636 E12.0636
G1 X137.327 Y84.955 E12.09029
G1 X136.797 Y84.224 E12.11699
G1 X136.333 Y83.449 E12.14369
G1 X135.939 Y82.636 E12.1704
G1 X135.619 Y81.792 E12.19709
G1 X135.375 Y80.922 E12.2238
G1 X135.209 Y80.034 E12.25051
G1 X135.112 Y78.879 E12.28478
G1 X135.103 Y78.546 E12.29463
G1 X135.099 Y78.27 E12.30279
G1 X135.1 Y59.148 E12.86813
G1 X135.109 Y58.483 E12.88779
G1 X135.161 Y57.581 E12.9145
G1 X135.293 Y56.688 E12.94119
G1 X135.503 Y55.81 E12.96788
G1 X135.79 Y54.953 E12.9946
G1 F2100 E6.9946
;MESH:Test_Cube.stl
G0 F6000 X144.634 Y59.026
G0 X145.713 Y59.026
G0 X145.899 Y78.012
;TYPE:WALL-INNER
G1 F2100 E12.9946
G1 F1200 X145.899 Y59.212 E13.55042
G1 X164.699 Y59.212 E14.10624
G1 X164.699 Y78.012 E14.66207
G1 X145.899 Y78.012 E15.21789
G0 F6000 X145.499 Y78.412
;TYPE:WALL-OUTER
G1 F1200 X145.499 Y58.812 E15.79736
G1 X165.099 Y58.812 E16.37683
G1 X165.099 Y78.412 E16.9563
G1 X145.499 Y78.412 E17.53578
G0 F6000 X145.769 Y78.142
G0 X146.009 Y77.622
G0 X146.289 Y77.622
;TYPE:SKIN
G1 F1200 X146.289 Y59.602 E18.06854
G1 X164.309 Y59.602 E18.6013
G1 X164.309 Y77.622 E19.13406
G1 X146.289 Y77.622 E19.66682
G0 F6000 X146.648 Y77.261
G1 F1200 X146.84 Y77.261 E19.67249
G1 X147.406 Y77.261 E19.68923
G1 X146.648 Y76.503 E19.72092
G1 X146.648 Y75.937 E19.73765
G1 X147.971 Y77.261 E19.79299
G1 X148.537 Y77.261 E19.80972
G1 X146.648 Y75.371 E19.88873
G1 X146.648 Y74.806 E19.90543
G1 X149.103 Y77.261 E20.00808
G1 X149.669 Y77.261 E20.02481
G1 X146.648 Y74.24 E20.15112
G1 X146.648 Y73.674 E20.16786
G1 X150.234 Y77.261 E20.31781
G1 X150.8 Y77.261 E20.33455
G1 X146.648 Y73.109 E20.50815
G1 X146.648 Y72.543 E20.52488
G1 X151.366 Y77.261 E20.72214
G1 X151.931 Y77.261 E20.73885
G1 X146.648 Y71.977 E20.95976
G1 X146.648 Y71.412 E20.97646
G1 X152.497 Y77.261 E21.22102
G1 X153.063 Y77.261 E21.23775
G1 X146.648 Y70.846 E21.50597
G1 X146.648 Y70.28 E21.5227
G1 X153.628 Y77.261 E21.81456
G1 X154.194 Y77.261 E21.8313
G1 X146.648 Y69.715 E22.1468
G1 X146.648 Y69.149 E22.16354
G1 X154.76 Y77.261 E22.50271
G1 X155.325 Y77.261 E22.51941
G1 X146.648 Y68.583 E22.88223
G1 X146.648 Y68.018 E22.89893
G1 X155.891 Y77.261 E23.28539
G1 X156.457 Y77.261 E23.30213
G1 X146.648 Y67.452 E23.71225
G1 X146.648 Y66.886 E23.72899
G1 X157.022 Y77.261 E24.16276
G1 X157.588 Y77.261 E24.17949
G1 X146.648 Y66.32 E24.63693
G1 X146.648 Y65.755 E24.65363
G1 X158.154 Y77.261 E25.13471
G1 X158.72 Y77.261 E25.15144
G1 X146.648 Y65.189 E25.65619
G1 X146.648 Y64.623 E25.67292
G1 X159.285 Y77.261 E26.20131
G1 X159.851 Y77.261 E26.21804
G1 X146.648 Y64.058 E26.77007
G1 X146.648 Y63.492 E26.78681
G1 X160.417 Y77.261 E27.36251
G1 X160.982 Y77.261 E27.37921
G1 X146.648 Y62.926 E27.97855
G1 X146.648 Y62.361 E27.99526
G1 X161.548 Y77.261 E28.61824
G1 X162.114 Y77.261 E28.63498
G1 X146.648 Y61.795 E29.28163
G1 X146.648 Y61.229 E29.29836
G1 X162.679 Y77.261 E29.96865
G1 X163.245 Y77.261 E29.98539
G1 X146.648 Y60.664 E30.67933
G1 X146.648 Y60.098 E30.69606
G1 X163.811 Y77.261 E31.41367
G1 X163.947 Y77.262 E31.41769
G1 X163.947 Y76.832 E31.4304
G1 X147.078 Y59.962 E32.13573
G1 X147.643 Y59.962 E32.15244
G1 X163.947 Y76.266 E32.83413
G1 X163.947 Y75.7 E32.85086
G1 X148.209 Y59.962 E33.50888
G1 X148.775 Y59.962 E33.52562
G1 X163.947 Y75.135 E34.16
G1 X163.947 Y74.569 E34.17673
G1 X149.34 Y59.962 E34.78747
G1 X149.906 Y59.962 E34.8042
G1 X163.947 Y74.003 E35.39127
G1 X163.947 Y73.437 E35.408
G1 X150.472 Y59.962 E35.97141
G1 X151.038 Y59.962 E35.98814
G1 X163.947 Y72.872 E36.5279
G1 X163.947 Y72.306 E36.54464
G1 X151.603 Y59.962 E37.06075
G1 X152.169 Y59.962 E37.07749
G1 X163.947 Y71.74 E37.56994
G1 X163.947 Y71.175 E37.58664
G1 X152.735 Y59.962 E38.05545
G1 X153.3 Y59.962 E38.07215
G1 X163.947 Y70.609 E38.51732
G1 X163.947 Y70.043 E38.53405
G1 X153.866 Y59.962 E38.95555
G1 X154.432 Y59.962 E38.97228
G1 X163.947 Y69.478 E39.37014
G1 X163.947 Y68.912 E39.38687
G1 X154.997 Y59.962 E39.76108
G1 X155.563 Y59.962 E39.77781
G1 X163.947 Y68.346 E40.12836
G1 X163.947 Y67.781 E40.14506
G1 X156.129 Y59.962 E40.47196
G1 X156.694 Y59.962 E40.48867
G1 X163.947 Y67.215 E40.79192
G1 X163.947 Y66.649 E40.80866
G1 X157.26 Y59.962 E41.08825
G1 X157.826 Y59.962 E41.10498
G1 X163.947 Y66.084 E41.36093
G1 X163.947 Y65.518 E41.37766
G1 X158.391 Y59.962 E41.60996
G1 X158.957 Y59.962 E41.6267
G1 X163.947 Y64.952 E41.83534
G1 X163.947 Y64.387 E41.85204
M104 S190
G1 X159.523 Y59.962 E42.03703
G1 X160.088 Y59.962 E42.05374
G1 X163.947 Y63.821 E42.21509
G1 X163.947 Y63.255 E42.23182
G1 X160.654 Y59.962 E42.3695
G1 X161.22 Y59.962 E42.38624
G1 X163.947 Y62.689 E42.50026
G1 X163.947 Y62.124 E42.51696
G1 X161.786 Y59.962 E42.60734
G1 X162.351 Y59.962 E42.62404
G1 X163.947 Y61.558 E42.69077
G1 X163.947 Y60.992 E42.7075
G1 X162.917 Y59.962 E42.75057
G1 X163.483 Y59.962 E42.7673
G1 X163.947 Y59.961 E42.78102
G0 F6000 X163.947 Y60.427
G1 F1200 X163.483 Y59.962 E42.80044
G1 F2100 E36.80044
G0 F6000 X163.483 Y59.322
G0 X146.081 Y59.394
G0 X146.009 Y77.068
G0 X146.648 Y77.068
G1 F2100 E42.80044
G1 F1200 X146.84 Y77.261 E42.80849
G0 F6000 X146.84 Y77.812
;MESH:NONMESH
G0 F300 X146.84 Y77.812 Z0.4
G0 F6000 X145.899 Y78.012
;TIME_ELAPSED:70.664599
;LAYER:1
M140 S50
M106 S14.2
;TYPE:WALL-INNER
;MESH:Test_Cube.stl
G1 F1950 X145.899 Y59.212 E43.36431
G1 X164.699 Y59.212 E43.92013
G1 X164.699 Y78.012 E44.47595
G1 X145.899 Y78.012 E45.03177
G0 F7500 X145.499 Y78.412
;TYPE:WALL-OUTER
G1 F1500 X145.499 Y58.812 E45.61125
G1 X165.099 Y58.812 E46.19072
G1 X165.099 Y78.412 E46.77019
G1 X145.499 Y78.412 E47.34967
G0 F7500 X145.769 Y78.142
G0 X146.009 Y77.622
G0 X146.289 Y77.622
;TYPE:SKIN
G1 F1500 X146.289 Y59.602 E47.88243
G1 X164.309 Y59.602 E48.41519
G1 X164.309 Y77.622 E48.94795
G1 X146.289 Y77.622 E49.48071
G0 F7500 X146.009 Y77.622
G0 X146.009 Y59.962
G0 X146.648 Y59.962
G1 F1500 X146.648 Y60.392 E49.49342
G1 X147.078 Y59.961 E49.51142
G1 X147.644 Y59.961 E49.52815
G1 X146.648 Y60.958 E49.56982
G1 X146.648 Y61.523 E49.58652
G1 X148.21 Y59.961 E49.65183
G1 X148.775 Y59.961 E49.66853
G1 X146.648 Y62.089 E49.75749
G1 X146.648 Y62.655 E49.77422
G1 X149.341 Y59.961 E49.88684
G1 X149.907 Y59.961 E49.90357
G1 X146.648 Y63.221 E50.03986
G1 X146.648 Y63.786 E50.05656
G1 X150.473 Y59.961 E50.21649
G1 X151.038 Y59.961 E50.23319
G1 X146.648 Y64.352 E50.41676
G1 X146.648 Y64.918 E50.4335
G1 X151.604 Y59.961 E50.64074
G1 X152.17 Y59.961 E50.65747
G1 X146.648 Y65.483 E50.88835
G1 X146.648 Y66.049 E50.90508
G1 X152.735 Y59.961 E51.15961
G1 X153.301 Y59.961 E51.17634
G1 X146.648 Y66.615 E51.45453
G1 X146.648 Y67.18 E51.47124
G1 X153.867 Y59.961 E51.77307
G1 X154.432 Y59.961 E51.78978
G1 X146.648 Y67.746 E52.11525
G1 X146.648 Y68.312 E52.13199
G1 X154.998 Y59.961 E52.48113
G1 X155.564 Y59.961 E52.49787
G1 X146.648 Y68.877 E52.87065
G1 X146.648 Y69.443 E52.88739
G1 X156.129 Y59.961 E53.28382
G1 X156.695 Y59.961 E53.30055
G1 X146.648 Y70.009 E53.72065
G1 X146.648 Y70.574 E53.73736
G1 X157.261 Y59.961 E54.1811
G1 X157.826 Y59.961 E54.1978
G1 X146.648 Y71.14 E54.66519
G1 X146.648 Y71.706 E54.68192
G1 X158.392 Y59.961 E55.17297
G1 X158.958 Y59.961 E55.18971
G1 X146.648 Y72.271 E55.7044
G1 X146.648 Y72.837 E55.72113
G1 X159.523 Y59.961 E56.25947
G1 X160.089 Y59.961 E56.27621
G1 X146.648 Y73.403 E56.83821
G1 X146.648 Y73.969 E56.85495
G1 X160.655 Y59.961 E57.44061
G1 X161.221 Y59.961 E57.45735
G1 X146.648 Y74.534 E58.06666
G1 X146.648 Y75.1 E58.0834
G1 X161.786 Y59.961 E58.71635
G1 X162.352 Y59.961 E58.73309
G1 X146.648 Y75.666 E59.38971
G1 X146.648 Y76.231 E59.40641
G1 X162.918 Y59.961 E60.08668
G1 X163.483 Y59.961 E60.10339
G1 X146.648 Y76.797 E60.8073
G1 X146.648 Y77.261 E60.82101
G1 X146.749 Y77.262 E60.824
G1 X163.947 Y60.063 E61.54309
G1 X163.947 Y60.629 E61.55982
G1 X147.315 Y77.262 E62.25525
G1 X147.88 Y77.262 E62.27195
